;FLAVOR:Marlin
;TIME:8475
;Filament used: 4.20708m
;Layer height: 0.18
;MINX:78.807
;MINY:79.4
;MINZ:0.24
;MAXX:141.183
;MAXY:141.656
;MAXZ:14.49
;Generated with Cura_SteamEngine 4.5.0
M140 S55
M105
M190 S55
M104 S245
M105
M109 S245
M82 ;absolute extrusion mode
M201 X500.00 Y500.00 Z100.00 E5000.00 ;Setup machine max acceleration
M203 X500.00 Y500.00 Z10.00 E50.00 ;Setup machine max feedrate
M204 P500.00 R1000.00 T500.00 ;Setup Print/Retract/Travel acceleration
M205 X8.00 Y8.00 Z0.40 E5.00 ;Setup Jerk
M220 S100 ;Reset Feedrate
M221 S100 ;Reset Flowrate

G28 ;Home

G92 E0 ;Reset Extruder
G1 Z2.0 F3000 ;Move Z Axis up
G1 X10.1 Y20 Z0.28 F5000.0 ;Move to start position
G1 X10.1 Y200.0 Z0.28 F1500.0 E15 ;Draw the first line
G1 X10.4 Y200.0 Z0.28 F5000.0 ;Move to side a little
G1 X10.4 Y20 Z0.28 F1500.0 E30 ;Draw the second line
G92 E0 ;Reset Extruder
G1 Z2.0 F3000 ;Move Z Axis up

G92 E0
G92 E0
G1 F4800 E-6
;LAYER_COUNT:74
;LAYER:-6
M107
G0 F4800 X98.284 Y85.453 Z0.24
;TYPE:SUPPORT-INTERFACE
G1 F4800 E0
G1 F675 X98.828 Y84.872 E0.07942
G1 X99.39 Y84.368 E0.15474
G1 X99.993 Y83.927 E0.22928
G1 X100.651 Y83.54 E0.30545
G1 X101.332 Y83.228 E0.38019
G1 X101.793 Y83.067 E0.42892
G1 X102.222 Y82.866 E0.47619
G1 X102.589 Y82.597 E0.52159
G1 X102.82 Y82.395 E0.55221
G1 X103.426 Y81.959 E0.6267
G1 X104.064 Y81.589 E0.70029
G1 X104.768 Y81.271 E0.77737
G1 X105.47 Y81.037 E0.85121
G1 X106.366 Y80.84 E0.94274
G1 X107.236 Y80.702 E1.03064
G1 X107.613 Y80.652 E1.06859
G1 X108.05 Y80.607 E1.11242
G1 X108.867 Y80.564 E1.19405
G1 X111.206 Y80.567 E1.42744
G1 X112.115 Y80.623 E1.51831
G1 X112.785 Y80.71 E1.58573
G1 X113.7 Y80.858 E1.67821
G1 X114.379 Y81.003 E1.74749
G1 X114.475 Y81.029 E1.75741
G1 X115.162 Y81.252 E1.82948
G1 X115.849 Y81.553 E1.90432
G1 X116.505 Y81.923 E1.97947
G1 X117.11 Y82.349 E2.05331
G1 X117.424 Y82.617 E2.0945
G1 X117.809 Y82.887 E2.14142
G1 X118.157 Y83.046 E2.17959
G1 X118.833 Y83.297 E2.25154
G1 X119.503 Y83.625 E2.32598
G1 X120.138 Y84.015 E2.40034
G1 X120.735 Y84.474 E2.47548
G1 X121.316 Y85.018 E2.55489
G1 X121.82 Y85.58 E2.63022
G1 X122.261 Y86.183 E2.70476
G1 X122.648 Y86.841 E2.78093
G1 X122.927 Y87.44 E2.84686
G1 X122.962 Y87.528 E2.85631
G1 X123.207 Y88.241 E2.93154
G1 X123.358 Y88.869 E2.99598
G1 X123.376 Y88.969 E3.00612
G1 X123.472 Y89.703 E3.07999
G1 X123.499 Y90.328 E3.14241
G1 X123.499 Y94.608 E3.56947
G1 X123.547 Y95.081 E3.61691
G1 X123.694 Y95.558 E3.66671
G1 X123.934 Y95.997 E3.71663
G1 X124.256 Y96.379 E3.76648
G1 X124.648 Y96.689 E3.81635
G1 X125.093 Y96.915 E3.86615
G1 X125.571 Y97.048 E3.91566
G1 X125.978 Y97.083 E3.95642
G1 X130.3 Y97.084 E4.38767
G1 X130.964 Y97.117 E4.454
G1 X131.062 Y97.127 E4.46383
G1 X131.806 Y97.241 E4.53894
G1 X132.513 Y97.425 E4.61183
G1 X133.229 Y97.69 E4.68801
G1 X133.907 Y98.023 E4.76338
G1 X134.547 Y98.42 E4.83853
G1 X135.057 Y98.807 E4.90241
G1 X135.148 Y98.884 E4.9143
G1 X135.711 Y99.411 E4.99125
G1 X136.215 Y99.973 E5.06657
G1 X136.656 Y100.576 E5.14112
G1 X137.043 Y101.234 E5.21728
G1 X137.361 Y101.928 E5.29346
G1 X137.529 Y102.412 E5.34458
G1 X137.728 Y102.841 E5.39176
G1 X137.992 Y103.202 E5.43639
G1 X138.218 Y103.463 E5.47084
G1 X138.603 Y103.999 E5.53669
G1 X138.664 Y104.093 E5.54787
G1 X139.034 Y104.747 E5.62284
G1 X139.331 Y105.418 E5.69606
G1 X139.56 Y106.12 E5.76974
G1 X139.747 Y106.98 E5.85756
G1 X139.88 Y107.832 E5.9436
G1 X139.921 Y108.136 E5.97421
G1 X139.969 Y108.551 E6.01589
G1 X140.019 Y109.423 E6.10304
G1 X140.016 Y111.781 E6.33833
G1 X139.959 Y112.701 E6.4303
G1 X139.931 Y112.97 E6.45729
G1 X139.881 Y113.364 E6.49691
G1 X139.737 Y114.275 E6.58894
G1 X139.577 Y115.032 E6.66614
G1 X139.343 Y115.759 E6.74235
G1 X139.052 Y116.428 E6.81514
G1 X138.722 Y117.026 E6.8833
G1 X138.676 Y117.099 E6.89191
G1 X138.308 Y117.632 E6.95653
G1 X138.242 Y117.718 E6.96735
G1 X137.938 Y118.074 E7.01406
G1 X137.669 Y118.46 E7.06101
G1 X137.515 Y118.801 E7.09834
G1 X137.286 Y119.416 E7.16382
G1 X136.963 Y120.078 E7.23732
G1 X136.568 Y120.721 E7.31262
G1 X136.109 Y121.318 E7.38776
G1 X135.569 Y121.895 E7.46661
G1 X135.003 Y122.403 E7.5425
G1 X134.4 Y122.844 E7.61704
G1 X133.745 Y123.23 E7.6929
G1 X133.075 Y123.538 E7.76648
G1 X132.342 Y123.79 E7.84382
G1 X131.706 Y123.942 E7.90907
G1 X131.617 Y123.958 E7.91809
G1 X130.879 Y124.055 E7.99236
G1 X130.263 Y124.082 E8.05388
G1 X125.976 Y124.083 E8.48164
G1 X125.503 Y124.131 E8.52908
G1 X125.025 Y124.278 E8.57898
G1 X124.587 Y124.518 E8.62882
G1 X124.205 Y124.84 E8.67867
G1 X123.894 Y125.232 E8.72859
G1 X123.667 Y125.679 E8.77862
G1 X123.536 Y126.157 E8.82807
G1 X123.501 Y126.562 E8.86863
G1 X123.499 Y130.885 E9.29998
G1 X123.466 Y131.563 E9.36772
G1 X123.456 Y131.655 E9.37695
G1 X123.344 Y132.375 E9.44966
G1 X123.18 Y133.021 E9.51616
G1 X123.144 Y133.14 E9.52856
G1 X122.893 Y133.813 E9.60023
G1 X122.57 Y134.475 E9.67373
G1 X122.175 Y135.118 E9.74903
G1 X121.716 Y135.715 E9.82417
G1 X121.175 Y136.293 E9.90316
G1 X120.61 Y136.8 E9.97891
G1 X120.007 Y137.241 E10.05345
G1 X119.352 Y137.627 E10.12931
G1 X118.668 Y137.941 E10.20441
G1 X118.221 Y138.097 E10.25165
G1 X117.794 Y138.297 E10.2987
G1 X117.457 Y138.539 E10.3401
G1 X117.102 Y138.843 E10.38673
G1 X116.462 Y139.288 E10.46451
G1 X115.818 Y139.647 E10.53808
G1 X115.127 Y139.945 E10.61317
G1 X114.428 Y140.169 E10.68641
G1 X113.568 Y140.346 E10.77402
G1 X112.362 Y140.519 E10.89558
G1 X112.059 Y140.552 E10.92599
G1 X111.156 Y140.604 E11.01625
G1 X108.809 Y140.603 E11.25043
G1 X107.865 Y140.543 E11.34481
G1 X107.292 Y140.469 E11.40246
G1 X106.354 Y140.323 E11.49718
G1 X105.672 Y140.183 E11.56665
G1 X105.581 Y140.159 E11.57604
G1 X104.958 Y139.965 E11.64115
G1 X104.87 Y139.932 E11.65053
G1 X104.182 Y139.635 E11.7253
G1 X103.538 Y139.276 E11.79887
G1 X102.907 Y138.835 E11.87568
G1 X102.555 Y138.536 E11.92177
G1 X102.169 Y138.271 E11.96848
G1 X101.835 Y138.119 E12.0051
G1 X101.167 Y137.871 E12.0762
G1 X100.497 Y137.543 E12.15063
G1 X99.862 Y137.153 E12.22499
G1 X99.25 Y136.681 E12.30211
G1 X98.8 Y136.269 E12.36298
G1 X98.684 Y136.15 E12.37957
G1 X98.18 Y135.588 E12.45489
G1 X97.738 Y134.983 E12.52965
G1 X97.352 Y134.327 E12.6056
G1 X97.044 Y133.658 E12.67909
G1 X96.793 Y132.927 E12.75621
G1 X96.64 Y132.288 E12.82177
G1 X96.624 Y132.199 E12.83079
G1 X96.528 Y131.465 E12.90465
G1 X96.501 Y130.84 E12.96707
G1 X96.501 Y126.56 E13.39413
G1 X96.453 Y126.087 E13.44157
G1 X96.306 Y125.61 E13.49138
G1 X96.066 Y125.171 E13.5413
G1 X95.744 Y124.789 E13.59115
G1 X95.352 Y124.479 E13.64102
G1 X94.907 Y124.253 E13.69082
G1 X94.429 Y124.12 E13.74032
G1 X94.022 Y124.085 E13.78108
G1 X89.698 Y124.083 E14.21253
G1 X89.022 Y124.05 E14.28007
G1 X88.93 Y124.04 E14.2893
G1 X88.207 Y123.927 E14.36232
G1 X87.445 Y123.728 E14.4409
G1 X86.772 Y123.477 E14.51257
G1 X86.102 Y123.149 E14.587
G1 X85.467 Y122.759 E14.66136
G1 X84.855 Y122.287 E14.73848
G1 X84.405 Y121.875 E14.79936
G1 X84.283 Y121.749 E14.81686
G1 X83.785 Y121.194 E14.89126
G1 X83.343 Y120.589 E14.96602
G1 X82.957 Y119.933 E15.04197
G1 X82.673 Y119.323 E15.10911
G1 X82.638 Y119.235 E15.11856
G1 X82.498 Y118.833 E15.16103
G1 X82.299 Y118.403 E15.20831
G1 X82.032 Y118.037 E15.25351
G1 X81.787 Y117.755 E15.29079
G1 X81.367 Y117.169 E15.36273
G1 X80.977 Y116.486 E15.4412
G1 X80.678 Y115.814 E15.51459
G1 X80.465 Y115.181 E15.58123
G1 X80.443 Y115.099 E15.58971
G1 X80.261 Y114.269 E15.67449
G1 X80.126 Y113.42 E15.76027
G1 X80.032 Y112.597 E15.84292
G1 X79.981 Y111.693 E15.93327
G1 X79.984 Y109.41 E16.16107
G1 X80.042 Y108.48 E16.25404
G1 X80.07 Y108.201 E16.28202
G1 X80.133 Y107.741 E16.32835
G1 X80.29 Y106.826 E16.42098
G1 X80.452 Y106.103 E16.49491
G1 X80.696 Y105.376 E16.57143
G1 X80.998 Y104.703 E16.64503
G1 X81.369 Y104.056 E16.71945
G1 X81.768 Y103.494 E16.78822
G1 X81.827 Y103.42 E16.79767
G1 X82.01 Y103.21 E16.82546
G1 X82.281 Y102.827 E16.87227
G1 X82.448 Y102.466 E16.91196
G1 X82.718 Y101.741 E16.98916
G1 X83.037 Y101.089 E17.06158
G1 X83.432 Y100.446 E17.13688
G1 X83.891 Y99.849 E17.21202
G1 X84.443 Y99.261 E17.29249
G1 X84.997 Y98.764 E17.36676
G1 X85.6 Y98.323 E17.4413
G1 X86.258 Y97.936 E17.51747
G1 X86.925 Y97.629 E17.59073
G1 X87.658 Y97.377 E17.66807
G1 X88.294 Y97.225 E17.73332
G1 X88.383 Y97.209 E17.74234
G1 X89.12 Y97.112 E17.81652
G1 X89.739 Y97.085 E17.87834
G1 X94.024 Y97.085 E18.3059
G1 X94.497 Y97.037 E18.35334
G1 X94.974 Y96.89 E18.40314
G1 X95.413 Y96.65 E18.45306
G1 X95.795 Y96.328 E18.50291
G1 X96.105 Y95.936 E18.55278
G1 X96.331 Y95.491 E18.60258
G1 X96.464 Y95.013 E18.65209
G1 X96.499 Y94.606 E18.69285
G1 X96.501 Y90.281 E19.1244
G1 X96.534 Y89.605 E19.19193
G1 X96.545 Y89.503 E19.20217
G1 X96.656 Y88.793 E19.27387
G1 X96.82 Y88.147 E19.34037
G1 X96.856 Y88.028 E19.35278
G1 X97.111 Y87.345 E19.42552
G1 X97.43 Y86.693 E19.49795
G1 X97.825 Y86.05 E19.57325
G1 X98.284 Y85.453 E19.64839
G0 F4800 X99 Y84.717
G1 F675 X99 Y136.452 E24.81053
G0 F4800 X102 Y138.194
G1 F675 X102 Y82.97 E30.3208
G0 F4800 X105 Y81.193
G1 F675 X105 Y139.978 E36.18639
G0 F4800 X108 Y140.551
G1 F675 X108 Y80.612 E42.16713
G0 F4800 X111 Y80.567
G1 F675 X111 Y140.603 E48.15755
G0 F4800 X114 Y140.258
G1 F675 X114 Y80.923 E54.07802
G0 F4800 X117 Y82.272
G1 F675 X117 Y138.914 E59.72978
G0 F4800 X120 Y137.246
G1 F675 X120 Y83.931 E65.04957
G0 F4800 X123 Y87.639
G1 F675 X123 Y133.527 E69.62829
G1 F4800 E63.62829
G0 F4800 X124.299 Y133.344
G0 X126.035 Y125.247
G0 X126 Y124.083
G1 F4800 E69.62829
G1 F675 X126 Y97.084 E72.32227
G0 F4800 X129 Y97.084
G1 F675 X129 Y124.083 E75.01624
G0 F4800 X132 Y123.872
G1 F675 X132 Y97.292 E77.6684
G0 F4800 X135 Y98.764
G1 F675 X135 Y122.406 E80.02741
G0 F4800 X138 Y118.002
G1 F675 X138 Y103.212 E81.50316
G1 F4800 E75.50316
G0 F4800 X138.736 Y102.248
G0 X138.027 Y100.604
G0 X137.136 Y99.261
G0 X135.917 Y98.008
G0 X121.418 Y83.526
G0 X120.09 Y82.619
G0 X116.283 Y80.468
G0 X114.792 Y79.908
G0 X112.572 Y79.505
G0 X111.148 Y79.4
G0 X107.913 Y79.45
G0 X106.053 Y79.714
G0 X105.046 Y79.947
G0 X103.566 Y80.536
G0 X99.283 Y83.001
G0 X98.028 Y84.026
G0 X97.336 Y84.77
G0 X96.43 Y86.095
G0 X95.996 Y86.991
G0 X95.523 Y88.523
G0 X95.403 Y89.324
G0 X95.121 Y95.304
G0 X96 Y96.068
G1 F4800 E81.50316
G1 F675 X96 Y125.092 E84.39919
G0 F4800 X93 Y124.084
G1 F675 X93 Y97.085 E87.09316
G0 F4800 X90 Y97.085
G1 F675 X90 Y124.083 E89.78703
G0 F4800 X87 Y123.562
G1 F675 X87 Y97.603 E92.37723
G0 F4800 X84 Y99.732
G1 F675 X84 Y121.433 E94.54256
G0 F4800 X81 Y116.526
G1 F675 X81 Y104.699 E95.72267
G1 F4800 E89.72267
G0 F300 X81 Y104.699 Z0.51
G0 F4800 X79.618 Y104.936
G0 X79.303 Y105.893
G0 X78.883 Y108.368
G0 X78.817 Y109.471
G0 X78.807 Y112.446
G0 X79.119 Y114.499
G0 X79.348 Y115.514
G0 X79.933 Y117.001
G0 X81.601 Y119.777
G0 X82.689 Y120.07
;TIME_ELAPSED:95.468626
;LAYER:-5
M140 S45
;TYPE:SUPPORT
G1 F4800 E95.72267
G1 F1500 X83.086 Y120.744 E95.75779
G1 X83.55 Y121.379 E95.7931
G1 X84.065 Y121.955 E95.8278
G1 X84.122 Y122.016 E95.83154
G1 X84.661 Y122.515 E95.86452
G1 X85.286 Y122.997 E95.89996
G1 X85.946 Y123.405 E95.9348
G1 X86.189 Y123.524 E95.94695
G1 X82.65 Y119.985 E96.17168
G1 X82.397 Y119.44 E96.19866
G1 X82.358 Y119.344 E96.20331
G1 X82.219 Y118.945 E96.22228
G1 X82.039 Y118.555 E96.24157
G1 X81.96 Y118.446 E96.24761
G1 X87.587 Y124.074 E96.60496
G1 X88.133 Y124.216 E96.63029
G1 X88.661 Y124.299 E96.65429
G1 X80.49 Y116.128 E97.17315
G1 X80.399 Y115.923 E97.18322
G1 X80.153 Y115.176 E97.21853
G1 X80.087 Y114.877 E97.23228
G1 X89.586 Y124.376 E97.83547
G1 X89.692 Y124.382 E97.84023
G1 X90.441 Y124.382 E97.87386
G1 X79.887 Y113.828 E98.54404
G1 X79.822 Y113.414 E98.56286
G1 X79.758 Y112.851 E98.5883
G1 X91.29 Y124.382 E99.32055
G1 X92.138 Y124.382 E99.35862
G1 X79.693 Y111.937 E100.14888
G1 X79.681 Y111.708 E100.15918
G1 X79.681 Y111.077 E100.18751
G1 X92.988 Y124.383 E101.03247
G1 X93.836 Y124.383 E101.07055
G1 X79.683 Y110.23 E101.96926
G1 X79.684 Y109.404 E102.00635
G1 X79.685 Y109.383 E102.00729
G1 X94.872 Y124.571 E102.9717
G0 F4800 X95.19 Y124.732
G1 F1500 X95.534 Y125.005 E102.99142
G1 X95.817 Y125.34 E103.01111
G1 X96.025 Y125.724 E103.03072
G1 X111.202 Y140.9 E103.99442
G1 X112.004 Y140.854 E104.03049
G1 X79.734 Y108.584 E106.07963
G1 X79.741 Y108.46 E106.08521
G1 X79.769 Y108.185 E106.09762
G1 X79.818 Y107.82 E106.11416
G1 X112.762 Y140.763 E108.20606
G1 X113.504 Y140.657 E108.23972
G1 X79.939 Y107.092 E110.37109
G1 X79.994 Y106.772 E110.38567
G1 X80.081 Y106.385 E110.40348
G1 X114.214 Y140.518 E112.57092
G1 X114.489 Y140.462 E112.58352
G1 X114.881 Y140.337 E112.602
G1 X80.263 Y105.719 E114.80024
G1 X80.414 Y105.271 E114.82146
G1 X80.491 Y105.098 E114.82997
G1 X115.501 Y140.108 E117.0531
G1 X115.939 Y139.921 E117.07448
G1 X116.082 Y139.841 E117.08184
G1 X80.757 Y104.516 E119.32497
G1 X81.067 Y103.977 E119.35289
G1 X116.626 Y139.536 E121.61088
G1 X116.705 Y139.489 E121.61501
G1 X117.128 Y139.19 E121.63827
G1 X81.412 Y103.473 E123.90626
G1 X81.523 Y103.318 E123.91482
G1 X81.585 Y103.239 E123.91933
G1 X81.772 Y103.024 E123.93212
G1 X81.788 Y103.001 E123.93338
G1 X117.598 Y138.811 E126.20731
G1 X117.642 Y138.773 E126.20992
G1 X117.946 Y138.556 E126.22669
G1 X118.113 Y138.478 E126.23497
G1 X82.112 Y102.476 E128.52106
G1 X82.17 Y102.351 E128.52725
G1 X82.349 Y101.865 E128.5505
G1 X118.722 Y138.238 E130.86018
G1 X118.774 Y138.22 E130.86265
G1 X119.308 Y137.975 E130.88903
G1 X82.61 Y101.278 E133.21932
G1 X82.78 Y100.931 E133.23667
G1 X82.906 Y100.725 E133.24751
G1 X119.857 Y137.676 E135.5939
G1 X120.161 Y137.498 E135.60971
G1 X120.372 Y137.343 E135.62147
G1 X83.236 Y100.206 E137.97963
G1 X83.605 Y99.727 E138.00678
G1 X120.857 Y136.979 E140.37228
G1 X121.304 Y136.578 E140.39924
G1 X84.007 Y99.28 E142.76763
G1 X84.173 Y99.101 E142.77859
G1 X84.236 Y99.043 E142.78243
G1 X84.437 Y98.862 E142.79458
G1 X121.722 Y136.147 E145.16217
G1 X121.937 Y135.917 E145.17631
G1 X122.113 Y135.689 E145.18924
G1 X84.892 Y98.468 E147.55277
G1 X85.382 Y98.11 E147.58002
G1 X122.473 Y135.201 E149.93529
G1 X122.798 Y134.677 E149.96298
G1 X85.911 Y97.79 E152.3053
G1 X86.112 Y97.671 E152.31578
G1 X86.473 Y97.504 E152.33364
G1 X123.081 Y134.111 E154.65822
G1 X123.17 Y133.929 E154.66731
G1 X123.326 Y133.508 E154.68747
G1 X87.075 Y97.258 E156.98937
G1 X87.474 Y97.118 E157.00836
G1 X87.585 Y97.085 E157.01356
G1 X87.719 Y97.053 E157.01975
G1 X123.527 Y132.861 E159.29355
G1 X123.634 Y132.448 E159.3127
G1 X123.679 Y132.164 E159.32562
G1 X88.415 Y96.9 E161.56487
G1 X89.014 Y96.817 E161.59203
G1 X89.106 Y96.811 E161.59617
G1 X89.172 Y96.809 E161.59913
G1 X123.773 Y131.41 E163.79629
G1 X123.798 Y130.889 E163.81971
G1 X123.799 Y130.587 E163.83327
G1 X89.996 Y96.784 E165.97976
G1 X90.844 Y96.784 E166.01783
G1 X123.799 Y129.739 E168.11047
G1 X123.8 Y128.891 E168.14855
G1 X91.693 Y96.784 E170.18734
G1 X92.541 Y96.784 E170.22541
G1 X123.8 Y128.042 E172.21032
G1 X123.8 Y127.195 E172.24836
G1 X93.39 Y96.784 E174.17942
G1 X94.009 Y96.783 E174.20721
G1 X94.217 Y96.763 E174.21659
G1 X123.819 Y126.364 E176.09629
G1 X123.832 Y126.209 E176.10327
G1 X123.948 Y125.787 E176.12292
G1 X123.996 Y125.693 E176.12766
G1 X94.894 Y96.591 E177.97563
G1 X95.243 Y96.399 E177.99352
G1 X95.41 Y96.259 E178.0033
G1 X124.324 Y125.172 E179.83931
G1 X124.421 Y125.049 E179.84634
G1 X124.756 Y124.766 E179.86603
G1 X124.763 Y124.763 E179.86637
G1 X95.816 Y95.816 E181.7045
G1 X95.85 Y95.774 E181.70693
G1 X96.049 Y95.381 E181.72671
G1 X96.088 Y95.239 E181.73332
G1 X125.341 Y124.493 E183.59091
G1 X125.561 Y124.426 E183.60124
G1 X125.99 Y124.382 E183.6206
G1 X126.079 Y124.382 E183.6246
G1 X96.198 Y94.501 E185.52204
G1 X96.198 Y93.652 E185.56016
G1 X126.927 Y124.382 E187.51148
G1 X127.776 Y124.382 E187.5496
G1 X96.199 Y92.804 E189.55477
G1 X96.199 Y91.956 E189.59284
G1 X128.624 Y124.382 E191.65186
G1 X129.473 Y124.382 E191.68998
G1 X96.199 Y91.108 E193.80287
G1 X96.2 Y90.276 E193.84023
G1 X96.201 Y90.261 E193.84091
G1 X130.319 Y124.38 E196.00743
G1 X130.891 Y124.354 E196.03314
G1 X130.984 Y124.347 E196.03732
G1 X131.117 Y124.329 E196.04335
G1 X96.247 Y89.459 E198.25759
G1 X96.363 Y88.726 E198.29091
G1 X131.852 Y124.215 E200.54446
G1 X132.413 Y124.08 E200.57037
G1 X132.524 Y124.047 E200.57557
