;FLAVOR:Marlin
;TIME:7313
;Filament used: 4.22726m
;Layer height: 0.2
;MINX:72.919
;MINY:42.305
;MINZ:0.24
;MAXX:135.322
;MAXY:104.733
;MAXZ:14.55
;Generated with Cura_SteamEngine 4.5.0
M140 S55
M105
M190 S55
M104 S260
M105
M109 S260
M82 ;absolute extrusion mode
M201 X500.00 Y500.00 Z100.00 E5000.00 ;Setup machine max acceleration
M203 X500.00 Y500.00 Z10.00 E50.00 ;Setup machine max feedrate
M204 P500.00 R1000.00 T500.00 ;Setup Print/Retract/Travel acceleration
M205 X8.00 Y8.00 Z0.40 E5.00 ;Setup Jerk
M220 S100 ;Reset Feedrate
M221 S100 ;Reset Flowrate

G28 ;Home

G92 E0 ;Reset Extruder
G1 Z2.0 F3000 ;Move Z Axis up
G1 X10.1 Y20 Z0.28 F5000.0 ;Move to start position
G1 X10.1 Y200.0 Z0.28 F1500.0 E15 ;Draw the first line
G1 X10.4 Y200.0 Z0.28 F5000.0 ;Move to side a little
G1 X10.4 Y20 Z0.28 F1500.0 E30 ;Draw the second line
G92 E0 ;Reset Extruder
G1 Z2.0 F3000 ;Move Z Axis up

G92 E0
G92 E0
G1 F4800 E-6
;LAYER_COUNT:67
;LAYER:-6
M107
G0 F4800 X78.012 Y62.776 Z0.24
;TYPE:SUPPORT-INTERFACE
G1 F4800 E0
G1 F675 X78.556 Y62.195 E0.07942
G1 X79.118 Y61.691 E0.15474
G1 X79.721 Y61.25 E0.22928
G1 X80.379 Y60.863 E0.30545
G1 X81.046 Y60.556 E0.37872
G1 X81.779 Y60.304 E0.45606
G1 X82.415 Y60.152 E0.5213
G1 X82.504 Y60.136 E0.53033
G1 X83.241 Y60.039 E0.6045
G1 X83.86 Y60.012 E0.66632
G1 X88.146 Y60.012 E1.09398
G1 X88.619 Y59.964 E1.14142
G1 X89.096 Y59.817 E1.19122
G1 X89.535 Y59.577 E1.24115
G1 X89.917 Y59.255 E1.291
G1 X90.227 Y58.863 E1.34086
G1 X90.453 Y58.418 E1.39066
G1 X90.586 Y57.94 E1.44017
G1 X90.621 Y57.533 E1.48093
G1 X90.623 Y53.209 E1.91238
G1 X90.656 Y52.533 E1.97991
G1 X90.667 Y52.431 E1.99015
G1 X90.778 Y51.721 E2.06186
G1 X90.942 Y51.075 E2.12836
G1 X90.978 Y50.956 E2.14076
G1 X91.233 Y50.273 E2.21351
G1 X91.552 Y49.621 E2.28593
G1 X91.947 Y48.978 E2.36123
G1 X92.406 Y48.381 E2.43637
G1 X92.95 Y47.8 E2.51579
G1 X93.512 Y47.296 E2.59111
G1 X94.115 Y46.855 E2.66565
G1 X94.773 Y46.468 E2.74182
G1 X95.454 Y46.156 E2.81657
G1 X95.921 Y45.993 E2.86592
G1 X96.345 Y45.795 E2.91261
G1 X96.64 Y45.588 E2.94857
G1 X97.235 Y45.105 E3.02504
G1 X97.865 Y44.693 E3.10015
G1 X98.528 Y44.348 E3.17473
G1 X99.144 Y44.097 E3.2411
G1 X99.226 Y44.069 E3.24974
G1 X99.939 Y43.862 E3.32382
G1 X100.383 Y43.772 E3.36903
G1 X101.113 Y43.647 E3.44293
G1 X101.896 Y43.542 E3.52175
G1 X102.952 Y43.472 E3.62735
G1 X105.378 Y43.477 E3.86942
G1 X106.58 Y43.57 E3.98972
G1 X107.064 Y43.635 E4.03844
G1 X107.865 Y43.772 E4.11953
G1 X108.609 Y43.941 E4.19566
G1 X109.31 Y44.175 E4.2694
G1 X110.001 Y44.485 E4.34497
G1 X110.639 Y44.852 E4.41841
G1 X111.262 Y45.3 E4.49497
G1 X111.528 Y45.533 E4.53026
G1 X111.911 Y45.805 E4.57713
G1 X112.279 Y45.976 E4.61762
G1 X112.961 Y46.229 E4.6902
G1 X113.636 Y46.56 E4.76522
G1 X114.195 Y46.902 E4.8306
G1 X114.283 Y46.962 E4.84123
G1 X114.859 Y47.404 E4.91368
G1 X115.307 Y47.815 E4.97434
G1 X115.438 Y47.947 E4.9929
G1 X115.942 Y48.509 E5.06822
G1 X116.383 Y49.112 E5.14276
G1 X116.77 Y49.77 E5.21893
G1 X117.085 Y50.459 E5.29452
G1 X117.329 Y51.17 E5.36953
G1 X117.48 Y51.798 E5.43398
G1 X117.498 Y51.898 E5.44411
G1 X117.594 Y52.632 E5.51798
G1 X117.621 Y53.257 E5.5804
G1 X117.621 Y57.537 E6.00746
G1 X117.669 Y58.01 E6.0549
G1 X117.816 Y58.487 E6.1047
G1 X118.056 Y58.926 E6.15462
G1 X118.378 Y59.308 E6.20447
G1 X118.77 Y59.618 E6.25434
G1 X119.215 Y59.844 E6.30414
G1 X119.693 Y59.977 E6.35365
G1 X120.1 Y60.012 E6.39441
G1 X124.423 Y60.014 E6.82576
G1 X125.099 Y60.047 E6.89329
G1 X125.191 Y60.057 E6.90252
G1 X125.914 Y60.17 E6.97554
G1 X126.676 Y60.369 E7.05412
G1 X127.349 Y60.62 E7.12579
G1 X128.019 Y60.948 E7.20023
G1 X128.654 Y61.338 E7.27459
G1 X129.251 Y61.797 E7.34973
G1 X129.832 Y62.341 E7.42914
G1 X130.336 Y62.903 E7.50447
G1 X130.777 Y63.506 E7.57901
G1 X131.164 Y64.164 E7.65518
G1 X131.476 Y64.845 E7.72992
G1 X131.658 Y65.363 E7.7847
G1 X131.857 Y65.788 E7.83153
G1 X132.07 Y66.092 E7.86857
G1 X132.509 Y66.628 E7.9377
G1 X132.917 Y67.24 E8.01109
G1 X133.232 Y67.829 E8.07774
G1 X133.281 Y67.932 E8.08912
G1 X133.555 Y68.606 E8.16171
G1 X133.773 Y69.35 E8.23907
G1 X133.89 Y69.926 E8.29772
G1 X134.008 Y70.658 E8.3717
G1 X134.054 Y70.984 E8.40455
G1 X134.106 Y71.424 E8.44876
G1 X134.158 Y72.313 E8.53762
G1 X134.158 Y74.737 E8.77949
G1 X134.086 Y75.791 E8.8849
G1 X134.012 Y76.318 E8.938
G1 X133.883 Y77.138 E9.02083
G1 X133.727 Y77.886 E9.09707
G1 X133.497 Y78.606 E9.17249
G1 X133.23 Y79.232 E9.24039
G1 X133.189 Y79.315 E9.24963
G1 X132.823 Y79.968 E9.32432
G1 X132.406 Y80.564 E9.3969
G1 X132.074 Y80.955 E9.44808
G1 X131.809 Y81.341 E9.4948
G1 X131.656 Y81.676 E9.53155
G1 X131.405 Y82.35 E9.60331
G1 X131.084 Y83.008 E9.67636
G1 X130.689 Y83.651 E9.75166
G1 X130.23 Y84.248 E9.8268
G1 X129.689 Y84.826 E9.9058
G1 X129.124 Y85.333 E9.98154
G1 X128.521 Y85.774 E10.05608
G1 X127.866 Y86.16 E10.13195
G1 X127.196 Y86.468 E10.20552
G1 X126.463 Y86.72 E10.28286
G1 X125.827 Y86.872 E10.34811
G1 X125.738 Y86.888 E10.35713
G1 X125.001 Y86.985 E10.43131
G1 X124.382 Y87.012 E10.49313
G1 X120.093 Y87.012 E10.92109
G1 X119.62 Y87.06 E10.96853
G1 X119.143 Y87.207 E11.01833
G1 X118.704 Y87.447 E11.06825
G1 X118.322 Y87.769 E11.1181
G1 X118.012 Y88.161 E11.16797
G1 X117.786 Y88.606 E11.21777
G1 X117.653 Y89.084 E11.26728
G1 X117.618 Y89.491 E11.30804
G1 X117.616 Y93.814 E11.73939
G1 X117.583 Y94.492 E11.80712
G1 X117.573 Y94.584 E11.81635
G1 X117.461 Y95.304 E11.88906
G1 X117.297 Y95.95 E11.95556
G1 X117.261 Y96.069 E11.96797
G1 X117.01 Y96.742 E12.03964
G1 X116.687 Y97.404 E12.11314
G1 X116.292 Y98.047 E12.18843
G1 X115.833 Y98.644 E12.26357
G1 X115.292 Y99.222 E12.34257
G1 X114.727 Y99.729 E12.41832
G1 X114.124 Y100.17 E12.49286
G1 X113.469 Y100.556 E12.56872
G1 X112.781 Y100.871 E12.64422
G1 X112.255 Y101.054 E12.69979
G1 X111.828 Y101.254 E12.74684
G1 X111.482 Y101.503 E12.78937
G1 X111.129 Y101.803 E12.8356
G1 X110.607 Y102.172 E12.89938
G1 X110.511 Y102.233 E12.91073
G1 X109.867 Y102.592 E12.9843
G1 X109.263 Y102.858 E13.05015
G1 X109.174 Y102.891 E13.05962
G1 X108.554 Y103.093 E13.12469
G1 X108.464 Y103.117 E13.13398
G1 X107.777 Y103.267 E13.20415
G1 X107.167 Y103.37 E13.26587
G1 X106.28 Y103.486 E13.35513
G1 X105.251 Y103.552 E13.45802
G1 X102.931 Y103.551 E13.68951
G1 X101.965 Y103.486 E13.78611
G1 X101.656 Y103.455 E13.8171
G1 X101.115 Y103.38 E13.8716
G1 X100.341 Y103.242 E13.95005
G1 X99.59 Y103.068 E14.02697
G1 X98.897 Y102.833 E14.09998
G1 X98.202 Y102.516 E14.1762
G1 X97.557 Y102.138 E14.2508
G1 X96.942 Y101.692 E14.3266
G1 X96.729 Y101.505 E14.35488
G1 X96.347 Y101.229 E14.40191
G1 X95.973 Y101.055 E14.44307
G1 X95.287 Y100.8 E14.51609
G1 X94.617 Y100.472 E14.59053
G1 X93.982 Y100.082 E14.66488
G1 X93.37 Y99.61 E14.742
G1 X92.92 Y99.198 E14.80288
G1 X92.804 Y99.079 E14.81946
G1 X92.3 Y98.517 E14.89478
G1 X91.858 Y97.912 E14.96954
G1 X91.472 Y97.256 E15.04549
G1 X91.164 Y96.587 E15.11898
G1 X90.913 Y95.856 E15.1961
G1 X90.76 Y95.217 E15.26166
G1 X90.744 Y95.128 E15.27068
G1 X90.648 Y94.394 E15.34454
G1 X90.621 Y93.769 E15.40697
G1 X90.621 Y89.487 E15.83423
G1 X90.573 Y89.014 E15.88166
G1 X90.426 Y88.537 E15.93147
G1 X90.186 Y88.098 E15.98139
G1 X89.864 Y87.716 E16.03124
G1 X89.472 Y87.406 E16.08111
G1 X89.027 Y87.18 E16.13091
G1 X88.549 Y87.047 E16.18041
G1 X88.142 Y87.012 E16.22118
G1 X83.819 Y87.01 E16.65253
G1 X83.143 Y86.977 E16.72006
G1 X83.051 Y86.967 E16.72929
G1 X82.328 Y86.854 E16.80231
G1 X81.566 Y86.655 E16.88089
G1 X80.893 Y86.404 E16.95256
G1 X80.223 Y86.076 E17.027
G1 X79.588 Y85.686 E17.10135
G1 X78.976 Y85.214 E17.17847
G1 X78.526 Y84.802 E17.23935
G1 X78.41 Y84.683 E17.25593
G1 X77.906 Y84.121 E17.33125
G1 X77.464 Y83.516 E17.40601
G1 X77.078 Y82.86 E17.48196
G1 X76.77 Y82.191 E17.55545
G1 X76.607 Y81.724 E17.6048
G1 X76.429 Y81.342 E17.64685
G1 X76.449 Y81.322 E17.64968
G1 X75.721 Y80.408 E17.76627
G1 X75.657 Y80.319 E17.77721
G1 X75.308 Y79.781 E17.84119
G1 X75.253 Y79.686 E17.85215
G1 X74.92 Y79.027 E17.92582
G1 X74.652 Y78.336 E17.99977
G1 X74.451 Y77.61 E18.07494
G1 X74.365 Y77.17 E18.11967
G1 X74.239 Y76.412 E18.19635
G1 X74.196 Y76.039 E18.23381
G1 X74.148 Y75.659 E18.27203
G1 X74.084 Y74.652 E18.37271
G1 X74.085 Y72.277 E18.60969
G1 X74.151 Y71.271 E18.71028
G1 X74.239 Y70.628 E18.77504
G1 X74.366 Y69.842 E18.85448
G1 X74.506 Y69.182 E18.9218
G1 X74.537 Y69.067 E18.93369
G1 X74.757 Y68.389 E19.00481
G1 X75.059 Y67.699 E19.07997
G1 X75.425 Y67.048 E19.15449
G1 X75.874 Y66.413 E19.23209
G1 X76.158 Y66.083 E19.27553
G1 X76.426 Y65.698 E19.32233
G1 X76.585 Y65.351 E19.36042
G1 X76.839 Y64.668 E19.43313
G1 X77.158 Y64.016 E19.50556
G1 X77.553 Y63.373 E19.58085
G1 X78.012 Y62.776 E19.65599
G0 F4800 X78 Y62.791
G1 F675 X78 Y84.225 E21.79469
G0 F4800 X81 Y86.443
G1 F675 X81 Y60.577 E24.37561
G0 F4800 X84 Y60.012
G1 F675 X84 Y87.01 E27.06948
G0 F4800 X87 Y87.011
G1 F675 X87 Y60.012 E29.76345
G0 F4800 X90 Y59.15
G1 F675 X90 Y87.877 E32.62984
G1 F4800 E26.62984
G0 F4800 X89.348 Y88.992
G0 X89.497 Y94.596
G0 X89.788 Y96.157
G0 X90.115 Y97.1
G0 X90.722 Y98.251
G0 X91.451 Y99.318
G0 X93 Y99.271
G1 F4800 E32.62984
G1 F675 X93 Y47.755 E37.77013
G0 F4800 X96 Y45.956
G1 F675 X96 Y101.067 E43.26913
G0 F4800 X99 Y102.867
G1 F675 X99 Y44.155 E49.12743
G0 F4800 X102 Y43.535
G1 F675 X102 Y103.488 E55.10957
G0 F4800 X105 Y103.551
G1 F675 X105 Y43.477 E61.10378
G0 F4800 X108 Y43.803
G1 F675 X108 Y103.219 E67.03233
G0 F4800 X111 Y101.895
G1 F675 X111 Y45.112 E72.69816
G0 F4800 X114 Y46.783
G1 F675 X114 Y100.244 E78.03252
G0 F4800 X117 Y96.763
G1 F675 X117 Y50.274 E82.67121
G1 F4800 E76.67121
G0 F4800 X118.412 Y50.726
G0 X118.544 Y51.28
G0 X119.898 Y58.826
G0 X120 Y60.004
G1 F4800 E82.67121
G1 F675 X120 Y87.022 E85.36708
G0 F4800 X123 Y87.012
G1 F675 X123 Y60.014 E88.06095
G0 F4800 X126 Y60.193
G1 F675 X126 Y86.831 E90.7189
G0 F4800 X129 Y85.424
G1 F675 X129 Y61.605 E93.09557
G0 F4800 X132 Y65.993
G1 F675 X132 Y81.063 E94.59926
G1 F4800 E88.59926
G0 F4800 X132.825 Y81.917
G0 X132.085 Y83.603
G0 X131.178 Y84.931
G0 X116.089 Y100.071
G0 X114.834 Y101.096
G0 X110.369 Y103.643
G0 X108.873 Y104.213
G0 X106.13 Y104.733
G0 X102.879 Y104.715
G0 X101.085 Y104.581
G0 X99.25 Y104.182
G0 X97.763 Y103.599
G0 X93.302 Y101.027
G0 X92.105 Y100.028
G0 X77.057 Y84.922
G0 X76.584 Y84.278
G0 X74.236 Y80.255
G0 X75 Y79.185
G1 F4800 E94.59926
G1 F675 X75 Y67.833 E95.73197
G1 F4800 E89.73197
G0 F300 X75 Y67.833 Z0.51
G0 F4800 X73.633 Y68.072
G0 X73.216 Y69.648
G0 X72.99 Y71.186
G0 X72.919 Y72.286
G0 X72.923 Y74.759
G0 X73.086 Y76.577
G0 X73.34 Y77.974
G0 X73.852 Y79.49
G0 X74.221 Y80.21
G0 X75.524 Y82.158
G0 X76.595 Y82.535
;TIME_ELAPSED:96.174548
;LAYER:-5
M140 S45
;TYPE:SUPPORT
G1 F4800 E95.73197
G1 F1500 X80.705 Y86.645 E95.99295
G1 X80.067 Y86.332 E96.02486
G1 X79.407 Y85.924 E96.0597
G1 X78.781 Y85.442 E96.09517
G1 X78.193 Y84.89 E96.13139
G1 X77.67 Y84.306 E96.16659
G1 X77.206 Y83.671 E96.2019
G1 X76.811 Y82.997 E96.23698
G1 F4800 E90.23698
G0 F4800 X76.094 Y83.49
G0 X76.985 Y84.833
G0 X77.754 Y85.673
G0 X79.004 Y86.695
G0 X80.328 Y87.425
G0 X80.705 Y86.645
G1 F4800 E96.23698
G1 F1500 X80.772 Y86.678 E96.24033
G1 X81.49 Y86.945 E96.27473
G1 X81.981 Y87.073 E96.29751
G1 X75.45 Y80.541 E96.71226
G1 X75.418 Y80.501 E96.71456
G1 X74.992 Y79.836 E96.75002
G1 X74.646 Y79.149 E96.78456
G1 X74.48 Y78.722 E96.80513
G1 X83.022 Y87.264 E97.34755
G1 X83.116 Y87.273 E97.35179
G1 X83.813 Y87.309 E97.38312
G1 X83.915 Y87.309 E97.3877
G1 X74.127 Y77.521 E98.00924
G1 X74.069 Y77.227 E98.0227
G1 X73.948 Y76.494 E98.05605
G1 X84.763 Y87.309 E98.74281
G1 X85.612 Y87.31 E98.78093
G1 X73.838 Y75.535 E99.52861
G1 X73.783 Y74.67 E99.56752
G1 X73.783 Y74.632 E99.56923
G1 X86.462 Y87.31 E100.37431
G1 X87.311 Y87.311 E100.41243
G1 X73.783 Y73.783 E101.27146
G1 X73.783 Y72.935 E101.30954
G1 X88.162 Y87.314 E102.2226
G1 X88.495 Y87.342 E102.23761
G1 X88.917 Y87.46 E102.25728
G1 X89.309 Y87.66 E102.27704
G1 X89.542 Y87.845 E102.2904
G1 X73.795 Y72.098 E103.29033
G1 X73.847 Y71.301 E103.32619
G1 X106.327 Y103.782 E105.3887
G1 X106.764 Y103.726 E105.40848
G1 X107.082 Y103.688 E105.42286
G1 X73.945 Y70.551 E107.52706
G1 X74.065 Y69.822 E107.56023
G1 X107.808 Y103.565 E109.70291
G1 X107.823 Y103.563 E109.70359
G1 X108.505 Y103.414 E109.73493
G1 X74.211 Y69.12 E111.9126
G1 X74.215 Y69.106 E111.91325
G1 X74.244 Y68.998 E111.91827
G1 X74.413 Y68.474 E111.94299
G1 X109.151 Y103.212 E114.14885
G1 X109.274 Y103.173 E114.15464
G1 X109.373 Y103.136 E114.15939
G1 X109.755 Y102.967 E114.17815
G1 X74.657 Y67.868 E116.4069
G1 X74.796 Y67.552 E116.4224
G1 X74.937 Y67.301 E116.43532
G1 X110.318 Y102.681 E118.68198
G1 X110.667 Y102.488 E118.69989
G1 X110.766 Y102.426 E118.70513
G1 X110.851 Y102.365 E118.70983
G1 X75.253 Y66.768 E120.97027
G1 X75.605 Y66.271 E120.99761
G1 X111.345 Y102.011 E123.2671
G1 X111.667 Y101.739 E123.28602
G1 X111.814 Y101.632 E123.29419
G1 X75.985 Y65.803 E125.56932
G1 X76.163 Y65.549 E125.58325
G1 X76.293 Y65.263 E125.59736
G1 X112.364 Y101.334 E127.88786
G0 F4800 X112.368 Y101.333
G1 F1500 X112.898 Y101.147 E127.91308
G1 X112.985 Y101.106 E127.9174
G1 X76.525 Y64.645 E130.23264
G1 X76.557 Y64.56 E130.23671
G1 X76.798 Y64.07 E130.26123
G1 X113.567 Y100.839 E132.59606
G1 X113.611 Y100.819 E132.59823
G1 X114.105 Y100.528 E132.62397
G1 X77.105 Y63.528 E134.97347
G1 X77.312 Y63.192 E134.99119
G1 X77.445 Y63.02 E135.00095
G1 X114.609 Y100.184 E137.36086
G1 X114.911 Y99.963 E137.37766
G1 X115.083 Y99.809 E137.38803
G1 X77.817 Y62.543 E139.75441
G1 X78.227 Y62.105 E139.78135
G1 X115.529 Y99.407 E142.15002
G1 X115.939 Y98.968 E142.177
G1 X78.665 Y61.695 E144.54386
G1 X78.931 Y61.456 E144.55992
G1 X79.13 Y61.311 E144.57097
G1 X116.32 Y98.501 E146.93253
G1 X116.53 Y98.227 E146.94803
G1 X116.67 Y98.002 E146.95993
G1 X79.625 Y60.958 E149.31225
G1 X80.159 Y60.642 E149.34011
G1 X116.987 Y97.471 E151.67872
G1 X117.266 Y96.901 E151.70721
G1 X80.731 Y60.367 E154.02715
G1 X80.869 Y60.302 E154.034
G1 X80.946 Y60.273 E154.03769
G1 X81.346 Y60.133 E154.05672
G1 X117.499 Y96.286 E156.35243
G1 X117.551 Y96.144 E156.35922
G1 X117.687 Y95.625 E156.38331
G1 X82.003 Y59.942 E158.64921
G1 X82.352 Y59.858 E158.66533
G1 X82.452 Y59.84 E158.66989
G1 X82.714 Y59.804 E158.68176
G1 X117.823 Y94.913 E160.91118
G1 X117.869 Y94.615 E160.92472
G1 X117.881 Y94.511 E160.92942
G1 X117.9 Y94.141 E160.94605
G1 X83.486 Y59.727 E163.13134
G1 X83.846 Y59.711 E163.14752
G1 X84.318 Y59.711 E163.16871
G1 X117.916 Y93.309 E165.30218
G1 X117.916 Y92.46 E165.3403
G1 X85.167 Y59.711 E167.41986
G1 X86.016 Y59.711 E167.45798
G1 X117.917 Y91.612 E169.48369
G1 X117.917 Y90.764 E169.52177
G1 X86.864 Y59.711 E171.49363
G1 X87.713 Y59.711 E171.53175
G1 X117.917 Y89.915 E173.4497
G1 X117.917 Y89.502 E173.46824
G1 X117.948 Y89.136 E173.48473
G1 X117.956 Y89.106 E173.48613
G1 X88.523 Y59.673 E175.35512
G1 X88.558 Y59.669 E175.3567
G1 X88.977 Y59.539 E175.3764
G1 X89.145 Y59.447 E175.385
G1 X118.182 Y88.484 E177.22885
G1 X118.265 Y88.323 E177.23698
G1 X118.533 Y87.986 E177.25631
G1 X89.641 Y59.094 E179.09095
G1 X89.699 Y59.044 E179.09439
G1 X89.972 Y58.701 E179.11407
G1 X90.013 Y58.618 E179.11823
G1 X119.014 Y87.619 E180.95979
G1 X119.26 Y87.484 E180.97239
G1 X119.617 Y87.373 E180.98917
G1 X90.254 Y58.01 E182.85372
G1 X90.289 Y57.886 E182.85951
G1 X90.32 Y57.521 E182.87595
G1 X90.32 Y57.228 E182.88911
G1 X120.404 Y87.312 E184.79944
G1 X121.253 Y87.312 E184.83756
G1 X90.32 Y56.379 E186.8018
G1 X90.32 Y55.531 E186.83988
G1 X122.101 Y87.312 E188.85797
G1 X122.95 Y87.312 E188.89609
G1 X90.321 Y54.683 E190.96803
G1 X90.321 Y53.834 E191.00615
G1 X123.798 Y87.312 E193.13196
G1 X124.394 Y87.312 E193.15872
G1 X124.636 Y87.301 E193.1696
G1 X90.332 Y52.996 E195.34793
G1 X90.356 Y52.513 E195.36965
G1 X90.367 Y52.408 E195.37439
G1 X90.397 Y52.213 E195.38325
G1 X125.418 Y87.234 E197.60707
G1 X125.787 Y87.184 E197.62379
G1 X125.888 Y87.165 E197.62841
G1 X126.137 Y87.105 E197.63991
G1 X90.525 Y51.493 E199.90127
G1 X90.685 Y50.879 E199.92976
G1 X90.705 Y50.824 E199.93238
G1 X126.802 Y86.921 E202.22454
G1 X127.294 Y86.751 E202.24791
G1 X127.371 Y86.72 E202.25164
G1 X127.424 Y86.695 E202.25427
