;FLAVOR:Marlin
;TIME:5709
;Filament used: 1.92791m
;Layer height: 0.15
;MINX:67.199
;MINY:97.069
;MINZ:0.15
;MAXX:152.8
;MAXY:121.867
;MAXZ:3.925
;Generated with Cura_SteamEngine 4.6.1
M140 S70
M105
M190 S70
M104 S255
M105
M109 S255
M82 ;absolute extrusion mode
M201 X500.00 Y500.00 Z100.00 E5000.00 ;Setup machine max acceleration
M203 X500.00 Y500.00 Z10.00 E50.00 ;Setup machine max feedrate
M204 P500.00 R1000.00 T500.00 ;Setup Print/Retract/Travel acceleration
M205 X8.00 Y8.00 Z0.40 E5.00 ;Setup Jerk
M220 S100 ;Reset Feedrate
M221 S100 ;Reset Flowrate

G28 ;Home

G92 E0 ;Reset Extruder
G1 Z2.0 F3000 ;Move Z Axis up
G1 X10.1 Y20 Z0.28 F5000.0 ;Move to start position
G1 X10.1 Y200.0 Z0.28 F1500.0 E15 ;Draw the first line
G1 X10.4 Y200.0 Z0.28 F5000.0 ;Move to side a little
G1 X10.4 Y20 Z0.28 F1500.0 E30 ;Draw the second line
G92 E0 ;Reset Extruder
G1 Z2.0 F3000 ;Move Z Axis up

G92 E0
G92 E0
G1 F1500 E-3.5
;LAYER_COUNT:20
;LAYER:-5
M107
M204 S500
M205 X8 Y8
G0 F2400 X68.404 Y97.83 Z0.15
;TYPE:SUPPORT-INTERFACE
G1 F1500 E0
G1 F900 X68.76 Y97.596 E0.02125
G1 X69.145 Y97.425 E0.04227
G1 X69.501 Y97.329 E0.06067
G1 X69.601 Y97.31 E0.06574
G1 X69.934 Y97.274 E0.08246
G1 X70.09 Y97.27 E0.09024
G1 X149.872 Y97.27 E4.07058
G1 X150.091 Y97.279 E4.08152
G1 X150.235 Y97.291 E4.08872
G1 X150.655 Y97.365 E4.11
G1 X151.001 Y97.481 E4.12821
G1 X151.05 Y97.503 E4.13089
G1 X151.428 Y97.708 E4.15234
G1 X151.756 Y97.966 E4.17316
G1 X152.04 Y98.274 E4.19406
G1 X152.274 Y98.63 E4.21532
G1 X152.445 Y99.015 E4.23633
G1 X152.541 Y99.371 E4.25473
G1 X152.56 Y99.473 E4.25991
G1 X152.596 Y99.797 E4.27617
G1 X152.6 Y99.95 E4.2838
G1 X152.6 Y118.93 E5.23072
G1 X152.592 Y119.146 E5.2415
G1 X152.579 Y119.298 E5.24912
G1 X152.505 Y119.718 E5.27039
G1 X152.389 Y120.064 E5.2886
G1 X152.367 Y120.113 E5.29128
G1 X152.167 Y120.483 E5.31226
G1 X151.906 Y120.817 E5.33341
G1 X151.596 Y121.103 E5.35445
G1 X151.24 Y121.337 E5.37571
G1 X150.855 Y121.508 E5.39672
G1 X150.499 Y121.604 E5.41512
G1 X150.399 Y121.623 E5.4202
G1 X150.066 Y121.659 E5.43691
G1 X149.91 Y121.663 E5.44469
G1 X79.972 Y121.667 E8.93391
G1 X70.13 Y121.665 E9.42493
G1 X69.765 Y121.645 E9.44317
G1 X69.345 Y121.57 E9.46446
G1 X68.999 Y121.454 E9.48266
G1 X68.95 Y121.432 E9.48534
G1 X68.577 Y121.229 E9.50653
G1 X68.246 Y120.971 E9.52747
G1 X67.96 Y120.662 E9.54847
G1 X67.747 Y120.343 E9.56761
G1 X67.72 Y120.293 E9.57044
G1 X67.559 Y119.93 E9.59025
G1 X67.454 Y119.544 E9.61021
G1 X67.44 Y119.466 E9.61417
G1 X67.404 Y119.124 E9.63132
G1 X67.4 Y118.987 E9.63816
G1 X67.4 Y99.999 E10.58548
G1 X67.409 Y99.776 E10.59661
G1 X67.421 Y99.635 E10.60367
G1 X67.495 Y99.215 E10.62495
G1 X67.611 Y98.869 E10.64315
G1 X67.633 Y98.82 E10.64583
G1 X67.833 Y98.45 E10.66682
G1 X68.094 Y98.116 E10.68796
G1 X68.404 Y97.83 E10.70901
G0 F2400 X67.5 Y99.2
G1 F900 X67.5 Y119.713 E11.7324
G0 F2400 X70 Y121.657
G1 F900 X70 Y97.272 E12.94898
G0 F2400 X72.5 Y97.27
G1 F900 X72.5 Y121.665 E14.16605
G0 F2400 X75 Y121.665
G1 F900 X75 Y97.27 E15.38312
G0 F2400 X77.5 Y97.27
G1 F900 X77.5 Y121.666 E16.60024
G0 F2400 X80 Y121.667
G1 F900 X80 Y97.27 E17.81741
G0 F2400 X82.5 Y97.27
G1 F900 X82.5 Y121.667 E19.03458
G0 F2400 X85 Y121.667
G1 F900 X85 Y97.27 E20.25175
G0 F2400 X87.5 Y97.27
G1 F900 X87.5 Y121.667 E21.46893
G0 F2400 X90 Y121.667
G1 F900 X90 Y97.27 E22.6861
G0 F2400 X92.5 Y97.27
G1 F900 X92.5 Y121.667 E23.90327
G0 F2400 X95 Y121.667
G1 F900 X95 Y97.27 E25.12044
G0 F2400 X97.5 Y97.27
G1 F900 X97.5 Y121.666 E26.33756
G0 F2400 X100 Y121.666
G1 F900 X100 Y97.27 E27.55468
G0 F2400 X102.5 Y97.27
G1 F900 X102.5 Y121.666 E28.7718
G0 F2400 X105 Y121.666
G1 F900 X105 Y97.27 E29.98893
G0 F2400 X107.5 Y97.27
G1 F900 X107.5 Y121.666 E31.20605
G0 F2400 X110 Y121.666
G1 F900 X110 Y97.27 E32.42317
G0 F2400 X112.5 Y97.27
G1 F900 X112.5 Y121.666 E33.64029
G0 F2400 X115 Y121.665
G1 F900 X115 Y97.27 E34.85736
G0 F2400 X117.5 Y97.27
G1 F900 X117.5 Y121.665 E36.07443
G0 F2400 X120 Y121.665
G1 F900 X120 Y97.27 E37.2915
G0 F2400 X122.5 Y97.27
G1 F900 X122.5 Y121.665 E38.50858
G0 F2400 X125 Y121.665
G1 F900 X125 Y97.27 E39.72565
G0 F2400 X127.5 Y97.27
G1 F900 X127.5 Y121.665 E40.94272
G0 F2400 X130 Y121.665
G1 F900 X130 Y97.27 E42.15979
G0 F2400 X132.5 Y97.27
G1 F900 X132.5 Y121.664 E43.37681
G0 F2400 X135 Y121.664
G1 F900 X135 Y97.27 E44.59383
G0 F2400 X137.5 Y97.27
G1 F900 X137.5 Y121.664 E45.81085
G0 F2400 X140 Y121.664
G1 F900 X140 Y97.27 E47.02788
G0 F2400 X142.5 Y97.27
G1 F900 X142.5 Y121.664 E48.2449
G0 F2400 X145 Y121.664
G1 F900 X145 Y97.27 E49.46192
G0 F2400 X147.5 Y97.27
G1 F900 X147.5 Y121.664 E50.67894
G0 F2400 X150 Y121.661
G1 F900 X150 Y97.276 E51.89551
G0 F2400 X152.5 Y99.219
G1 F900 X152.5 Y119.733 E52.91896
G0 F300 X152.5 Y119.733 Z0.375
G0 F2400 X152.566 Y99.533
;TIME_ELAPSED:81.531433
;LAYER:-4
M140 S70
;WIPE_SCRIPT_BEGIN
G1 F1800 E48.91896
G1 F300 Z0.575
G0 F2400 X100 Y99.533 Z0.575
G0 X120 Y99.533
G0 X100 Y99.533
G0 X120 Y99.533
G0 X100 Y99.533
G0 X120 Y99.533
G0 X152.566 Y99.533
G1 F300 Z0.375
G1 F1800 E52.91896
;WIPE_SCRIPT_END
;TYPE:SUPPORT
G1 F1500 X150.343 Y97.31 E53.15423
G1 X150.654 Y97.365 E53.17786
G1 X151 Y97.481 E53.20517
G1 X151.049 Y97.502 E53.20916
G1 X151.426 Y97.708 E53.24131
G1 X151.755 Y97.966 E53.2726
G1 X152.039 Y98.273 E53.3039
G1 X152.273 Y98.629 E53.33578
G1 X152.444 Y99.015 E53.36737
G1 X152.539 Y99.371 E53.39495
G1 X152.559 Y99.472 E53.40265
G0 F2400 X150.343 Y97.31
G1 F1500 X150.234 Y97.29 E53.41095
G1 X150.09 Y97.279 E53.42175
G1 X149.871 Y97.269 E53.43816
G1 X148.181 Y97.269 E53.56463
G1 X152.599 Y101.687 E54.0322
G1 X152.599 Y103.808 E54.19093
G1 X146.059 Y97.269 E54.88302
G1 X143.938 Y97.269 E55.04175
G1 X152.599 Y105.93 E55.95837
G1 X152.599 Y108.051 E56.11709
G1 X141.817 Y97.269 E57.25819
G1 X139.696 Y97.269 E57.41691
G1 X152.599 Y110.172 E58.78248
G1 X152.599 Y112.294 E58.94128
G1 X137.574 Y97.269 E60.53142
G1 X135.453 Y97.269 E60.69015
G1 X152.599 Y114.415 E62.50476
G1 X152.599 Y116.536 E62.66349
G1 X133.332 Y97.269 E64.70257
G1 X131.21 Y97.269 E64.86137
G1 X152.599 Y118.658 E67.12504
G1 X152.599 Y118.929 E67.14532
G1 X152.59 Y119.146 E67.16157
G1 X152.578 Y119.298 E67.17298
G1 X152.503 Y119.718 E67.20491
G1 X152.388 Y120.063 E67.23212
G1 X152.366 Y120.112 E67.23614
G1 X152.214 Y120.394 E67.26012
G1 X129.089 Y97.269 E69.70751
G1 X126.968 Y97.269 E69.86623
G1 X151.098 Y121.399 E72.41999
G1 X150.854 Y121.507 E72.43995
G1 X150.497 Y121.603 E72.46762
G1 X150.398 Y121.623 E72.47518
G1 X150.065 Y121.659 E72.50024
G1 X149.909 Y121.663 E72.51192
G1 X149.24 Y121.663 E72.56199
G1 X124.846 Y97.269 E75.14368
G1 X122.725 Y97.269 E75.3024
G1 X147.119 Y121.663 E77.8841
G1 X144.997 Y121.663 E78.0429
G1 X120.604 Y97.269 E80.62454
G1 X118.482 Y97.269 E80.78334
G1 X142.876 Y121.663 E83.36503
G1 X140.755 Y121.663 E83.52376
G1 X116.361 Y97.269 E86.10545
G1 X114.24 Y97.269 E86.26417
G1 X138.633 Y121.663 E88.84581
G1 X136.512 Y121.663 E89.00454
G1 X112.118 Y97.269 E91.58623
G1 X109.997 Y97.269 E91.74496
G1 X134.391 Y121.663 E94.32665
G1 X132.27 Y121.664 E94.48538
G1 X107.876 Y97.269 E97.06712
G1 X105.754 Y97.269 E97.22592
G1 X130.149 Y121.664 E99.80772
G1 X128.028 Y121.664 E99.96645
G1 X103.633 Y97.269 E102.54825
G1 X101.512 Y97.269 E102.70697
G1 X125.906 Y121.664 E105.28872
G1 X123.785 Y121.664 E105.44744
G1 X99.39 Y97.269 E108.02924
G1 X97.269 Y97.269 E108.18797
G1 X121.664 Y121.664 E110.76977
G1 X119.542 Y121.664 E110.92857
G1 X95.148 Y97.269 E113.51031
G1 X93.026 Y97.269 E113.66911
G1 X117.421 Y121.664 E116.25091
G1 X115.3 Y121.664 E116.40964
G1 X90.905 Y97.269 E118.99143
G1 X88.784 Y97.269 E119.15016
G1 X113.179 Y121.664 E121.73196
G1 X111.058 Y121.664 E121.89068
G1 X86.663 Y97.269 E124.47248
G1 X84.541 Y97.269 E124.63128
G1 X108.936 Y121.664 E127.21308
G1 X106.815 Y121.664 E127.37181
G1 X82.42 Y97.269 E129.95361
G1 X80.299 Y97.269 E130.11233
G1 X104.694 Y121.664 E132.69413
G1 X102.572 Y121.664 E132.85293
G1 X78.177 Y97.269 E135.43473
G1 X76.056 Y97.269 E135.59346
G1 X100.451 Y121.664 E138.17525
G1 X98.33 Y121.664 E138.33398
G1 X73.935 Y97.269 E140.91578
G1 X71.813 Y97.269 E141.07458
G1 X96.209 Y121.665 E143.65648
G1 X94.088 Y121.665 E143.81521
G1 X69.719 Y97.296 E146.39426
G1 X69.6 Y97.309 E146.40321
G1 X69.5 Y97.328 E146.41083
G1 X69.145 Y97.423 E146.43833
G1 X68.759 Y97.595 E146.46996
G1 X68.404 Y97.829 E146.50178
G1 X68.262 Y97.961 E146.51628
G1 X91.967 Y121.665 E149.02501
G1 X89.845 Y121.665 E149.18381
G1 X67.479 Y99.299 E151.55087
G1 X67.421 Y99.634 E151.57631
G1 X67.409 Y99.774 E151.58683
G1 X67.4 Y99.997 E151.60353
G1 X67.4 Y101.341 E151.70411
G1 X87.724 Y121.665 E153.85506
G1 X85.603 Y121.665 E154.01379
G1 X67.4 Y103.462 E155.94027
G1 X67.4 Y105.583 E156.09899
G1 X83.481 Y121.665 E157.80095
G1 X81.36 Y121.665 E157.95967
G1 X67.4 Y107.705 E159.4371
G1 X67.4 Y109.826 E159.59583
G1 X79.239 Y121.665 E160.84879
G1 X77.117 Y121.665 E161.00759
G1 X67.4 Y111.947 E162.03602
G1 X67.4 Y114.069 E162.19482
G1 X74.995 Y121.664 E162.99862
G1 X72.873 Y121.664 E163.15742
G1 X67.4 Y116.19 E163.7367
G1 X67.4 Y118.311 E163.89543
G1 X70.752 Y121.664 E164.25023
G1 X70.13 Y121.664 E164.29678
G1 X69.765 Y121.644 E164.32413
G1 X69.345 Y121.569 E164.35606
G1 X68.998 Y121.453 E164.38344
G1 X68.949 Y121.431 E164.38746
G1 X68.577 Y121.228 E164.41918
G1 X68.245 Y120.97 E164.45064
G1 X67.96 Y120.66 E164.48216
G1 X67.747 Y120.341 E164.51086
G1 X67.72 Y120.292 E164.51505
G1 X67.559 Y119.928 E164.54483
G1 X67.453 Y119.543 E164.57472
G1 X67.44 Y119.464 E164.58071
G1 X67.404 Y119.123 E164.60637
G1 X67.4 Y118.986 E164.61663
G0 F300 X67.4 Y118.986 Z0.525
G0 F2400 X68.869 Y121.616
;TIME_ELAPSED:149.473111
;LAYER:-3
;WIPE_SCRIPT_BEGIN
G1 F1800 E160.61663
G1 F300 Z0.725
G0 F2400 X100 Y121.616 Z0.725
G0 X120 Y121.616
G0 X100 Y121.616
G0 X120 Y121.616
G0 X100 Y121.616
G0 X120 Y121.616
G0 X68.869 Y121.616
G1 F300 Z0.525
G1 F1800 E164.61663
;WIPE_SCRIPT_END
;TYPE:SUPPORT-INTERFACE
G1 F1200 X69.295 Y121.764 E164.62788
G1 X69.361 Y121.781 E164.62958
G1 X69.739 Y121.844 E164.63913
G1 X70.121 Y121.865 E164.64868
G1 X78.906 Y121.866 E164.86782
G1 X79.971 Y121.867 E164.89439
G1 X149.915 Y121.862 E166.63915
G1 X150.114 Y121.855 E166.64411
G1 X150.44 Y121.818 E166.6523
G1 X150.544 Y121.799 E166.65494
G1 X150.917 Y121.697 E166.66458
G1 X150.978 Y121.675 E166.6662
G1 X151.142 Y121.6 E166.6707
G1 X68.839 Y121.6 E168.72375
G1 X68.511 Y121.425 E168.73303
G1 X68.452 Y121.387 E168.73478
G1 X68.207 Y121.2 E168.74247
G1 X151.788 Y121.2 E170.8274
G1 X152.049 Y120.955 E170.83633
G1 X152.093 Y120.908 E170.83794
G1 X152.173 Y120.8 E170.84129
G1 X67.813 Y120.8 E172.94566
G1 X67.794 Y120.775 E172.94644
G1 X67.579 Y120.454 E172.95608
G1 X67.549 Y120.4 E172.95762
G1 X152.439 Y120.4 E175.07521
G1 X152.552 Y120.189 E175.08118
G1 X152.617 Y120 E175.08617
G1 X67.37 Y120 E177.21266
G1 X67.364 Y119.98 E177.21318
G1 X67.261 Y119.6 E177.22301
G1 X152.732 Y119.6 E179.35509
G1 X152.779 Y119.322 E179.36212
G1 X152.788 Y119.2 E179.36517
G1 X67.207 Y119.2 E181.5
G1 X67.204 Y119.171 E181.50073
G1 X67.199 Y118.987 E181.50532
G1 X67.2 Y118.8 E181.50998
G1 X152.8 Y118.8 E183.64528
G1 X152.8 Y118.4 E183.65526
G1 X67.2 Y118.4 E185.79056
G1 X67.2 Y118 E185.80054
G1 X152.8 Y118 E187.93584
G1 X152.8 Y117.6 E187.94582
G1 X67.2 Y117.6 E190.08112
G1 X67.2 Y117.2 E190.0911
G1 X152.8 Y117.2 E192.2264
G1 X152.8 Y116.8 E192.23638
G1 X67.2 Y116.8 E194.37168
G1 X67.2 Y116.4 E194.38166
G1 X152.8 Y116.4 E196.51696
G1 X152.8 Y116 E196.52693
G1 X67.2 Y116 E198.66224
G1 X67.2 Y115.6 E198.67221
G1 X152.8 Y115.6 E200.80751
G1 X152.8 Y115.2 E200.81749
G1 X67.2 Y115.2 E202.95279
G1 X67.2 Y114.8 E202.96277
G1 X152.8 Y114.8 E205.09807
G1 X152.8 Y114.4 E205.10805
G1 X67.2 Y114.4 E207.24335
G1 X67.2 Y114 E207.25333
G1 X152.8 Y114 E209.38863
G1 X152.8 Y113.6 E209.39861
G1 X67.2 Y113.6 E211.53391
G1 X67.2 Y113.2 E211.54389
G1 X152.8 Y113.2 E213.67919
G1 X152.8 Y112.8 E213.68916
G1 X67.2 Y112.8 E215.82447
G1 X67.2 Y112.4 E215.83444
G1 X152.8 Y112.4 E217.96974
G1 X152.8 Y112 E217.97972
G1 X67.2 Y112 E220.11502
G1 X67.2 Y111.6 E220.125
G1 X152.8 Y111.6 E222.2603
G1 X152.8 Y111.2 E222.27028
G1 X67.2 Y111.2 E224.40558
G1 X67.2 Y110.8 E224.41556
G1 X152.8 Y110.8 E226.55086
G1 X152.8 Y110.4 E226.56084
G1 X67.2 Y110.4 E228.69614
G1 X67.2 Y110 E228.70612
G1 X152.8 Y110 E230.84142
G1 X152.8 Y109.6 E230.85139
G1 X67.2 Y109.6 E232.98669
G1 X67.2 Y109.2 E232.99667
G1 X152.8 Y109.2 E235.13197
G1 X152.8 Y108.8 E235.14195
G1 X67.2 Y108.8 E237.27725
G1 X67.2 Y108.4 E237.28723
G1 X152.8 Y108.4 E239.42253
G1 X152.8 Y108 E239.43251
G1 X67.2 Y108 E241.56781
G1 X67.2 Y107.6 E241.57779
G1 X152.8 Y107.6 E243.71309
G1 X152.8 Y107.2 E243.72307
G1 X67.2 Y107.2 E245.85837
G1 X67.2 Y106.8 E245.86835
G1 X152.8 Y106.8 E248.00365
G1 X152.8 Y106.4 E248.01362
G1 X67.2 Y106.4 E250.14892
G1 X67.2 Y106 E250.1589
G1 X152.8 Y106 E252.2942
G1 X152.8 Y105.6 E252.30418
G1 X67.2 Y105.6 E254.43948
G1 X67.2 Y105.2 E254.44946
G1 X152.8 Y105.2 E256.58476
G1 X152.8 Y104.8 E256.59474
G1 X67.2 Y104.8 E258.73004
G1 X67.2 Y104.4 E258.74002
G1 X152.8 Y104.4 E260.87532
G1 X152.8 Y104 E260.8853
G1 X67.2 Y104 E263.0206
G1 X67.2 Y103.6 E263.03057
G1 X152.8 Y103.6 E265.16588
G1 X152.8 Y103.2 E265.17585
G1 X67.2 Y103.2 E267.31115
G1 X67.2 Y102.8 E267.32113
G1 X152.8 Y102.8 E269.45643
G1 X152.8 Y102.4 E269.46641
G1 X67.2 Y102.4 E271.60171
G1 X67.2 Y102 E271.61169
G1 X152.8 Y102 E273.74699
G1 X152.8 Y101.6 E273.75697
G1 X67.2 Y101.6 E275.89227
G1 X67.2 Y101.2 E275.90225
G1 X152.8 Y101.2 E278.03755
G1 X152.8 Y100.8 E278.04753
G1 X67.2 Y100.8 E280.18283
G1 X67.2 Y100.4 E280.1928
G1 X152.8 Y100.4 E282.32811
G1 X152.8 Y100 E282.33808
G1 X67.2 Y100 E284.47338
G1 X67.2 Y99.99 E284.47363
G1 X67.21 Y99.751 E284.4796
G1 X67.221 Y99.61 E284.48313
G1 X67.223 Y99.6 E284.48338
G1 X152.776 Y99.6 E286.61751
G1 X152.755 Y99.424 E286.62193
G1 X152.736 Y99.321 E286.62455
G1 X152.703 Y99.2 E286.62767
G1 X67.292 Y99.2 E288.75826
G1 X67.3 Y99.168 E288.75908
G1 X67.429 Y98.8 E288.76881
G1 X152.572 Y98.8 E290.89271
G1 X152.455 Y98.545 E290.89971
G1 X152.417 Y98.475 E290.9017
G1 X152.367 Y98.4 E290.90394
G1 X67.631 Y98.4 E293.01769
G1 X67.643 Y98.376 E293.01836
G1 X67.907 Y98.024 E293.02934
G1 X67.93 Y98 E293.03017
G1 X152.063 Y98 E295.12887
G1 X151.887 Y97.813 E295.13528
G1 X151.609 Y97.6 E295.14402
G1 X68.387 Y97.6 E297.22
G1 X68.609 Y97.451 E297.22667
G1 X68.676 Y97.415 E297.22856
G1 X69.022 Y97.257 E297.23805
G1 X69.083 Y97.235 E297.23967
G1 X69.211 Y97.2 E297.24298
G1 X150.794 Y97.2 E299.27808
G0 F2400 X150.704 Y97.17
G1 F1200 X150.638 Y97.153 E299.27978
G1 X150.26 Y97.09 E299.28934
G1 X150.108 Y97.078 E299.29314
G1 X149.88 Y97.069 E299.29883
G1 X70.085 Y97.07 E301.28933
G1 X69.886 Y97.077 E301.29429
G1 X69.56 Y97.114 E301.30248
G1 X69.456 Y97.133 E301.30511
G1 X69.211 Y97.2 E301.31145
G1 F1500 E297.81145
G0 F300 X69.211 Y97.2 Z0.675
G0 F2400 X152.399 Y120.475
;TIME_ELAPSED:433.506681
;LAYER:-2
;WIPE_SCRIPT_BEGIN
G1 F1800 E297.31145
G1 F300 Z0.875
G0 F2400 X100 Y120.475 Z0.875
G0 X120 Y120.475
G0 X100 Y120.475
G0 X120 Y120.475
G0 X100 Y120.475
G0 X120 Y120.475
G0 X152.399 Y120.475
G1 F300 Z0.675
G1 F1800 E301.31145
;WIPE_SCRIPT_END
;TYPE:SUPPORT-INTERFACE
G1 F1200 X152.4 Y98.45 E301.86087
G1 X152.417 Y98.475 E301.86162
G1 X152.455 Y98.545 E301.86361
G1 X152.613 Y98.891 E301.8731
G1 X152.635 Y98.952 E301.87471
G1 X152.736 Y99.321 E301.88426
G1 X152.755 Y99.424 E301.88687
G1 X152.793 Y99.75 E301.89506
G1 X152.8 Y99.949 E301.90002
G1 X152.799 Y118.936 E302.37366
G1 X152.79 Y119.17 E302.3795
G1 X152.778 Y119.322 E302.3833
G1 X152.716 Y119.696 E302.39276
G1 X152.699 Y119.764 E302.39451
G1 X152.551 Y120.189 E302.40573
G0 F2400 X152.4 Y98.45
G1 F1200 X152.205 Y98.159 E302.41447
G1 X152.166 Y98.11 E302.41603
G1 X152 Y97.934 E302.42207
G1 X151.999 Y121.002 E302.9975
G1 X151.758 Y121.228 E303.00574
G1 X151.711 Y121.265 E303.00723
G1 X151.599 Y121.341 E303.01061
G1 X151.6 Y97.594 E303.60298
G1 X151.494 Y97.512 E303.60633
G1 X151.2 Y97.359 E303.61459
G1 X151.199 Y121.574 E304.21864
G1 X150.977 Y121.675 E304.22472
G1 X150.916 Y121.697 E304.22634
G1 X150.799 Y121.729 E304.22937
