;FLAVOR:Marlin
;TIME:5130
;Filament used: 1.50937m
;Layer height: 0.15
;MINX:81.726
;MINY:95.283
;MINZ:0.15
;MAXX:120
;MAXY:124.97
;MAXZ:9.5
;Generated with Cura_SteamEngine 4.6.1
M140 S70
M105
M190 S70
M104 S255
M105
M109 S255
M82 ;absolute extrusion mode
M201 X500.00 Y500.00 Z100.00 E5000.00 ;Setup machine max acceleration
M203 X500.00 Y500.00 Z10.00 E50.00 ;Setup machine max feedrate
M204 P500.00 R1000.00 T500.00 ;Setup Print/Retract/Travel acceleration
M205 X8.00 Y8.00 Z0.40 E5.00 ;Setup Jerk
M220 S100 ;Reset Feedrate
M221 S100 ;Reset Flowrate

G28 ;Home

G92 E0 ;Reset Extruder
G1 Z2.0 F3000 ;Move Z Axis up
G1 X10.1 Y20 Z0.28 F5000.0 ;Move to start position
G1 X10.1 Y200.0 Z0.28 F1500.0 E15 ;Draw the first line
G1 X10.4 Y200.0 Z0.28 F5000.0 ;Move to side a little
G1 X10.4 Y20 Z0.28 F1500.0 E30 ;Draw the second line
G92 E0 ;Reset Extruder
G1 Z2.0 F3000 ;Move Z Axis up

G92 E0
G92 E0
G1 F1500 E-3.5
;LAYER_COUNT:57
;LAYER:-6
M107
M204 S500
M205 X8 Y8
G0 F2400 X83.795 Y96.903 Z0.15
;TYPE:SUPPORT-INTERFACE
G1 F1500 E0
G1 F900 X84.151 Y96.669 E0.02125
G1 X84.526 Y96.502 E0.04173
G1 X84.906 Y96.398 E0.06139
G1 X84.992 Y96.382 E0.06575
G1 X85.336 Y96.347 E0.083
G1 X85.479 Y96.343 E0.09014
G1 X90.039 Y96.342 E0.31764
G1 X90.404 Y96.363 E0.33588
G1 X90.78 Y96.424 E0.35489
G1 X91.439 Y96.543 E0.38829
G1 X92.12 Y96.58 E0.42232
G1 X92.801 Y96.529 E0.45639
G1 X93.532 Y96.383 E0.49358
G1 X93.847 Y96.347 E0.5094
G1 X94.128 Y96.343 E0.52342
G1 X98.478 Y96.342 E0.74044
G1 X98.706 Y96.352 E0.75183
G1 X98.841 Y96.363 E0.75858
G1 X99.275 Y96.44 E0.78057
G1 X99.917 Y96.614 E0.81376
G1 X100.593 Y96.707 E0.8478
G1 X101.276 Y96.714 E0.88188
G1 X101.95 Y96.636 E0.91573
G1 X102.401 Y96.534 E0.9388
G1 X102.894 Y96.401 E0.96427
G1 X103 Y96.381 E0.96966
G1 X103.332 Y96.347 E0.98631
G1 X103.478 Y96.343 E0.99359
G1 X108.038 Y96.342 E1.22109
G1 X108.266 Y96.352 E1.23248
G1 X108.401 Y96.363 E1.23924
G1 X108.795 Y96.427 E1.25915
G1 X109.444 Y96.544 E1.29205
G1 X110.127 Y96.58 E1.32617
G1 X110.807 Y96.528 E1.3602
G1 X111.533 Y96.383 E1.39713
G1 X111.847 Y96.347 E1.4129
G1 X112.128 Y96.343 E1.42692
G1 X116.478 Y96.342 E1.64394
G1 X116.706 Y96.352 E1.65533
G1 X116.841 Y96.363 E1.66209
G1 X117.258 Y96.435 E1.6832
G1 X117.614 Y96.554 E1.70193
G1 X117.668 Y96.579 E1.7049
G1 X117.98 Y96.745 E1.72253
G1 X118.031 Y96.778 E1.72556
G1 X118.32 Y96.998 E1.74368
G1 X118.37 Y97.043 E1.74703
G1 X118.647 Y97.345 E1.76748
G1 X118.878 Y97.694 E1.78836
G1 X119.052 Y98.084 E1.80967
G1 X119.151 Y98.446 E1.82839
G1 X119.171 Y98.556 E1.83397
G1 X119.205 Y98.87 E1.84972
G1 X119.209 Y99.022 E1.85731
G1 X119.21 Y122.034 E3.00538
G1 X119.202 Y122.253 E3.01632
G1 X119.189 Y122.405 E3.02393
G1 X119.115 Y122.825 E3.0452
G1 X118.999 Y123.171 E3.06341
G1 X118.977 Y123.22 E3.06609
G1 X118.777 Y123.59 E3.08707
G1 X118.516 Y123.924 E3.10822
G1 X118.216 Y124.203 E3.12866
G1 X117.852 Y124.443 E3.15041
G1 X117.514 Y124.598 E3.16896
G1 X117.462 Y124.616 E3.17171
G1 X117.108 Y124.712 E3.19001
G1 X117.018 Y124.729 E3.19458
G1 X116.676 Y124.766 E3.21174
G1 X116.52 Y124.77 E3.21953
G1 X103.518 Y124.77 E3.8682
G1 X103.155 Y124.749 E3.88634
G1 X102.717 Y124.67 E3.90854
G1 X102.07 Y124.497 E3.94196
G1 X101.394 Y124.405 E3.97599
G1 X100.711 Y124.4 E4.01007
G1 X100.037 Y124.479 E4.04392
G1 X99.601 Y124.578 E4.06623
G1 X99.099 Y124.714 E4.09218
G1 X99.021 Y124.728 E4.09613
G1 X98.676 Y124.766 E4.11345
G1 X98.52 Y124.77 E4.12123
G1 X85.518 Y124.77 E4.76991
G1 X85.299 Y124.761 E4.78084
G1 X85.155 Y124.749 E4.78805
G1 X84.735 Y124.675 E4.80933
G1 X84.389 Y124.559 E4.82753
G1 X84.34 Y124.537 E4.83021
G1 X83.97 Y124.337 E4.8512
G1 X83.636 Y124.076 E4.87234
G1 X83.35 Y123.766 E4.89339
G1 X83.11 Y123.4 E4.91522
G1 X82.945 Y123.025 E4.93566
G1 X82.849 Y122.669 E4.95406
G1 X82.83 Y122.567 E4.95923
G1 X82.794 Y122.23 E4.97614
G1 X82.79 Y122.09 E4.98313
G1 X82.791 Y99.072 E6.1315
G1 X82.8 Y98.848 E6.14269
G1 X82.812 Y98.708 E6.1497
G1 X82.886 Y98.288 E6.17097
G1 X83.002 Y97.942 E6.18918
G1 X83.024 Y97.893 E6.19186
G1 X83.224 Y97.523 E6.21284
G1 X83.485 Y97.189 E6.23399
G1 X83.795 Y96.903 E6.25503
G0 F2400 X85 Y96.381
G1 F900 X85 Y124.721 E7.66892
G0 F2400 X87.5 Y124.77
G1 F900 X87.5 Y96.342 E9.0872
G0 F2400 X90 Y96.342
G1 F900 X90 Y124.77 E10.50548
G0 F2400 X92.5 Y124.77
G1 F900 X92.5 Y96.551 E11.91333
G0 F2400 X95 Y96.342
G1 F900 X95 Y124.77 E13.33161
G0 F2400 X97.5 Y124.77
G1 F900 X97.5 Y96.342 E14.74989
G0 F2400 X100 Y96.626
G1 F900 X100 Y124.488 E16.13993
G0 F2400 X102.5 Y124.611
G1 F900 X102.5 Y96.507 E17.54204
G0 F2400 X105 Y96.342
G1 F900 X105 Y124.77 E18.96032
G0 F2400 X107.5 Y124.77
G1 F900 X107.5 Y96.342 E20.3786
G0 F2400 X110 Y96.574
G1 F900 X110 Y124.77 E21.7853
G0 F2400 X112.5 Y124.77
G1 F900 X112.5 Y96.342 E23.20358
G0 F2400 X115 Y96.342
G1 F900 X115 Y124.77 E24.62186
G0 F2400 X117.5 Y124.603
G1 F900 X117.5 Y96.516 E26.02313
G0 F300 X117.5 Y96.516 Z0.375
G0 F2400 X118.646 Y97.345
;TIME_ELAPSED:42.415816
;LAYER:-5
M140 S70
;WIPE_SCRIPT_BEGIN
G1 F1800 E22.02313
G1 F300 Z0.575
G0 F2400 X100 Y97.345 Z0.575
G0 X120 Y97.345
G0 X100 Y97.345
G0 X120 Y97.345
G0 X100 Y97.345
G0 X120 Y97.345
G0 X118.646 Y97.345
G1 F300 Z0.375
G1 F1800 E26.02313
;WIPE_SCRIPT_END
;TYPE:SUPPORT
G1 F1500 X118.368 Y97.042 E26.0539
G1 X118.318 Y96.998 E26.05889
G1 X118.03 Y96.777 E26.08605
G1 X117.979 Y96.744 E26.0906
G1 X117.934 Y96.72 E26.09441
G1 X118.819 Y97.606 E26.18813
G1 X118.877 Y97.693 E26.19595
G1 X119.051 Y98.084 E26.22798
G1 X119.15 Y98.446 E26.25607
G1 X119.17 Y98.555 E26.26436
G1 X119.204 Y98.869 E26.288
G1 X119.208 Y99.021 E26.29937
G1 X119.209 Y100.117 E26.38139
G1 X115.434 Y96.342 E26.78091
G1 X113.313 Y96.343 E26.93964
G1 X119.209 Y102.238 E27.56358
G1 X119.209 Y104.359 E27.7223
G1 X111.282 Y96.433 E28.56119
G1 X110.805 Y96.527 E28.59757
G1 X110.126 Y96.579 E28.64854
G1 X109.443 Y96.544 E28.69972
G1 X109.234 Y96.506 E28.71561
G1 X119.209 Y106.481 E29.7713
G1 X119.209 Y108.603 E29.9301
G1 X106.949 Y96.342 E31.22766
G1 X104.827 Y96.342 E31.38647
G1 X119.209 Y110.724 E32.90856
G1 X119.209 Y112.845 E33.06728
G1 X102.792 Y96.428 E34.80474
G1 X102.4 Y96.534 E34.83513
G1 X101.949 Y96.636 E34.86974
G1 X101.275 Y96.714 E34.92051
G1 X100.954 Y96.711 E34.94454
G1 X119.21 Y114.967 E36.87662
G1 X119.21 Y117.089 E37.03542
G1 X98.463 Y96.342 E39.23114
G1 X96.342 Y96.342 E39.38987
G1 X119.21 Y119.21 E41.81006
G1 X119.21 Y121.331 E41.96879
G1 X94.221 Y96.342 E44.61345
G1 X94.127 Y96.342 E44.62048
G1 X93.847 Y96.346 E44.64144
G1 X93.532 Y96.382 E44.66517
G1 X92.8 Y96.528 E44.72103
G1 X92.321 Y96.564 E44.75697
G1 X118.977 Y123.219 E47.57801
G1 X118.776 Y123.589 E47.60952
G1 X118.515 Y123.923 E47.64124
G1 X118.216 Y124.202 E47.67184
G1 X117.987 Y124.351 E47.69229
G1 X89.977 Y96.341 E50.65667
G1 X87.856 Y96.341 E50.8154
G1 X116.283 Y124.768 E53.82392
G1 X114.162 Y124.768 E53.98264
G1 X85.735 Y96.342 E56.99111
G1 X85.478 Y96.342 E57.01034
G1 X85.336 Y96.346 E57.02097
G1 X84.992 Y96.38 E57.04684
G1 X84.905 Y96.397 E57.05347
G1 X84.526 Y96.501 E57.08289
G1 X84.151 Y96.668 E57.11361
G1 X84.024 Y96.752 E57.125
G1 X112.041 Y124.768 E60.09007
G1 X109.919 Y124.768 E60.24887
G1 X83.03 Y97.879 E63.09462
G1 X83.024 Y97.891 E63.09562
G1 X83.001 Y97.941 E63.09974
G1 X82.886 Y98.287 E63.12703
G1 X82.812 Y98.707 E63.15894
G1 X82.8 Y98.847 E63.16946
G1 X82.79 Y99.071 E63.18624
G1 X82.79 Y99.76 E63.2378
G1 X107.798 Y124.768 E65.88447
G1 X105.677 Y124.768 E66.0432
G1 X82.79 Y101.882 E68.46535
G1 X82.79 Y104.003 E68.62408
G1 X103.555 Y124.768 E70.8217
G1 X103.517 Y124.768 E70.82454
G1 X103.154 Y124.748 E70.85175
G1 X102.716 Y124.669 E70.88506
G1 X102.07 Y124.496 E70.9351
G1 X101.394 Y124.404 E70.98616
G1 X101.067 Y124.402 E71.01063
G1 X82.79 Y106.124 E72.94499
G1 X82.79 Y108.246 E73.1038
G1 X99.223 Y124.679 E74.84295
G1 X99.098 Y124.713 E74.85264
G1 X99.021 Y124.727 E74.8585
G1 X98.676 Y124.765 E74.88448
G1 X98.519 Y124.768 E74.89623
G1 X97.191 Y124.768 E74.99561
G1 X82.79 Y110.367 E76.51971
G1 X82.79 Y112.488 E76.67844
G1 X95.07 Y124.768 E77.97807
G1 X92.949 Y124.768 E78.13679
G1 X82.79 Y114.609 E79.21195
G1 X82.79 Y116.731 E79.37075
G1 X90.827 Y124.768 E80.22133
G1 X88.706 Y124.768 E80.38006
G1 X82.79 Y118.852 E81.00617
G1 X82.79 Y120.973 E81.16489
G1 X86.585 Y124.768 E81.56653
G1 X85.518 Y124.769 E81.64638
G1 X85.298 Y124.759 E81.66286
G1 X85.154 Y124.748 E81.67367
G1 X84.735 Y124.674 E81.70551
G1 X84.388 Y124.558 E81.73289
G1 X84.34 Y124.536 E81.73684
G1 X84.102 Y124.407 E81.7571
G1 X83.139 Y123.444 E81.85902
G0 F2400 X83.35 Y123.765
G1 F1500 X83.635 Y124.075 E81.89053
G1 X83.97 Y124.336 E81.92231
G1 X84.102 Y124.407 E81.93353
G0 F300 X84.102 Y124.407 Z0.525
G0 F2400 X84.685 Y124.869
;TIME_ELAPSED:77.723831
;LAYER:-4
;WIPE_SCRIPT_BEGIN
G1 F1800 E77.93353
G1 F300 Z0.725
G0 F2400 X100 Y124.869 Z0.725
G0 X120 Y124.869
G0 X100 Y124.869
G0 X120 Y124.869
G0 X100 Y124.869
G0 X120 Y124.869
G0 X84.685 Y124.869
G1 F300 Z0.525
G1 F1800 E81.93353
;WIPE_SCRIPT_END
;TYPE:SUPPORT-INTERFACE
G1 F1200 X84.751 Y124.886 E81.93523
G1 X85.129 Y124.949 E81.94479
G1 X85.281 Y124.961 E81.94859
G1 X85.509 Y124.97 E81.95428
G1 X98.524 Y124.97 E82.27894
G1 X98.723 Y124.963 E82.28391
G1 X99.048 Y124.926 E82.29207
G1 X99.152 Y124.907 E82.29471
G1 X99.545 Y124.8 E82.30487
G1 X84.486 Y124.8 E82.68051
G1 X84.259 Y124.721 E82.68651
G1 X83.895 Y124.527 E82.6968
G1 X83.725 Y124.4 E82.70209
G1 X118.28 Y124.4 E83.56407
G1 X118.326 Y124.37 E83.56544
G1 X118.658 Y124.063 E83.57672
G1 X118.702 Y124.016 E83.57833
G1 X118.713 Y124 E83.57881
G1 X83.289 Y124 E84.46247
G1 X83.223 Y123.929 E84.46488
G1 X83.184 Y123.88 E84.46645
G1 X82.996 Y123.6 E84.47486
G1 X118.998 Y123.6 E85.37293
G1 X119.161 Y123.296 E85.38154
G1 X119.194 Y123.2 E85.38407
G1 X82.799 Y123.2 E86.29195
G1 X82.776 Y123.148 E86.29336
G1 X82.754 Y123.087 E86.29498
G1 X82.675 Y122.8 E86.30241
G1 X119.326 Y122.8 E87.21667
G1 X119.388 Y122.429 E87.22605
G1 X119.39 Y122.4 E87.22678
G1 X82.608 Y122.4 E88.14431
G1 X82.595 Y122.279 E88.14735
G1 X82.589 Y122.09 E88.15206
G1 X82.59 Y122 E88.15431
G1 X119.409 Y122 E89.07276
G1 X119.409 Y121.6 E89.08274
G1 X82.59 Y121.6 E90.00119
G1 X82.59 Y121.2 E90.01117
G1 X119.409 Y121.2 E90.92962
G1 X119.409 Y120.8 E90.9396
G1 X82.59 Y120.8 E91.85806
G1 X82.59 Y120.4 E91.86803
G1 X119.409 Y120.4 E92.78649
G1 X119.409 Y120 E92.79647
G1 X82.59 Y120 E93.71492
G1 X82.59 Y119.6 E93.7249
G1 X119.409 Y119.6 E94.64335
G1 X119.409 Y119.2 E94.65333
G1 X82.59 Y119.2 E95.57178
G1 X82.591 Y118.8 E95.58176
G1 X119.41 Y118.8 E96.50021
G1 X119.41 Y118.4 E96.51019
G1 X82.591 Y118.4 E97.42865
G1 X82.591 Y118 E97.43862
G1 X119.41 Y118 E98.35708
G1 X119.41 Y117.6 E98.36706
G1 X82.591 Y117.6 E99.28551
G1 X82.591 Y117.2 E99.29549
G1 X119.41 Y117.2 E100.21394
G1 X119.41 Y116.8 E100.22392
G1 X82.591 Y116.8 E101.14237
G1 X82.591 Y116.4 E101.15235
G1 X119.41 Y116.4 E102.07081
G1 X119.41 Y116 E102.08078
G1 X82.591 Y116 E102.99924
G1 X82.591 Y115.6 E103.00922
G1 X119.41 Y115.6 E103.92767
G1 X119.41 Y115.2 E103.93765
G1 X82.591 Y115.2 E104.8561
G1 X82.591 Y114.8 E104.86608
G1 X119.41 Y114.8 E105.78453
G1 X119.41 Y114.4 E105.79451
G1 X82.591 Y114.4 E106.71296
G1 X82.591 Y114 E106.72294
G1 X119.41 Y114 E107.6414
G1 X119.41 Y113.6 E107.65137
G1 X82.591 Y113.6 E108.56983
G1 X82.591 Y113.2 E108.57981
G1 X119.41 Y113.2 E109.49826
G1 X119.41 Y112.8 E109.50824
G1 X82.591 Y112.8 E110.42669
G1 X82.591 Y112.4 E110.43667
G1 X119.41 Y112.4 E111.35512
G1 X119.41 Y112 E111.3651
G1 X82.591 Y112 E112.28355
G1 X82.591 Y111.6 E112.29353
G1 X119.41 Y111.6 E113.21199
G1 X119.41 Y111.2 E113.22196
G1 X82.591 Y111.2 E114.14042
G1 X82.591 Y110.8 E114.1504
G1 X119.41 Y110.8 E115.06885
G1 X119.41 Y110.4 E115.07883
G1 X82.591 Y110.4 E115.99728
G1 X82.591 Y110 E116.00726
G1 X119.41 Y110 E116.92571
G1 X119.41 Y109.6 E116.93569
G1 X82.591 Y109.6 E117.85414
G1 X82.591 Y109.2 E117.86412
G1 X119.41 Y109.2 E118.78258
G1 X119.41 Y108.8 E118.79255
G1 X82.591 Y108.8 E119.71101
G1 X82.591 Y108.4 E119.72099
G1 X119.41 Y108.4 E120.63944
G1 X119.41 Y108 E120.64942
G1 X82.591 Y108 E121.56787
G1 X82.591 Y107.6 E121.57785
G1 X119.41 Y107.6 E122.4963
G1 X119.41 Y107.2 E122.50628
G1 X82.591 Y107.2 E123.42473
G1 X82.591 Y106.8 E123.43471
G1 X119.41 Y106.8 E124.35317
G1 X119.41 Y106.4 E124.36314
G1 X82.591 Y106.4 E125.2816
G1 X82.591 Y106 E125.29158
G1 X119.41 Y106 E126.21003
G1 X119.41 Y105.6 E126.22001
G1 X82.591 Y105.6 E127.13846
G1 X82.591 Y105.2 E127.14844
G1 X119.41 Y105.2 E128.06689
G1 X119.41 Y104.8 E128.07687
G1 X82.591 Y104.8 E128.99533
G1 X82.591 Y104.4 E129.0053
G1 X119.41 Y104.4 E129.92376
G1 X119.41 Y104 E129.93374
G1 X82.591 Y104 E130.85219
G1 X82.591 Y103.6 E130.86217
G1 X119.41 Y103.6 E131.78062
G1 X119.41 Y103.2 E131.7906
G1 X82.591 Y103.2 E132.70905
G1 X82.591 Y102.8 E132.71903
G1 X119.41 Y102.8 E133.63748
G1 X119.41 Y102.4 E133.64746
G1 X82.591 Y102.4 E134.56592
G1 X82.591 Y102 E134.57589
G1 X119.41 Y102 E135.49435
G1 X119.41 Y101.6 E135.50433
G1 X82.591 Y101.6 E136.42278
G1 X82.591 Y101.2 E136.43276
G1 X119.41 Y101.2 E137.35121
G1 X119.41 Y100.8 E137.36119
G1 X82.591 Y100.8 E138.27964
G1 X82.591 Y100.4 E138.28962
G1 X119.41 Y100.4 E139.20807
G1 X119.41 Y100 E139.21805
G1 X82.591 Y100 E140.13651
G1 X82.591 Y99.6 E140.14648
G1 X119.41 Y99.6 E141.06494
G1 X119.41 Y99.2 E141.07492
G1 X82.591 Y99.2 E141.99337
G1 X82.591 Y99.063 E141.99679
G1 X82.601 Y98.823 E142.00278
G1 X82.603 Y98.8 E142.00335
G1 X119.401 Y98.8 E142.92128
G1 X119.366 Y98.506 E142.92867
G1 X119.347 Y98.405 E142.93123
G1 X119.346 Y98.4 E142.93136
G1 X82.659 Y98.4 E143.84652
G1 X82.674 Y98.309 E143.84882
G1 X82.691 Y98.241 E143.85057
G1 X82.775 Y98 E143.85694
G1 X119.236 Y98 E144.76646
G1 X119.224 Y97.969 E144.76729
G1 X119.052 Y97.6 E144.77745
G1 X82.954 Y97.6 E145.67791
G1 X83.034 Y97.449 E145.68218
G1 X83.221 Y97.2 E145.68994
G1 X118.788 Y97.2 E146.57717
G1 X118.773 Y97.181 E146.57777
G1 X118.509 Y96.9 E146.58739
G1 X118.453 Y96.849 E146.58928
G1 X118.39 Y96.8 E146.59127
G1 X83.608 Y96.8 E147.45891
G1 X83.632 Y96.777 E147.45974
G1 X83.681 Y96.738 E147.4613
G1 X84 Y96.524 E147.47088
G1 X84.067 Y96.488 E147.47278
G1 X84.259 Y96.4 E147.47805
G1 X99.895 Y96.4 E147.86809
G1 X99.957 Y96.417 E147.86969
G1 X100.608 Y96.507 E147.88609
G1 X101.265 Y96.514 E147.90248
G1 X101.917 Y96.438 E147.91885
G0 F2400 X99.313 Y96.242
G1 F1200 X98.867 Y96.163 E147.93015
G1 X98.487 Y96.142 E147.93964
G1 X94.083 Y96.143 E148.0495
G1 X93.832 Y96.149 E148.05577
G1 X93.5 Y96.186 E148.0641
G1 X92.773 Y96.331 E148.08259
G1 X92.118 Y96.379 E148.09897
G1 X91.462 Y96.344 E148.11536
G1 X90.808 Y96.226 E148.13194
G1 X90.428 Y96.163 E148.14155
G1 X90.048 Y96.142 E148.15104
G1 X85.473 Y96.143 E148.26516
G1 X85.327 Y96.147 E148.26881
G1 X84.963 Y96.185 E148.27794
G1 X84.854 Y96.205 E148.2807
G1 X84.47 Y96.31 E148.29063
G1 X84.409 Y96.331 E148.29224
G1 X84.259 Y96.4 E148.29636
G1 F1500 E144.79636
G0 F2400 X99.649 Y124.772
G1 F1500 E148.29636
G1 F1200 X100.07 Y124.677 E148.30713
G1 X100.721 Y124.6 E148.32348
G1 X101.378 Y124.605 E148.33987
G1 X102.029 Y124.694 E148.35626
G1 X102.424 Y124.8 E148.36646
G1 X117.538 Y124.8 E148.74348
G1 X117.516 Y124.808 E148.74406
G1 X117.156 Y124.906 E148.75337
G1 X117.048 Y124.926 E148.75611
G1 X116.723 Y124.963 E148.76427
G1 X116.524 Y124.97 E148.76924
G1 X103.509 Y124.97 E149.0939
G1 X103.281 Y124.961 E149.09959
G1 X103.129 Y124.949 E149.10339
G1 X102.751 Y124.886 E149.11295
G1 X102.679 Y124.868 E149.1148
G0 F2400 X102.087 Y96.4
G1 F1200 X102.353 Y96.34 E149.12161
G1 X102.84 Y96.208 E149.13419
G1 X102.968 Y96.184 E149.13744
G1 X103.324 Y96.147 E149.14637
G1 X103.473 Y96.143 E149.15009
G1 X108.047 Y96.142 E149.26419
G1 X108.427 Y96.163 E149.27368
G1 X108.813 Y96.227 E149.28344
G1 X109.467 Y96.345 E149.30002
G1 X110.124 Y96.379 E149.31643
G1 X110.78 Y96.329 E149.33284
G1 X111.502 Y96.186 E149.3512
G1 X111.832 Y96.149 E149.35948
G1 X112.083 Y96.143 E149.36575
G1 X116.487 Y96.142 E149.47561
G1 X116.867 Y96.163 E149.4851
G1 X117.311 Y96.242 E149.49635
G1 X117.692 Y96.37 E149.50638
G1 X117.759 Y96.4 E149.50821
G1 X102.087 Y96.4 E149.89915
G1 F1500 E146.39915
