;FLAVOR:Marlin
;TIME:4113
;Filament used: 1.45185m
;Layer height: 0.15
;MINX:71.007
;MINY:67.306
;MINZ:0.15
;MAXX:149.099
;MAXY:149.095
;MAXZ:8.45
;Generated with Cura_SteamEngine 4.6.1
M140 S70
M105
M190 S70
M104 S255
M105
M109 S255
M82 ;absolute extrusion mode
M201 X500.00 Y500.00 Z100.00 E5000.00 ;Setup machine max acceleration
M203 X500.00 Y500.00 Z10.00 E50.00 ;Setup machine max feedrate
M204 P500.00 R1000.00 T500.00 ;Setup Print/Retract/Travel acceleration
M205 X8.00 Y8.00 Z0.40 E5.00 ;Setup Jerk
M220 S100 ;Reset Feedrate
M221 S100 ;Reset Flowrate

G28 ;Home

G92 E0 ;Reset Extruder
G1 Z2.0 F3000 ;Move Z Axis up
G1 X10.1 Y20 Z0.28 F5000.0 ;Move to start position
G1 X10.1 Y200.0 Z0.28 F1500.0 E15 ;Draw the first line
G1 X10.4 Y200.0 Z0.28 F5000.0 ;Move to side a little
G1 X10.4 Y20 Z0.28 F1500.0 E30 ;Draw the second line
G92 E0 ;Reset Extruder
G1 Z2.0 F3000 ;Move Z Axis up

G92 E0
G92 E0
G1 F1500 E-3.5
;LAYER_COUNT:50
;LAYER:-6
M107
M204 S500
M205 X8 Y8
G0 F2400 X76.954 Y82.691 Z0.15
;TYPE:SUPPORT-INTERFACE
G1 F1500 E0
G1 F900 X77.21 Y82.475 E0.01671
G1 X77.348 Y82.369 E0.02539
G1 X77.561 Y82.224 E0.03825
G1 X77.912 Y82.017 E0.05858
G1 X78.036 Y81.956 E0.06547
G1 X78.407 Y81.796 E0.08563
G1 X78.546 Y81.748 E0.09297
G1 X78.965 Y81.626 E0.11474
G1 X79.133 Y81.591 E0.1233
G1 X79.337 Y81.555 E0.13363
G1 X79.56 Y81.526 E0.14485
G1 X79.726 Y81.515 E0.15315
G1 X80.425 Y81.49 E0.18805
G1 X80.425 Y81.474 E0.18885
G1 X80.564 Y81.465 E0.1958
G1 X81.234 Y81.336 E0.22984
G1 X81.883 Y81.123 E0.26391
G1 X82.5 Y80.831 E0.29797
G1 X83.075 Y80.463 E0.33203
G1 X83.599 Y80.025 E0.3661
G1 X84.063 Y79.525 E0.40013
G1 X84.462 Y78.969 E0.43428
G1 X84.786 Y78.369 E0.46829
G1 X85.032 Y77.734 E0.50227
G1 X85.181 Y77.142 E0.53273
G1 X85.256 Y76.787 E0.55083
G1 X85.291 Y76.653 E0.55774
G1 X85.33 Y76.526 E0.56437
G1 X85.449 Y76.189 E0.5822
G1 X85.535 Y75.989 E0.59306
G1 X85.68 Y75.693 E0.6095
G1 X85.812 Y75.463 E0.62273
G1 X86.011 Y75.157 E0.64094
G1 X86.116 Y75.02 E0.64955
G1 X86.344 Y74.747 E0.6673
G1 X86.493 Y74.589 E0.67813
G1 X86.619 Y74.465 E0.68695
G1 X86.807 Y74.294 E0.69963
G1 X86.953 Y74.171 E0.70916
G1 X87.058 Y74.09 E0.71577
G1 X87.19 Y73.995 E0.72389
G1 X87.401 Y73.854 E0.73655
G1 X87.662 Y73.7 E0.75167
G1 X87.794 Y73.632 E0.75907
G1 X88.035 Y73.519 E0.77235
G1 X88.3 Y73.41 E0.78665
G1 X88.445 Y73.36 E0.7943
G1 X88.819 Y73.251 E0.81374
G1 X88.937 Y73.223 E0.81979
G1 X89.124 Y73.188 E0.82928
G1 X89.385 Y73.149 E0.84244
G1 X89.575 Y73.128 E0.85198
G1 X89.793 Y73.113 E0.86288
G1 X89.964 Y73.108 E0.87142
G1 X90.215 Y73.109 E0.88394
G1 X90.468 Y73.124 E0.89659
G1 X90.963 Y73.162 E0.92135
G1 X90.963 Y73.15 E0.92195
G1 X91.122 Y73.158 E0.92989
G1 X91.803 Y73.107 E0.96397
G1 X92.473 Y72.971 E0.99807
G1 X93.118 Y72.752 E1.03206
G1 X93.733 Y72.453 E1.06617
G1 X94.304 Y72.079 E1.10023
G1 X94.823 Y71.635 E1.1343
G1 X95.282 Y71.129 E1.16839
G1 X95.673 Y70.573 E1.2023
G1 X95.936 Y70.086 E1.22991
G1 X95.984 Y69.984 E1.23553
G1 X96.129 Y69.716 E1.25074
G1 X96.21 Y69.583 E1.25851
G1 X96.303 Y69.44 E1.26702
G1 X96.391 Y69.314 E1.27468
G1 X96.473 Y69.211 E1.28125
G1 X96.699 Y68.949 E1.29851
G1 X96.779 Y68.865 E1.3043
G1 X96.914 Y68.734 E1.31369
G1 X97.207 Y68.477 E1.33313
G1 X97.393 Y68.339 E1.34469
G1 X97.604 Y68.2 E1.35729
G1 X97.848 Y68.055 E1.37145
G1 X98.027 Y67.964 E1.38147
G1 X98.248 Y67.864 E1.39357
G1 X98.545 Y67.749 E1.40946
G1 X98.678 Y67.706 E1.41643
G1 X98.941 Y67.634 E1.43004
G1 X99.162 Y67.583 E1.44135
G1 X99.302 Y67.56 E1.44843
G1 X99.627 Y67.519 E1.46478
G1 X99.723 Y67.512 E1.46958
G1 X99.874 Y67.507 E1.47711
G1 X100.26 Y67.512 E1.49637
G1 X100.537 Y67.536 E1.51025
G1 X100.907 Y67.594 E1.52893
G1 X101.033 Y67.623 E1.53538
G1 X101.429 Y67.736 E1.55593
G1 X101.561 Y67.783 E1.56292
G1 X101.901 Y67.923 E1.58126
G1 X102.045 Y67.995 E1.58929
G1 X102.403 Y68.199 E1.60985
G1 X102.788 Y68.47 E1.63334
G1 X102.972 Y68.622 E1.64525
G1 X103.513 Y69.016 E1.67864
G1 X104.111 Y69.346 E1.71271
G1 X104.746 Y69.596 E1.74676
G1 X105.408 Y69.765 E1.78084
G1 X106.085 Y69.849 E1.81488
G1 X106.768 Y69.847 E1.84895
G1 X107.448 Y69.758 E1.88317
G1 X108.275 Y69.526 E1.92602
G1 X108.373 Y69.489 E1.93125
G1 X108.724 Y69.379 E1.9496
G1 X109.052 Y69.302 E1.96641
G1 X109.294 Y69.259 E1.97867
G1 X109.46 Y69.236 E1.98703
G1 X109.709 Y69.214 E1.9995
G1 X110.09 Y69.204 E2.01852
G1 X110.301 Y69.211 E2.02905
G1 X110.65 Y69.245 E2.04654
G1 X110.763 Y69.262 E2.05224
G1 X111.136 Y69.339 E2.07125
G1 X111.259 Y69.372 E2.0776
G1 X111.59 Y69.476 E2.09491
G1 X111.733 Y69.529 E2.10252
G1 X112.375 Y69.721 E2.13595
G1 X113.05 Y69.834 E2.17009
G1 X113.733 Y69.859 E2.20419
G1 X114.412 Y69.798 E2.2382
G1 X115.079 Y69.652 E2.27227
G1 X115.722 Y69.423 E2.30632
G1 X116.335 Y69.114 E2.34057
G1 X117.031 Y68.625 E2.38301
G1 X117.376 Y68.351 E2.40499
G1 X117.513 Y68.259 E2.41322
G1 X117.734 Y68.122 E2.42619
G1 X117.994 Y67.979 E2.441
G1 X118.168 Y67.897 E2.45059
G1 X118.357 Y67.816 E2.46085
G1 X118.506 Y67.758 E2.46883
G1 X118.653 Y67.711 E2.47653
G1 X118.997 Y67.618 E2.49431
G1 X119.094 Y67.598 E2.49925
G1 X119.273 Y67.567 E2.50831
G1 X119.552 Y67.53 E2.52235
G1 X119.792 Y67.51 E2.53437
G1 X120.004 Y67.507 E2.54494
G1 X120.261 Y67.515 E2.55777
G1 X120.552 Y67.539 E2.57234
G1 X120.727 Y67.565 E2.58117
G1 X120.989 Y67.617 E2.59449
G1 X121.147 Y67.654 E2.60259
G1 X121.261 Y67.686 E2.6085
G1 X121.413 Y67.735 E2.61646
G1 X121.651 Y67.82 E2.62907
G1 X121.865 Y67.908 E2.64062
G1 X122.017 Y67.983 E2.64907
G1 X122.222 Y68.094 E2.6607
G1 X122.371 Y68.181 E2.66931
G1 X122.593 Y68.329 E2.68262
G1 X122.936 Y68.594 E2.70425
G1 X123.18 Y68.819 E2.72081
G1 X123.275 Y68.917 E2.72761
G1 X123.381 Y69.036 E2.73557
G1 X123.51 Y69.191 E2.74563
G1 X123.662 Y69.393 E2.75824
G1 X123.769 Y69.552 E2.7678
G1 X123.876 Y69.725 E2.77795
G1 X123.996 Y69.937 E2.7901
G1 X124.121 Y70.195 E2.80441
G1 X124.448 Y70.78 E2.83784
G1 X124.853 Y71.33 E2.87192
G1 X125.325 Y71.824 E2.906
G1 X125.856 Y72.255 E2.94012
G1 X126.436 Y72.614 E2.97416
G1 X127.056 Y72.898 E3.00818
G1 X127.708 Y73.102 E3.04226
G1 X128.38 Y73.221 E3.07631
G1 X129.058 Y73.256 E3.11018
G1 X129.754 Y73.212 E3.14497
G1 X129.963 Y73.206 E3.1554
G1 X130.23 Y73.211 E3.16873
G1 X130.384 Y73.22 E3.17642
G1 X130.611 Y73.243 E3.18781
G1 X130.816 Y73.272 E3.19814
G1 X130.989 Y73.307 E3.20694
G1 X131.347 Y73.398 E3.22537
G1 X131.617 Y73.486 E3.23954
G1 X131.904 Y73.596 E3.25487
G1 X132.086 Y73.68 E3.26487
G1 X132.476 Y73.89 E3.28697
G1 X132.587 Y73.96 E3.29352
G1 X132.933 Y74.205 E3.31467
G1 X133.149 Y74.381 E3.32857
G1 X133.279 Y74.498 E3.3373
G1 X133.513 Y74.737 E3.35398
G1 X133.727 Y74.985 E3.37033
G1 X133.815 Y75.097 E3.37743
G1 X133.947 Y75.281 E3.38873
G1 X134.106 Y75.523 E3.40318
G1 X134.185 Y75.661 E3.41111
G1 X134.368 Y76.021 E3.43126
G1 X134.47 Y76.263 E3.44436
G1 X134.597 Y76.625 E3.4635
G1 X134.638 Y76.776 E3.4713
G1 X134.713 Y77.127 E3.48921
G1 X134.88 Y77.776 E3.52264
G1 X135.13 Y78.411 E3.55669
G1 X135.461 Y79.009 E3.59079
G1 X135.863 Y79.56 E3.62482
G1 X136.332 Y80.057 E3.65891
G1 X136.86 Y80.49 E3.69298
G1 X137.438 Y80.853 E3.72703
G1 X138.057 Y81.14 E3.76107
G1 X138.708 Y81.348 E3.79517
G1 X139.379 Y81.471 E3.8292
G1 X140.377 Y81.522 E3.87906
G1 X140.62 Y81.548 E3.89125
G1 X140.827 Y81.579 E3.90169
G1 X140.965 Y81.609 E3.90874
G1 X141.184 Y81.663 E3.91999
G1 X141.393 Y81.724 E3.93085
G1 X141.569 Y81.788 E3.9402
G1 X141.753 Y81.861 E3.95007
G1 X141.953 Y81.95 E3.96099
G1 X142.131 Y82.043 E3.97101
G1 X142.323 Y82.153 E3.98205
G1 X142.462 Y82.239 E3.99021
G1 X142.559 Y82.305 E3.99606
G1 X142.707 Y82.414 E4.00523
G1 X142.878 Y82.55 E4.01613
G1 X143.07 Y82.716 E4.02879
G1 X143.205 Y82.851 E4.03832
G1 X143.359 Y83.015 E4.04954
G1 X143.535 Y83.223 E4.06314
G1 X143.633 Y83.353 E4.07126
G1 X143.75 Y83.523 E4.08155
G1 X143.887 Y83.74 E4.09436
G1 X144.034 Y84.015 E4.10991
G1 X144.142 Y84.245 E4.12259
G1 X144.284 Y84.627 E4.14292
G1 X144.393 Y85.042 E4.16433
G1 X144.419 Y85.178 E4.17124
G1 X144.477 Y85.597 E4.19234
G1 X144.484 Y85.693 E4.19714
G1 X144.491 Y85.863 E4.20563
G1 X144.491 Y86.123 E4.2186
G1 X144.477 Y86.387 E4.23179
G1 X144.455 Y86.578 E4.24138
G1 X144.416 Y86.826 E4.25391
G1 X144.351 Y87.127 E4.26927
G1 X144.312 Y87.265 E4.27643
G1 X144.239 Y87.498 E4.28861
G1 X144.188 Y87.644 E4.29632
G1 X144.049 Y87.955 E4.31332
G1 X143.764 Y88.523 E4.34502
G1 X143.779 Y88.531 E4.34587
G1 X143.751 Y88.59 E4.34913
G1 X143.538 Y89.238 E4.38316
G1 X143.408 Y89.909 E4.41726
G1 X143.364 Y90.59 E4.45131
G1 X143.406 Y91.272 E4.4854
G1 X143.535 Y91.943 E4.51948
G1 X143.748 Y92.598 E4.55385
G1 X143.962 Y93.017 E4.57732
G1 X143.934 Y93.033 E4.57893
G1 X144.292 Y93.643 E4.61422
G1 X144.443 Y93.941 E4.63088
G1 X144.492 Y94.053 E4.63698
G1 X144.608 Y94.351 E4.65294
G1 X144.652 Y94.479 E4.65969
G1 X144.703 Y94.652 E4.66869
G1 X144.763 Y94.88 E4.68045
G1 X144.805 Y95.076 E4.69045
G1 X144.855 Y95.385 E4.70607
G1 X144.893 Y95.784 E4.72606
G1 X144.896 Y96.153 E4.74447
G1 X144.87 Y96.519 E4.76278
G1 X144.851 Y96.666 E4.77017
G1 X144.816 Y96.878 E4.78089
G1 X144.747 Y97.195 E4.79708
G1 X144.694 Y97.384 E4.80687
G1 X144.62 Y97.615 E4.81897
G1 X144.567 Y97.761 E4.82672
G1 X144.517 Y97.884 E4.83335
G1 X144.443 Y98.051 E4.84246
G1 X144.355 Y98.234 E4.85259
G1 X144.285 Y98.368 E4.86013
G1 X144.216 Y98.488 E4.86704
G1 X144.027 Y98.785 E4.8846
G1 X143.957 Y98.882 E4.89057
G1 X143.604 Y99.452 E4.92402
G1 X143.32 Y100.073 E4.95809
G1 X143.117 Y100.725 E4.99215
G1 X142.998 Y101.397 E5.0262
G1 X142.963 Y102.079 E5.06027
G1 X143.016 Y102.76 E5.09435
G1 X143.154 Y103.429 E5.12843
G1 X143.376 Y104.075 E5.16251
G1 X143.676 Y104.684 E5.19638
G1 X143.942 Y105.102 E5.2211
G1 X144.098 Y105.324 E5.23463
G1 X144.233 Y105.538 E5.24726
G1 X144.292 Y105.643 E5.25327
G1 X144.443 Y105.941 E5.26993
G1 X144.492 Y106.053 E5.27603
G1 X144.608 Y106.351 E5.29199
G1 X144.652 Y106.479 E5.29874
G1 X144.703 Y106.652 E5.30774
G1 X144.763 Y106.88 E5.3195
G1 X144.805 Y107.076 E5.3295
G1 X144.855 Y107.385 E5.34512
G1 X144.893 Y107.784 E5.36511
G1 X144.896 Y108.153 E5.38352
G1 X144.87 Y108.52 E5.40188
G1 X144.852 Y108.66 E5.40892
G1 X144.819 Y108.853 E5.41869
G1 X144.75 Y109.518 E5.45204
G1 X144.765 Y110.201 E5.48613
G1 X144.866 Y110.877 E5.52023
G1 X145.052 Y111.534 E5.55429
G1 X145.319 Y112.163 E5.58838
G1 X145.662 Y112.752 E5.62239
G1 X146.078 Y113.294 E5.65648
G1 X146.556 Y113.776 E5.69034
G1 X147.245 Y114.335 E5.73461
G1 X147.444 Y114.522 E5.74823
G1 X147.676 Y114.764 E5.76496
G1 X147.78 Y114.89 E5.77311
G1 X147.998 Y115.18 E5.79121
G1 X148.103 Y115.337 E5.80063
G1 X148.212 Y115.514 E5.811
G1 X148.336 Y115.737 E5.82373
G1 X148.42 Y115.905 E5.8331
G1 X148.551 Y116.201 E5.84925
G1 X148.668 Y116.516 E5.86602
G1 X148.716 Y116.686 E5.87483
G1 X148.789 Y116.999 E5.89086
G1 X148.853 Y117.375 E5.90989
G1 X148.873 Y117.535 E5.91794
G1 X148.89 Y117.734 E5.9279
G1 X148.899 Y118.001 E5.94123
G1 X148.884 Y118.353 E5.95881
G1 X148.849 Y118.674 E5.97492
G1 X148.827 Y118.808 E5.98169
G1 X148.776 Y119.069 E5.99496
G1 X148.703 Y119.362 E6.01002
G1 X148.661 Y119.498 E6.01712
G1 X148.528 Y119.861 E6.03641
G1 X148.468 Y120.002 E6.04406
G1 X148.402 Y120.142 E6.05178
G1 X148.235 Y120.458 E6.06961
G1 X148.112 Y120.658 E6.08132
G1 X147.983 Y120.849 E6.09282
G1 X147.835 Y121.044 E6.10504
G1 X147.745 Y121.154 E6.11213
G1 X147.473 Y121.453 E6.13229
G1 X147.332 Y121.585 E6.14193
G1 X147.166 Y121.73 E6.15293
G1 X147.047 Y121.827 E6.16059
G1 X146.873 Y121.959 E6.17148
G1 X146.732 Y122.058 E6.18008
G1 X146.516 Y122.198 E6.19292
G1 X146.302 Y122.32 E6.20521
G1 X146.167 Y122.388 E6.21275
G1 X145.962 Y122.484 E6.22404
G1 X145.688 Y122.594 E6.23877
G1 X145.561 Y122.637 E6.24546
G1 X145.159 Y122.755 E6.26636
G1 X144.925 Y122.806 E6.27831
G1 X144.281 Y122.994 E6.31178
G1 X143.654 Y123.266 E6.34588
G1 X143.068 Y123.615 E6.37991
G1 X142.529 Y124.035 E6.414
G1 X142.048 Y124.52 E6.44808
G1 X141.632 Y125.061 E6.48213
G1 X141.288 Y125.651 E6.5162
G1 X141.021 Y126.28 E6.55029
G1 X140.835 Y126.936 E6.58431
G1 X140.734 Y127.612 E6.61841
G1 X140.718 Y128.298 E6.65264
G1 X140.758 Y128.622 E6.66893
G1 X140.735 Y128.626 E6.67009
G1 X140.835 Y129.231 E6.70069
G1 X140.875 Y129.556 E6.71702
G1 X140.899 Y129.998 E6.73911
G1 X140.884 Y130.353 E6.75683
G1 X140.849 Y130.674 E6.77294
G1 X140.827 Y130.809 E6.77977
G1 X140.775 Y131.077 E6.79339
G1 X140.707 Y131.349 E6.80738
G1 X140.656 Y131.508 E6.81571
G1 X140.571 Y131.746 E6.82832
G1 X140.505 Y131.912 E6.83723
G1 X140.356 Y132.232 E6.85484
G1 X140.247 Y132.435 E6.86633
G1 X140.129 Y132.633 E6.87783
G1 X140.054 Y132.745 E6.88456
G1 X139.863 Y133.009 E6.90081
G1 X139.784 Y133.109 E6.90717
G1 X139.556 Y133.364 E6.92424
G1 X139.437 Y133.486 E6.93274
G1 X139.258 Y133.654 E6.94499
G1 X138.999 Y133.87 E6.96181
G1 X138.895 Y133.948 E6.9683
G1 X138.765 Y134.039 E6.97622
G1 X138.621 Y134.133 E6.9848
G1 X138.346 Y134.295 E7.00072
G1 X138.206 Y134.367 E7.00857
G1 X137.965 Y134.481 E7.02187
G1 X137.7 Y134.59 E7.03617
G1 X137.555 Y134.64 E7.04382
G1 X137.331 Y134.708 E7.0555
G1 X137.049 Y134.78 E7.07002
G1 X136.904 Y134.808 E7.07739
G1 X136.619 Y134.851 E7.09177
G1 X136.438 Y134.871 E7.10085
G1 X136.255 Y134.884 E7.11001
G1 X136.051 Y134.89 E7.12019
G1 X135.732 Y134.882 E7.13611
G1 X135.512 Y134.867 E7.14711
G1 X135.355 Y134.849 E7.15499
G1 X135.068 Y134.805 E7.16948
G1 X134.402 Y134.745 E7.20284
G1 X133.719 Y134.77 E7.23694
G1 X133.045 Y134.881 E7.27102
G1 X132.392 Y135.077 E7.30503
G1 X131.766 Y135.352 E7.33914
G1 X131.181 Y135.706 E7.37326
G1 X130.647 Y136.129 E7.40724
G1 X130.245 Y136.538 E7.43586
G1 X130.235 Y136.528 E7.43656
G1 X129.707 Y137.196 E7.47904
G1 X129.617 Y137.297 E7.48579
G1 X129.423 Y137.498 E7.49973
G1 X129.333 Y137.584 E7.50594
G1 X129.104 Y137.785 E7.52114
G1 X128.791 Y138.023 E7.54076
G1 X128.654 Y138.113 E7.54893
G1 X128.346 Y138.294 E7.56676
G1 X128.15 Y138.395 E7.57776
G1 X127.942 Y138.494 E7.58925
G1 X127.356 Y138.82 E7.62271
G1 X126.807 Y139.225 E7.65674
G1 X126.312 Y139.695 E7.6908
G1 X125.881 Y140.224 E7.72484
G1 X125.519 Y140.804 E7.75895
G1 X125.235 Y141.424 E7.79297
G1 X125.03 Y142.076 E7.82707
G1 X124.91 Y142.748 E7.86113
G1 X124.875 Y143.423 E7.89485
G1 X124.892 Y143.854 E7.91637
G1 X124.894 Y144.077 E7.92749
G1 X124.882 Y144.37 E7.94212
G1 X124.864 Y144.543 E7.9508
G1 X124.83 Y144.789 E7.96319
G1 X124.801 Y144.953 E7.9715
G1 X124.762 Y145.132 E7.98064
G1 X124.721 Y145.293 E7.98893
G1 X124.654 Y145.518 E8.00064
G1 X124.543 Y145.827 E8.01702
G1 X124.492 Y145.946 E8.02348
G1 X124.393 Y146.158 E8.03515
G1 X124.245 Y146.437 E8.05091
G1 X124.152 Y146.592 E8.05993
G1 X123.909 Y146.948 E8.08143
G1 X123.822 Y147.059 E8.08847
G1 X123.626 Y147.291 E8.10362
G1 X123.523 Y147.399 E8.11107
G1 X123.378 Y147.541 E8.12119
G1 X123.106 Y147.783 E8.13935
G1 X122.982 Y147.881 E8.14724
G1 X122.829 Y147.993 E8.1567
G1 X122.651 Y148.112 E8.16738
G1 X122.374 Y148.279 E8.18352
G1 X122.215 Y148.362 E8.19247
G1 X122.002 Y148.465 E8.20427
G1 X121.74 Y148.574 E8.21843
G1 X121.593 Y148.626 E8.22621
G1 X121.34 Y148.705 E8.23943
G1 X121.17 Y148.75 E8.2482
G1 X121 Y148.789 E8.25691
G1 X120.842 Y148.818 E8.26492
G1 X120.541 Y148.861 E8.28009
G1 X120.355 Y148.879 E8.28941
G1 X120.174 Y148.889 E8.29846
G1 X119.961 Y148.891 E8.30908
G1 X119.667 Y148.881 E8.32376
G1 X119.489 Y148.868 E8.33266
G1 X119.326 Y148.849 E8.34085
G1 X119.19 Y148.827 E8.34772
G1 X118.923 Y148.775 E8.3613
G1 X118.625 Y148.699 E8.37664
G1 X118.495 Y148.658 E8.38344
G1 X118.129 Y148.524 E8.40288
G1 X117.856 Y148.401 E8.41782
G1 X117.595 Y148.264 E8.43253
G1 X116.99 Y147.979 E8.46589
G1 X116.341 Y147.767 E8.49996
G1 X115.67 Y147.639 E8.53404
G1 X114.988 Y147.597 E8.56813
G1 X114.307 Y147.641 E8.60217
G1 X113.636 Y147.771 E8.63627
G1 X112.989 Y147.985 E8.67027
G1 X112.42 Y148.252 E8.70163
G1 X112.122 Y148.409 E8.71843
G1 X111.941 Y148.492 E8.72837
G1 X111.828 Y148.538 E8.73445
G1 X111.59 Y148.627 E8.74713
G1 X111.301 Y148.718 E8.76225
G1 X111.129 Y148.761 E8.77109
G1 X110.91 Y148.807 E8.78226
G1 X110.741 Y148.836 E8.79081
G1 X110.422 Y148.875 E8.80684
G1 X110.175 Y148.891 E8.81919
G1 X109.895 Y148.895 E8.83316
G1 X109.754 Y148.888 E8.84021
