;FLAVOR:Marlin
;TIME:12896
;Filament used: 3.94542m
;Layer height: 0.15
;MINX:82.589
;MINY:95.904
;MINZ:0.15
;MAXX:137.41
;MAXY:119.219
;MAXZ:25.1
;Generated with Cura_SteamEngine 4.6.1
M140 S70
M105
M190 S70
M104 S255
M105
M109 S255
M82 ;absolute extrusion mode
M201 X500.00 Y500.00 Z100.00 E5000.00 ;Setup machine max acceleration
M203 X500.00 Y500.00 Z10.00 E50.00 ;Setup machine max feedrate
M204 P500.00 R1000.00 T500.00 ;Setup Print/Retract/Travel acceleration
M205 X8.00 Y8.00 Z0.40 E5.00 ;Setup Jerk
M220 S100 ;Reset Feedrate
M221 S100 ;Reset Flowrate

G28 ;Home

G92 E0 ;Reset Extruder
G1 Z2.0 F3000 ;Move Z Axis up
G1 X10.1 Y20 Z0.28 F5000.0 ;Move to start position
G1 X10.1 Y200.0 Z0.28 F1500.0 E15 ;Draw the first line
G1 X10.4 Y200.0 Z0.28 F5000.0 ;Move to side a little
G1 X10.4 Y20 Z0.28 F1500.0 E30 ;Draw the second line
G92 E0 ;Reset Extruder
G1 Z2.0 F3000 ;Move Z Axis up

G92 E0
G92 E0
G1 F1500 E-3.5
;LAYER_COUNT:162
;LAYER:-6
M107
M204 S500
M205 X8 Y8
G0 F2400 X83.794 Y96.667 Z0.15
;TYPE:SUPPORT-INTERFACE
G1 F1500 E0
G1 F900 X84.15 Y96.433 E0.02125
G1 X84.535 Y96.262 E0.04227
G1 X84.891 Y96.166 E0.06067
G1 X84.991 Y96.147 E0.06574
G1 X85.324 Y96.111 E0.08246
G1 X85.48 Y96.107 E0.09024
G1 X98.481 Y96.106 E0.73886
G1 X98.7 Y96.115 E0.7498
G1 X98.844 Y96.127 E0.75701
G1 X99.253 Y96.198 E0.77772
G1 X99.905 Y96.376 E0.81144
G1 X100.582 Y96.471 E0.84554
G1 X101.264 Y96.479 E0.87957
G1 X101.939 Y96.402 E0.91346
G1 X102.403 Y96.297 E0.9372
G1 X102.896 Y96.163 E0.96269
G1 X102.979 Y96.148 E0.9669
G1 X103.324 Y96.11 E0.98421
G1 X103.48 Y96.106 E0.992
G1 X116.481 Y96.105 E1.64062
G1 X116.7 Y96.114 E1.65155
G1 X116.844 Y96.126 E1.65876
G1 X117.277 Y96.204 E1.68071
G1 X117.924 Y96.378 E1.71414
G1 X118.6 Y96.471 E1.74818
G1 X119.283 Y96.477 E1.78226
G1 X119.957 Y96.398 E1.81612
G1 X120.401 Y96.297 E1.83883
G1 X120.895 Y96.163 E1.86437
G1 X120.982 Y96.147 E1.86878
G1 X121.324 Y96.11 E1.88594
G1 X121.48 Y96.106 E1.89373
G1 X134.481 Y96.105 E2.54235
G1 X134.7 Y96.114 E2.55329
G1 X134.844 Y96.126 E2.5605
G1 X135.264 Y96.2 E2.58177
G1 X135.648 Y96.332 E2.60203
G1 X136.027 Y96.538 E2.62355
G1 X136.357 Y96.794 E2.64439
G1 X136.648 Y97.108 E2.66575
G1 X136.877 Y97.455 E2.68649
G1 X137.054 Y97.849 E2.70804
G1 X137.151 Y98.207 E2.72654
G1 X137.168 Y98.297 E2.73111
G1 X137.205 Y98.634 E2.74803
G1 X137.209 Y98.785 E2.75556
G1 X137.206 Y99.577 E2.79508
G1 X137.194 Y99.577 E2.79568
G1 X137.209 Y100.184 E2.82597
G1 X137.206 Y101.411 E2.88718
G1 X137.194 Y101.411 E2.88778
G1 X137.209 Y102.017 E2.91802
G1 X137.21 Y112.313 E3.43169
G1 X137.202 Y112.528 E3.44243
G1 X137.189 Y112.677 E3.44989
G1 X137.156 Y112.881 E3.4602
G1 X137.089 Y113.547 E3.49359
G1 X137.108 Y114.227 E3.52753
G1 X137.158 Y114.589 E3.54576
G1 X137.206 Y115.018 E3.5673
G1 X137.21 Y115.173 E3.57504
G1 X137.21 Y116.283 E3.63041
G1 X137.202 Y116.501 E3.6413
G1 X137.189 Y116.653 E3.64891
G1 X137.115 Y117.073 E3.67019
G1 X136.999 Y117.419 E3.68839
G1 X136.977 Y117.468 E3.69107
G1 X136.78 Y117.834 E3.71181
G1 X136.516 Y118.172 E3.73321
G1 X136.206 Y118.458 E3.75425
G1 X135.85 Y118.692 E3.7755
G1 X135.471 Y118.861 E3.79621
G1 X135.109 Y118.959 E3.81492
G1 X135.009 Y118.978 E3.81999
G1 X134.676 Y119.014 E3.8367
G1 X134.52 Y119.018 E3.84449
G1 X121.518 Y119.018 E4.49316
G1 X121.155 Y118.997 E4.5113
G1 X120.717 Y118.918 E4.53351
G1 X120.07 Y118.745 E4.56692
G1 X119.394 Y118.653 E4.60096
G1 X118.711 Y118.648 E4.63503
G1 X118.037 Y118.727 E4.66889
G1 X117.601 Y118.826 E4.69119
G1 X117.099 Y118.962 E4.71714
G1 X117.021 Y118.976 E4.7211
G1 X116.676 Y119.014 E4.73841
G1 X116.52 Y119.018 E4.7462
G1 X103.518 Y119.018 E5.39487
G1 X103.299 Y119.009 E5.40581
G1 X103.155 Y118.997 E5.41301
G1 X102.734 Y118.923 E5.43434
G1 X102.088 Y118.748 E5.46773
G1 X101.412 Y118.654 E5.50178
G1 X100.729 Y118.647 E5.53586
G1 X100.055 Y118.724 E5.5697
G1 X99.6 Y118.827 E5.59298
G1 X99.109 Y118.96 E5.61836
G1 X99.009 Y118.979 E5.62343
G1 X98.676 Y119.015 E5.64014
G1 X98.52 Y119.019 E5.64793
G1 X85.518 Y119.019 E6.2966
G1 X85.299 Y119.01 E6.30754
G1 X85.155 Y118.998 E6.31475
G1 X84.735 Y118.924 E6.33602
G1 X84.389 Y118.808 E6.35423
G1 X84.34 Y118.786 E6.35691
G1 X83.97 Y118.586 E6.37789
G1 X83.636 Y118.325 E6.39904
G1 X83.35 Y118.015 E6.42008
G1 X83.114 Y117.655 E6.44156
G1 X82.945 Y117.274 E6.46235
G1 X82.849 Y116.918 E6.48075
G1 X82.83 Y116.816 E6.48592
G1 X82.794 Y116.479 E6.50283
G1 X82.79 Y116.339 E6.50982
G1 X82.79 Y115.223 E6.5655
G1 X82.799 Y115 E6.57663
G1 X82.811 Y114.861 E6.58359
G1 X82.844 Y114.658 E6.59385
G1 X82.911 Y113.992 E6.62725
G1 X82.892 Y113.313 E6.66114
G1 X82.833 Y112.879 E6.68299
G1 X82.794 Y112.504 E6.7018
G1 X82.79 Y112.37 E6.70849
G1 X82.793 Y101.966 E7.22754
G1 X82.805 Y101.966 E7.22814
G1 X82.79 Y101.359 E7.25844
G1 X82.793 Y100.133 E7.3196
G1 X82.805 Y100.133 E7.3202
G1 X82.79 Y99.526 E7.35049
G1 X82.79 Y98.835 E7.38497
G1 X82.798 Y98.624 E7.3955
G1 X82.811 Y98.472 E7.40311
G1 X82.885 Y98.052 E7.42439
G1 X83.001 Y97.706 E7.4426
G1 X83.023 Y97.657 E7.44527
G1 X83.223 Y97.287 E7.46626
G1 X83.484 Y96.953 E7.48741
G1 X83.794 Y96.667 E7.50845
G0 F2400 X85 Y96.146
G1 F900 X85 Y118.97 E8.64714
G0 F2400 X87.5 Y119.019
G1 F900 X87.5 Y96.106 E9.79028
G0 F2400 X90 Y96.106
G1 F900 X90 Y119.019 E10.93341
G0 F2400 X92.5 Y119.019
G1 F900 X92.5 Y96.106 E12.07655
G0 F2400 X95 Y96.106
G1 F900 X95 Y119.019 E13.21968
G0 F2400 X97.5 Y119.019
G1 F900 X97.5 Y96.106 E14.36281
G0 F2400 X100 Y96.39
G1 F900 X100 Y118.737 E15.47771
G0 F2400 X102.5 Y118.859
G1 F900 X102.5 Y96.27 E16.60468
G0 F2400 X105 Y96.105
G1 F900 X105 Y119.018 E17.74781
G0 F2400 X107.5 Y119.018
G1 F900 X107.5 Y96.105 E18.89095
G0 F2400 X110 Y96.105
G1 F900 X110 Y119.018 E20.03408
G0 F2400 X112.5 Y119.018
G1 F900 X112.5 Y96.105 E21.17722
G0 F2400 X115 Y96.105
G1 F900 X115 Y119.018 E22.32035
G0 F2400 X117.5 Y118.854
G1 F900 X117.5 Y96.264 E23.44737
G0 F2400 X120 Y96.388
G1 F900 X120 Y118.735 E24.56227
G0 F2400 X122.5 Y119.018
G1 F900 X122.5 Y96.105 E25.7054
G0 F2400 X125 Y96.105
G1 F900 X125 Y119.018 E26.84854
G0 F2400 X127.5 Y119.018
G1 F900 X127.5 Y96.105 E27.99167
G0 F2400 X130 Y96.105
G1 F900 X130 Y119.018 E29.1348
G0 F2400 X132.5 Y119.018
G1 F900 X132.5 Y96.105 E30.27794
G0 F2400 X135 Y96.154
G1 F900 X135 Y118.979 E31.41668
G0 F300 X135 Y118.979 Z0.375
G0 F2400 X121.517 Y119.018
;TIME_ELAPSED:50.934913
;LAYER:-5
M140 S70
;WIPE_SCRIPT_BEGIN
G1 F1800 E27.41668
G1 F300 Z0.575
G0 F2400 X100 Y119.018 Z0.575
G0 X120 Y119.018
G0 X100 Y119.018
G0 X120 Y119.018
G0 X100 Y119.018
G0 X120 Y119.018
G0 X121.517 Y119.018
G1 F300 Z0.375
G1 F1800 E31.41668
;WIPE_SCRIPT_END
;TYPE:SUPPORT
G1 F1500 X123.26 Y119.018 E31.54712
G1 X100.716 Y96.473 E33.93307
G1 X101.263 Y96.479 E33.97401
G1 X101.938 Y96.401 E34.02486
G1 X102.402 Y96.297 E34.06045
G1 X102.606 Y96.242 E34.07626
G1 X125.382 Y119.018 E36.48671
G1 X127.503 Y119.018 E36.64544
G1 X104.59 Y96.105 E39.07039
G1 X106.712 Y96.105 E39.22919
G1 X129.624 Y119.018 E41.65409
G1 X131.746 Y119.018 E41.81289
G1 X108.833 Y96.105 E44.23785
G1 X110.954 Y96.105 E44.39657
G1 X133.867 Y119.018 E46.82153
G1 X134.519 Y119.018 E46.87032
G1 X134.674 Y119.013 E46.88193
G1 X135.007 Y118.977 E46.90699
G1 X135.108 Y118.959 E46.91467
G1 X135.47 Y118.86 E46.94275
G1 X135.719 Y118.749 E46.96316
G1 X113.076 Y96.105 E49.35959
G1 X115.197 Y96.105 E49.51831
G1 X136.83 Y117.738 E51.8078
G1 X136.975 Y117.468 E51.83074
G1 X136.998 Y117.418 E51.83485
G1 X137.114 Y117.073 E51.86209
G1 X137.188 Y116.652 E51.89408
G1 X137.201 Y116.501 E51.90542
G1 X137.209 Y116.283 E51.92175
G1 X137.209 Y115.995 E51.9433
G1 X117.469 Y96.256 E54.03239
G1 X117.923 Y96.377 E54.06755
G1 X118.599 Y96.471 E54.11863
G1 X119.282 Y96.476 E54.16974
G1 X119.756 Y96.421 E54.20545
G1 X137.094 Y113.76 E56.04044
G1 X137.088 Y113.547 E56.05639
G1 X137.155 Y112.88 E56.10655
G1 X137.187 Y112.676 E56.12201
G1 X137.201 Y112.527 E56.13321
G1 X137.209 Y112.313 E56.14923
G1 X137.209 Y111.753 E56.19114
G1 X121.561 Y96.105 E57.84722
G1 X123.682 Y96.105 E58.00594
G1 X137.209 Y109.631 E59.43749
G1 X137.209 Y107.51 E59.59622
G1 X125.804 Y96.105 E60.80325
G1 X127.925 Y96.105 E60.96197
G1 X137.209 Y105.389 E61.94453
G1 X137.209 Y103.267 E62.10333
G1 X130.046 Y96.105 E62.86136
G1 X132.168 Y96.105 E63.02016
G1 X137.206 Y101.143 E63.55334
G1 X137.208 Y100.184 E63.62511
G1 X137.193 Y99.576 E63.67062
G1 X137.204 Y99.576 E63.67145
G1 X137.206 Y99.023 E63.71283
G1 X134.289 Y96.105 E64.0216
G1 X134.479 Y96.105 E64.03582
G1 X134.699 Y96.114 E64.0523
G1 X134.843 Y96.126 E64.06311
G1 X135.263 Y96.199 E64.09501
G1 X135.647 Y96.331 E64.1254
G1 X136.026 Y96.538 E64.15772
G1 X136.356 Y96.793 E64.18893
G1 X136.647 Y97.107 E64.22096
G1 X136.876 Y97.454 E64.25208
G1 X137.053 Y97.848 E64.2844
G1 X137.15 Y98.207 E64.31223
G1 X137.166 Y98.297 E64.31907
G1 X137.204 Y98.634 E64.34445
G1 X137.207 Y98.784 E64.35568
G0 F2400 X121.517 Y119.018
G1 F1500 X121.154 Y118.997 E64.38289
G1 X121.11 Y118.989 E64.38623
G1 X98.227 Y96.106 E66.80801
G1 X96.106 Y96.106 E66.96674
G1 X118.654 Y118.654 E69.35306
G1 X118.037 Y118.726 E69.39955
G1 X117.601 Y118.825 E69.43301
G1 X117.099 Y118.961 E69.47193
G1 X117.021 Y118.975 E69.47786
G1 X116.87 Y118.991 E69.48922
G1 X93.985 Y96.106 E71.91122
G1 X91.863 Y96.106 E72.07002
G1 X114.774 Y119.017 E74.49476
G1 X112.653 Y119.017 E74.65348
G1 X89.742 Y96.106 E77.07823
G1 X87.621 Y96.106 E77.23695
G1 X110.532 Y119.017 E79.66169
G1 X108.41 Y119.017 E79.82049
G1 X85.499 Y96.106 E82.24524
G1 X85.48 Y96.106 E82.24666
G1 X85.323 Y96.109 E82.25841
G1 X84.99 Y96.146 E82.28348
G1 X84.89 Y96.165 E82.2911
G1 X84.534 Y96.261 E82.31869
G1 X84.149 Y96.432 E82.35022
G1 X83.881 Y96.609 E82.37425
G1 X106.289 Y119.017 E84.74576
G1 X104.168 Y119.017 E84.90449
G1 X82.964 Y97.813 E87.14857
G1 X82.884 Y98.05 E87.16729
G1 X82.811 Y98.47 E87.19919
G1 X82.797 Y98.623 E87.21069
G1 X82.79 Y98.834 E87.22649
G1 X82.789 Y99.525 E87.2782
G1 X82.795 Y99.765 E87.29617
G1 X101.725 Y118.696 E89.29964
G1 X101.412 Y118.653 E89.32329
G1 X100.729 Y118.646 E89.3744
G1 X100.055 Y118.723 E89.42517
G1 X99.709 Y118.801 E89.45171
G1 X82.802 Y101.894 E91.24103
G1 X82.805 Y101.964 E91.24627
G1 X82.793 Y101.965 E91.24717
G1 X82.792 Y104.005 E91.39984
G1 X97.804 Y119.018 E92.98866
G1 X95.683 Y119.018 E93.14738
G1 X82.791 Y106.126 E94.51178
G1 X82.79 Y108.246 E94.67044
G1 X93.562 Y119.018 E95.81047
G1 X91.44 Y119.018 E95.96927
G1 X82.789 Y110.366 E96.88489
G1 X82.789 Y112.369 E97.03478
G1 X82.793 Y112.491 E97.04392
G1 X89.319 Y119.018 E97.73463
G1 X87.198 Y119.018 E97.89336
G1 X82.843 Y114.663 E98.35426
G1 X82.811 Y114.86 E98.3692
G1 X82.799 Y114.999 E98.37964
G1 X82.79 Y115.222 E98.39634
G1 X82.79 Y116.338 E98.47986
G1 X82.794 Y116.478 E98.49034
G1 X82.824 Y116.765 E98.51193
G1 X85.034 Y118.975 E98.74583
G1 X84.734 Y118.923 E98.76861
G1 X84.388 Y118.806 E98.79594
G1 X84.339 Y118.785 E98.79993
G1 X83.969 Y118.585 E98.83141
G1 X83.635 Y118.323 E98.86318
G1 X83.35 Y118.014 E98.89463
G1 X83.114 Y117.654 E98.92685
G1 X82.945 Y117.273 E98.95804
G1 X82.848 Y116.917 E98.98565
G1 X82.83 Y116.815 E98.9934
G0 F300 X82.83 Y116.815 Z0.525
G0 F2400 X85.281 Y119.21
;TIME_ELAPSED:93.586573
;LAYER:-4
;WIPE_SCRIPT_BEGIN
G1 F1800 E94.9934
G1 F300 Z0.725
G0 F2400 X100 Y119.21 Z0.725
G0 X120 Y119.21
G0 X100 Y119.21
G0 X120 Y119.21
G0 X100 Y119.21
G0 X120 Y119.21
G0 X85.281 Y119.21
G1 F300 Z0.525
G1 F1800 E98.9934
;WIPE_SCRIPT_END
;TYPE:SUPPORT-INTERFACE
G1 F1200 X85.509 Y119.219 E98.9991
G1 X98.524 Y119.219 E99.32376
G1 X98.723 Y119.212 E99.32872
G1 X98.828 Y119.2 E99.33136
G1 X85.154 Y119.2 E99.67246
G1 X85.129 Y119.198 E99.67308
G1 X84.751 Y119.135 E99.68264
G1 X84.685 Y119.118 E99.68434
G1 X84.259 Y118.97 E99.69559
G1 X83.941 Y118.8 E99.70459
G1 X136.054 Y118.8 E101.00455
G1 X136.322 Y118.62 E101.01261
G1 X136.369 Y118.583 E101.0141
G1 X136.563 Y118.4 E101.02075
G1 X83.432 Y118.4 E102.34611
G1 X83.224 Y118.178 E102.3537
G1 X83.185 Y118.129 E102.35526
G1 X83.098 Y118 E102.35914
G1 X136.899 Y118 E103.70121
G1 X136.968 Y117.908 E103.70408
G1 X137.132 Y117.6 E103.71279
G1 X82.869 Y117.6 E105.06638
G1 X82.777 Y117.397 E105.07194
G1 X82.755 Y117.336 E105.07356
G1 X82.717 Y117.2 E105.07708
G1 X137.281 Y117.2 E106.43819
G1 X137.31 Y117.119 E106.44033
G1 X137.327 Y117.051 E106.44208
G1 X137.368 Y116.8 E106.44842
G1 X82.627 Y116.8 E107.81394
G1 X82.596 Y116.528 E107.82077
G1 X82.591 Y116.4 E107.82397
G1 X137.405 Y116.4 E109.19131
G1 X137.41 Y116.289 E109.19408
G1 X137.41 Y116 E109.20129
G1 X82.59 Y116 E110.56878
G1 X82.59 Y115.6 E110.57876
G1 X137.41 Y115.6 E111.94625
G1 X137.41 Y115.2 E111.95623
G1 X82.591 Y115.2 E113.32369
G1 X82.6 Y114.974 E113.32933
G1 X82.612 Y114.83 E113.33294
G1 X82.617 Y114.8 E113.3337
G1 X137.384 Y114.8 E114.69987
G1 X137.356 Y114.565 E114.70577
G1 X137.334 Y114.4 E114.70992
G1 X82.669 Y114.4 E116.07355
G1 X82.709 Y114 E116.08357
G1 X137.302 Y114 E117.4454
G1 X137.292 Y113.6 E117.45538
G1 X82.7 Y113.6 E118.81719
G1 X82.693 Y113.329 E118.82395
G1 X82.675 Y113.2 E118.8272
G1 X137.325 Y113.2 E120.19045
G1 X137.355 Y112.906 E120.19782
G1 X137.372 Y112.8 E120.2005
G1 X82.624 Y112.8 E121.56619
G1 X82.594 Y112.513 E121.57339
G1 X82.59 Y112.4 E121.57621
G1 X137.406 Y112.4 E122.9436
G1 X137.41 Y112.319 E122.94562
G1 X137.41 Y112 E122.95358
G1 X82.59 Y112 E124.32107
G1 X82.59 Y111.6 E124.33105
G1 X137.41 Y111.6 E125.69854
G1 X137.41 Y111.2 E125.70852
G1 X82.59 Y111.2 E127.07601
G1 X82.59 Y110.8 E127.08599
G1 X137.41 Y110.8 E128.45348
G1 X137.41 Y110.4 E128.46346
G1 X82.59 Y110.4 E129.83095
G1 X82.59 Y110 E129.84092
G1 X137.41 Y110 E131.20841
G1 X137.41 Y109.6 E131.21839
G1 X82.59 Y109.6 E132.58588
G1 X82.59 Y109.2 E132.59586
G1 X137.41 Y109.2 E133.96335
G1 X137.41 Y108.8 E133.97333
G1 X82.59 Y108.8 E135.34082
G1 X82.59 Y108.4 E135.3508
G1 X137.41 Y108.4 E136.71829
G1 X137.41 Y108 E136.72827
G1 X82.59 Y108 E138.09576
G1 X82.59 Y107.6 E138.10573
G1 X137.41 Y107.6 E139.47323
G1 X137.41 Y107.2 E139.4832
G1 X82.59 Y107.2 E140.85069
G1 X82.59 Y106.8 E140.86067
G1 X137.41 Y106.8 E142.22816
G1 X137.41 Y106.4 E142.23814
G1 X82.59 Y106.4 E143.60563
G1 X82.59 Y106 E143.61561
G1 X137.41 Y106 E144.9831
G1 X137.41 Y105.6 E144.99308
G1 X82.59 Y105.6 E146.36057
G1 X82.59 Y105.2 E146.37055
G1 X137.41 Y105.2 E147.73804
G1 X137.41 Y104.8 E147.74801
G1 X82.59 Y104.8 E149.1155
G1 X82.59 Y104.4 E149.12548
G1 X137.41 Y104.4 E150.49297
G1 X137.41 Y104 E150.50295
G1 X82.59 Y104 E151.87044
G1 X82.59 Y103.6 E151.88042
G1 X137.41 Y103.6 E153.24791
G1 X137.41 Y103.2 E153.25789
G1 X82.59 Y103.2 E154.62538
G1 X82.59 Y102.8 E154.63536
G1 X137.41 Y102.8 E156.00285
G1 X137.41 Y102.4 E156.01283
G1 X82.59 Y102.4 E157.38032
G1 X82.59 Y102 E157.39029
G1 X137.409 Y102 E158.75776
G1 X137.405 Y101.61 E158.76749
G1 X137.405 Y101.6 E158.76774
G1 X82.59 Y101.6 E160.1351
G1 X82.59 Y101.2 E160.14508
G1 X137.406 Y101.2 E161.51247
G1 X137.407 Y100.8 E161.52245
G1 X82.59 Y100.8 E162.88987
G1 X82.59 Y100.4 E162.89984
G1 X137.408 Y100.4 E164.26728
G1 X137.409 Y100.183 E164.2727
G1 X137.408 Y100 E164.27726
G1 X82.59 Y100 E165.6447
G1 X82.59 Y99.6 E165.65468
G1 X137.405 Y99.6 E167.02205
G1 X137.407 Y99.2 E167.03203
G1 X82.59 Y99.2 E168.39944
G1 X82.59 Y98.827 E168.40875
G1 X82.592 Y98.8 E168.40942
G1 X137.408 Y98.8 E169.77681
G1 X137.409 Y98.784 E169.77721
G1 X137.402 Y98.585 E169.78218
G1 X137.381 Y98.4 E169.78682
G1 X82.619 Y98.4 E171.15287
G1 X82.673 Y98.073 E171.16113
G1 X82.69 Y98.005 E171.16288
G1 X82.692 Y98 E171.16302
G1 X137.303 Y98 E172.52529
G1 X137.248 Y97.798 E172.53052
G1 X137.223 Y97.73 E172.53232
G1 X137.163 Y97.6 E172.53589
G1 X82.832 Y97.6 E173.89119
G1 X82.838 Y97.58 E173.89171
G1 X83.033 Y97.213 E173.90207
G1 X83.043 Y97.2 E173.90248
G1 X136.951 Y97.2 E175.24722
G1 X136.785 Y96.958 E175.25455
G1 X136.637 Y96.8 E175.25995
G1 X83.356 Y96.8 E176.58905
G1 X83.631 Y96.541 E176.59847
G1 X83.68 Y96.502 E176.60003
G1 X83.833 Y96.4 E176.60462
G1 X136.173 Y96.4 E177.91024
G1 X136.098 Y96.344 E177.91258
G1 X135.742 Y96.154 E177.92265
G1 X135.313 Y96.005 E177.93397
G1 X135.294 Y96 E177.93446
G1 X120.729 Y96 E178.29779
G1 X120.843 Y95.969 E178.30074
