;FLAVOR:Marlin
;TIME:7639
;Filament used: 2.58143m
;Layer height: 0.15
;MINX:77.896
;MINY:68.697
;MINZ:0.15
;MAXX:140.675
;MAXY:143.424
;MAXZ:3.35
;Generated with Cura_SteamEngine 4.6.1
M140 S70
M105
M190 S70
M104 S255
M105
M109 S255
M82 ;absolute extrusion mode
M201 X500.00 Y500.00 Z100.00 E5000.00 ;Setup machine max acceleration
M203 X500.00 Y500.00 Z10.00 E50.00 ;Setup machine max feedrate
M204 P500.00 R1000.00 T500.00 ;Setup Print/Retract/Travel acceleration
M205 X8.00 Y8.00 Z0.40 E5.00 ;Setup Jerk
M220 S100 ;Reset Feedrate
M221 S100 ;Reset Flowrate

G28 ;Home

G92 E0 ;Reset Extruder
G1 Z2.0 F3000 ;Move Z Axis up
G1 X10.1 Y20 Z0.28 F5000.0 ;Move to start position
G1 X10.1 Y200.0 Z0.28 F1500.0 E15 ;Draw the first line
G1 X10.4 Y200.0 Z0.28 F5000.0 ;Move to side a little
G1 X10.4 Y20 Z0.28 F1500.0 E30 ;Draw the second line
G92 E0 ;Reset Extruder
G1 Z2.0 F3000 ;Move Z Axis up

G92 E0
G92 E0
G1 F1500 E-3.5
;LAYER_COUNT:16
;LAYER:-6
M107
M204 S500
M205 X8 Y8
G0 F2400 X84.231 Y74.817 Z0.15
;TYPE:SUPPORT-INTERFACE
G1 F1500 E0
G1 F900 X84.507 Y74.526 E0.02001
G1 X84.61 Y74.426 E0.02717
G1 X84.784 Y74.266 E0.03896
G1 X84.893 Y74.174 E0.04608
G1 X85.2 Y73.929 E0.06568
G1 X85.333 Y73.83 E0.07395
G1 X85.498 Y73.715 E0.08398
G1 X85.613 Y73.641 E0.09081
G1 X86.004 Y73.409 E0.11349
G1 X86.337 Y73.243 E0.13205
G1 X86.691 Y73.089 E0.15131
G1 X86.842 Y73.029 E0.15942
G1 X87.032 Y72.959 E0.16952
G1 X87.189 Y72.909 E0.17774
G1 X87.474 Y72.826 E0.19255
G1 X87.609 Y72.792 E0.19949
G1 X87.833 Y72.743 E0.21093
G1 X87.99 Y72.714 E0.2189
G1 X88.511 Y72.641 E0.24515
G1 X88.858 Y72.615 E0.26251
G1 X89.172 Y72.608 E0.27818
G1 X89.332 Y72.61 E0.28616
G1 X89.546 Y72.62 E0.29685
G1 X89.727 Y72.634 E0.3059
G1 X90.061 Y72.672 E0.32267
G1 X90.259 Y72.701 E0.33266
G1 X90.438 Y72.733 E0.34173
G1 X91.187 Y72.904 E0.38006
G1 X91.187 Y72.882 E0.38116
G1 X91.312 Y72.905 E0.3875
G1 X91.994 Y72.944 E0.42158
G1 X92.674 Y72.896 E0.45559
G1 X93.349 Y72.764 E0.4899
G1 X93.616 Y72.667 E0.50408
G1 X93.625 Y72.692 E0.5054
G1 X94.406 Y72.379 E0.54738
G1 X99.184 Y70.769 E0.79892
G1 X99.808 Y70.514 E0.83255
G1 X100.539 Y70.083 E0.87489
G1 X100.744 Y69.939 E0.88739
G1 X100.931 Y69.819 E0.89847
G1 X101.142 Y69.694 E0.91071
G1 X101.303 Y69.608 E0.91982
G1 X101.623 Y69.452 E0.93758
G1 X101.773 Y69.386 E0.94575
G1 X102.041 Y69.282 E0.96009
G1 X102.23 Y69.217 E0.97007
G1 X102.609 Y69.104 E0.9898
G1 X102.8 Y69.057 E0.99961
G1 X103.054 Y69.004 E1.01255
G1 X103.244 Y68.973 E1.02216
G1 X103.594 Y68.929 E1.03976
G1 X103.966 Y68.902 E1.05837
G1 X104.139 Y68.898 E1.067
G1 X104.395 Y68.901 E1.07977
G1 X104.541 Y68.908 E1.08706
G1 X104.928 Y68.945 E1.10646
G1 X105.312 Y69.006 E1.12586
G1 X105.497 Y69.042 E1.13526
G1 X105.701 Y69.09 E1.14572
G1 X105.894 Y69.143 E1.1557
G1 X106.163 Y69.227 E1.16976
G1 X106.323 Y69.283 E1.17822
G1 X106.558 Y69.376 E1.19083
G1 X106.779 Y69.476 E1.20293
G1 X107.4 Y69.727 E1.23635
G1 X108.061 Y69.901 E1.27045
G1 X108.737 Y69.99 E1.30446
G1 X109.419 Y69.993 E1.33849
G1 X110.098 Y69.911 E1.37261
G1 X110.755 Y69.744 E1.40643
G1 X111.146 Y69.601 E1.4272
G1 X111.546 Y69.437 E1.44877
G1 X111.709 Y69.378 E1.45742
G1 X111.967 Y69.295 E1.47094
G1 X112.145 Y69.245 E1.48016
G1 X112.448 Y69.174 E1.49569
G1 X112.657 Y69.133 E1.50632
G1 X112.929 Y69.092 E1.52004
G1 X113.118 Y69.071 E1.52953
G1 X113.504 Y69.044 E1.54883
G1 X113.705 Y69.038 E1.55886
G1 X113.955 Y69.041 E1.57134
G1 X114.128 Y69.05 E1.57998
G1 X114.432 Y69.076 E1.5952
G1 X114.602 Y69.097 E1.60375
G1 X114.995 Y69.167 E1.62366
G1 X115.35 Y69.253 E1.64189
G1 X115.542 Y69.308 E1.65185
G1 X115.773 Y69.383 E1.66397
G1 X115.951 Y69.449 E1.67344
G1 X116.259 Y69.577 E1.69008
G1 X116.421 Y69.652 E1.69899
G1 X116.798 Y69.849 E1.72021
G1 X117.551 Y70.311 E1.76428
G1 X117.559 Y70.297 E1.76509
G1 X117.664 Y70.358 E1.77114
G1 X118.538 Y70.699 E1.81795
G1 X123.747 Y72.21 E2.08854
G1 X124.407 Y72.331 E2.12202
G1 X125.088 Y72.369 E2.15604
G1 X125.768 Y72.32 E2.19006
G1 X126.363 Y72.205 E2.22029
G1 X126.791 Y72.085 E2.24247
G1 X127.02 Y72.027 E2.25425
G1 X127.174 Y71.994 E2.26211
G1 X127.702 Y71.904 E2.28883
G1 X127.903 Y71.881 E2.29893
G1 X128.062 Y71.868 E2.30689
G1 X128.369 Y71.852 E2.32222
G1 X128.511 Y71.85 E2.32931
G1 X128.881 Y71.861 E2.34778
G1 X129.406 Y71.909 E2.37408
G1 X129.811 Y71.977 E2.39457
G1 X130.163 Y72.057 E2.41258
G1 X130.323 Y72.099 E2.42083
G1 X130.654 Y72.201 E2.43811
G1 X131.091 Y72.368 E2.46145
G1 X131.297 Y72.459 E2.47268
G1 X131.424 Y72.521 E2.47973
G1 X131.749 Y72.691 E2.49803
G1 X131.882 Y72.767 E2.50567
G1 X132.098 Y72.901 E2.51836
G1 X132.22 Y72.983 E2.52569
G1 X132.527 Y73.204 E2.54456
G1 X132.667 Y73.311 E2.55335
G1 X132.92 Y73.526 E2.56992
G1 X133.127 Y73.72 E2.58407
G1 X133.394 Y73.994 E2.60316
G1 X133.51 Y74.126 E2.61193
G1 X133.732 Y74.397 E2.6294
G1 X133.845 Y74.546 E2.63873
G1 X134.049 Y74.838 E2.6565
G1 X134.321 Y75.283 E2.68252
G1 X139.72 Y84.176 E3.20156
G1 X139.81 Y84.338 E3.21081
G1 X139.881 Y84.48 E3.21873
G1 X140.039 Y84.881 E3.24023
G1 X140.12 Y85.245 E3.25883
G1 X140.133 Y85.34 E3.26362
G1 X140.155 Y85.69 E3.28111
G1 X140.153 Y85.777 E3.28546
G1 X139.696 Y96.067 E3.79933
G1 X139.72 Y96.845 E3.83816
G1 X139.746 Y97.095 E3.8507
G1 X139.76 Y97.278 E3.85986
G1 X139.777 Y97.803 E3.88607
G1 X139.773 Y98.006 E3.8962
G1 X139.764 Y98.177 E3.90474
G1 X139.727 Y98.556 E3.92374
G1 X139.683 Y98.847 E3.93842
G1 X139.594 Y99.283 E3.96062
G1 X139.503 Y99.618 E3.97794
G1 X139.378 Y99.995 E3.99776
G1 X139.258 Y100.296 E4.01392
G1 X139.099 Y100.642 E4.03292
G1 X139.014 Y100.81 E4.04231
G1 X138.829 Y101.135 E4.06097
G1 X138.535 Y101.582 E4.08766
G1 X138.393 Y101.772 E4.0995
G1 X138.293 Y101.896 E4.10744
G1 X137.746 Y102.529 E4.14918
G1 X137.755 Y102.538 E4.14982
G1 X137.603 Y102.724 E4.1618
G1 X137.243 Y103.305 E4.1959
G1 X136.959 Y103.926 E4.22997
G1 X136.756 Y104.578 E4.26404
G1 X136.636 Y105.25 E4.29809
G1 X136.601 Y105.931 E4.33211
G1 X136.654 Y106.613 E4.36624
G1 X136.792 Y107.282 E4.40032
G1 X137.014 Y107.928 E4.4344
G1 X137.315 Y108.542 E4.46852
G1 X137.767 Y109.209 E4.50871
G1 X137.905 Y109.389 E4.52003
G1 X138.039 Y109.584 E4.53183
G1 X138.14 Y109.743 E4.54123
G1 X138.306 Y110.023 E4.55747
G1 X138.401 Y110.2 E4.56749
G1 X138.503 Y110.406 E4.57896
G1 X138.571 Y110.557 E4.58722
G1 X138.734 Y110.959 E4.60886
G1 X138.794 Y111.124 E4.61762
G1 X138.862 Y111.338 E4.62883
G1 X138.917 Y111.537 E4.63913
G1 X139.028 Y112.018 E4.66375
G1 X139.064 Y112.221 E4.67404
G1 X139.087 Y112.387 E4.6824
G1 X139.131 Y112.85 E4.7056
G1 X139.14 Y113.2 E4.72307
G1 X139.132 Y113.581 E4.74208
G1 X139.171 Y114.347 E4.78035
G1 X140.466 Y124.666 E5.2992
G1 X140.474 Y124.86 E5.30889
G1 X140.461 Y125.226 E5.32716
G1 X140.454 Y125.28 E5.32988
G1 X140.379 Y125.646 E5.34852
G1 X140.357 Y125.723 E5.35251
G1 X140.235 Y126.052 E5.37002
G1 X140.187 Y126.155 E5.37569
G1 X135.257 Y135.978 E5.92402
G1 X135.18 Y136.119 E5.93203
G1 X134.976 Y136.452 E5.95152
G1 X134.713 Y136.825 E5.97429
G1 X134.594 Y136.976 E5.98388
G1 X134.465 Y137.129 E5.99386
G1 X134.231 Y137.388 E6.01128
G1 X134.126 Y137.496 E6.01879
G1 X133.863 Y137.745 E6.03686
G1 X133.628 Y137.944 E6.05222
G1 X133.489 Y138.054 E6.06107
G1 X133.195 Y138.265 E6.07912
G1 X132.809 Y138.51 E6.10193
G1 X132.667 Y138.593 E6.11014
G1 X132.475 Y138.698 E6.12106
G1 X132.31 Y138.78 E6.13025
G1 X131.906 Y138.956 E6.15223
G1 X131.714 Y139.029 E6.16248
G1 X131.577 Y139.075 E6.16969
G1 X131.062 Y139.228 E6.19649
G1 X130.834 Y139.28 E6.20816
G1 X130.652 Y139.315 E6.21741
G1 X130.323 Y139.366 E6.23402
G1 X130.129 Y139.39 E6.24377
G1 X129.775 Y139.416 E6.26148
G1 X129.388 Y139.424 E6.28079
G1 X129.236 Y139.421 E6.28837
G1 X128.861 Y139.396 E6.30713
G1 X128.321 Y139.324 E6.3343
G1 X128.083 Y139.278 E6.3464
G1 X127.931 Y139.242 E6.35419
G1 X127.269 Y139.133 E6.38766
G1 X126.586 Y139.108 E6.42176
G1 X125.907 Y139.169 E6.45577
G1 X125.236 Y139.315 E6.49003
G1 X125.034 Y139.391 E6.5008
G1 X125.026 Y139.371 E6.50187
G1 X124.276 Y139.678 E6.54231
G1 X119.5 Y141.321 E6.79429
G1 X118.88 Y141.579 E6.82779
G1 X118.176 Y141.996 E6.86861
G1 X117.904 Y142.185 E6.88514
G1 X117.76 Y142.277 E6.89366
G1 X117.476 Y142.445 E6.91012
G1 X117.278 Y142.551 E6.92133
G1 X117.05 Y142.662 E6.93398
G1 X116.905 Y142.725 E6.94187
G1 X116.547 Y142.865 E6.96104
G1 X116.404 Y142.915 E6.9686
G1 X116.145 Y142.995 E6.98213
G1 X116.013 Y143.03 E6.98894
G1 X115.727 Y143.095 E7.00357
G1 X115.541 Y143.131 E7.01302
G1 X115.281 Y143.17 E7.02614
G1 X115.105 Y143.189 E7.03497
G1 X114.697 Y143.218 E7.05538
G1 X114.514 Y143.224 E7.06451
G1 X114.216 Y143.219 E7.07938
G1 X114.059 Y143.211 E7.08723
G1 X113.704 Y143.176 E7.10502
G1 X113.519 Y143.151 E7.11434
G1 X113.275 Y143.107 E7.12671
G1 X113.073 Y143.063 E7.13702
G1 X112.724 Y142.973 E7.155
G1 X112.591 Y142.933 E7.16193
G1 X112.354 Y142.852 E7.17443
G1 X112.176 Y142.784 E7.18393
G1 X111.816 Y142.631 E7.20345
G1 X111.25 Y142.41 E7.23376
G1 X110.588 Y142.243 E7.26782
G1 X109.91 Y142.161 E7.3019
G1 X109.227 Y142.165 E7.33597
G1 X108.551 Y142.256 E7.37
G1 X107.893 Y142.43 E7.40396
G1 X107.172 Y142.718 E7.44269
G1 X106.688 Y142.886 E7.46825
G1 X106.412 Y142.961 E7.48252
G1 X106.233 Y143.002 E7.49168
G1 X105.885 Y143.068 E7.50935
G1 X105.718 Y143.093 E7.51778
G1 X105.488 Y143.12 E7.52933
G1 X105.331 Y143.132 E7.53719
G1 X105.001 Y143.146 E7.55367
G1 X104.843 Y143.147 E7.56155
G1 X104.593 Y143.138 E7.57403
G1 X104.42 Y143.126 E7.58268
G1 X104.065 Y143.087 E7.6005
G1 X103.865 Y143.057 E7.61059
G1 X103.642 Y143.014 E7.62192
G1 X103.455 Y142.971 E7.63149
G1 X103.121 Y142.881 E7.64875
G1 X102.94 Y142.824 E7.65822
G1 X102.7 Y142.737 E7.67095
G1 X102.55 Y142.676 E7.67903
G1 X102.069 Y142.454 E7.70546
G1 X101.842 Y142.331 E7.71834
G1 X101.691 Y142.242 E7.72709
G1 X101.549 Y142.151 E7.7355
G1 X100.961 Y141.824 E7.76907
G1 X100.135 Y141.512 E7.81312
G1 X95.12 Y140.087 E8.07322
G1 X94.463 Y139.944 E8.10677
G1 X93.642 Y139.885 E8.14783
G1 X92.974 Y139.927 E8.18123
G1 X92.337 Y140.048 E8.21357
G1 X92.16 Y140.096 E8.22272
G1 X91.641 Y140.241 E8.24961
G1 X91.294 Y140.313 E8.26729
G1 X91.003 Y140.36 E8.28199
G1 X90.62 Y140.403 E8.30122
G1 X90.478 Y140.411 E8.30832
G1 X90.101 Y140.422 E8.32714
G1 X89.929 Y140.421 E8.33572
G1 X89.722 Y140.412 E8.34605
G1 X89.54 Y140.398 E8.35516
G1 X89.049 Y140.34 E8.37983
G1 X88.811 Y140.298 E8.39188
G1 X88.651 Y140.264 E8.40004
G1 X88.233 Y140.156 E8.42158
G1 X87.896 Y140.046 E8.43927
G1 X87.485 Y139.886 E8.46127
G1 X87.154 Y139.731 E8.47951
G1 X86.75 Y139.512 E8.50243
G1 X86.447 Y139.322 E8.52028
G1 X86.196 Y139.147 E8.53554
G1 X86.08 Y139.06 E8.54278
G1 X85.831 Y138.858 E8.55877
G1 X85.591 Y138.644 E8.57482
G1 X85.464 Y138.521 E8.58364
G1 X85.218 Y138.263 E8.60142
G1 X84.767 Y137.719 E8.63668
G1 X84.628 Y137.514 E8.64903
G1 X84.322 Y137.024 E8.67785
G1 X78.868 Y128.161 E9.19705
G1 X78.777 Y127.999 E9.20632
G1 X78.701 Y127.848 E9.21475
G1 X78.549 Y127.466 E9.23526
G1 X78.466 Y127.101 E9.25394
G1 X78.452 Y127.008 E9.25863
G1 X78.428 Y126.64 E9.27703
G1 X78.429 Y126.549 E9.28157
G1 X78.823 Y116.27 E9.79476
G1 X78.785 Y115.405 E9.83796
G1 X78.759 Y115.171 E9.84971
G1 X78.731 Y114.639 E9.87629
G1 X78.737 Y114.286 E9.8939
G1 X78.773 Y113.814 E9.91752
G1 X78.802 Y113.597 E9.92844
G1 X78.828 Y113.447 E9.93603
G1 X78.898 Y113.103 E9.95355
G1 X78.946 Y112.905 E9.96371
G1 X78.999 Y112.714 E9.9736
G1 X79.049 Y112.554 E9.98196
G1 X79.176 Y112.194 E10.00101
G1 X79.228 Y112.063 E10.00804
G1 X79.314 Y111.861 E10.01899
G1 X79.391 Y111.699 E10.02794
G1 X79.549 Y111.393 E10.04512
G1 X79.651 Y111.213 E10.05545
G1 X79.837 Y110.919 E10.0728
G1 X80.054 Y110.614 E10.09148
G1 X80.172 Y110.46 E10.10116
G1 X80.311 Y110.291 E10.11207
G1 X80.409 Y110.181 E10.11942
G1 X80.556 Y110.025 E10.13012
G1 X80.985 Y109.511 E10.16352
G1 X81.354 Y108.935 E10.19765
G1 X81.645 Y108.318 E10.23168
G1 X81.858 Y107.669 E10.26576
G1 X81.986 Y106.998 E10.29984
G1 X82.029 Y106.317 E10.33388
G1 X81.986 Y105.635 E10.36797
G1 X81.856 Y104.965 E10.40202
G1 X81.643 Y104.316 E10.4361
G1 X81.348 Y103.695 E10.4704
G1 X80.831 Y102.929 E10.51651
G1 X80.767 Y102.85 E10.52158
G1 X80.609 Y102.641 E10.53465
G1 X80.518 Y102.51 E10.54261
G1 X80.283 Y102.142 E10.56439
G1 X80.2 Y102.001 E10.57256
G1 X80.098 Y101.814 E10.58318
G1 X80.02 Y101.656 E10.59197
G1 X79.834 Y101.243 E10.61457
G1 X79.724 Y100.95 E10.63019
G1 X79.606 Y100.577 E10.6497
G1 X79.53 Y100.276 E10.66519
G1 X79.44 Y99.82 E10.68838
G1 X79.408 Y99.588 E10.70006
G1 X79.393 Y99.439 E10.70754
G1 X79.36 Y98.922 E10.73338
G1 X79.363 Y98.51 E10.75394
G1 X79.376 Y98.077 E10.77555
G1 X79.35 Y98.077 E10.77685
G1 X79.336 Y97.622 E10.79956
G1 X78.118 Y87.453 E11.31052
G1 X78.104 Y87.268 E11.31977
G1 X78.098 Y87.102 E11.32806
G1 X78.119 Y86.696 E11.34834
G1 X78.199 Y86.317 E11.36767
G1 X78.223 Y86.235 E11.37193
G1 X78.338 Y85.929 E11.38824
G1 X78.407 Y85.784 E11.39625
G1 X83.382 Y76.019 E11.94301
G1 X83.453 Y75.891 E11.95031
G1 X83.583 Y75.676 E11.96285
G1 X83.689 Y75.515 E11.97247
G1 X83.894 Y75.227 E11.9901
G1 X83.994 Y75.097 E11.99829
G1 X84.231 Y74.817 E12.01659
G0 F2400 X85 Y74.088
G1 F900 X85 Y138 E15.20517
G0 F2400 X87.5 Y139.891
G1 F900 X87.5 Y72.819 E18.5514
G0 F2400 X90 Y72.666
G1 F900 X90 Y140.421 E21.93172
G0 F2400 X92.5 Y140.018
G1 F900 X92.5 Y72.908 E25.27985
G0 F2400 X95 Y72.178
G1 F900 X95 Y140.06 E28.66649
G0 F2400 X97.5 Y140.763
G1 F900 X97.5 Y71.336 E32.13022
G0 F2400 X100 Y70.4
G1 F900 X100 Y141.473 E35.67607
G0 F2400 X102.5 Y142.652
G1 F900 X102.5 Y69.136 E39.3438
G0 F2400 X105 Y68.957
G1 F900 X105 Y143.147 E43.04515
G0 F2400 X107.5 Y142.587
G1 F900 X107.5 Y69.754 E46.6788
G0 F2400 X110 Y69.922
G1 F900 X110 Y142.171 E50.28332
G0 F2400 X112.5 Y142.901
G1 F900 X112.5 Y69.163 E53.96212
G0 F2400 X115 Y69.169
G1 F900 X115 Y143.197 E57.6554
G0 F2400 X117.5 Y142.431
G1 F900 X117.5 Y70.28 E61.25502
G0 F2400 X120 Y71.124
G1 F900 X120 Y141.149 E64.74858
G0 F2400 X122.5 Y140.289
G1 F900 X122.5 Y71.849 E68.16307
G0 F2400 X125 Y72.365
G1 F900 X125 Y139.382 E71.50656
G0 F2400 X127.5 Y139.171
G1 F900 X127.5 Y71.938 E74.86083
G0 F2400 X130 Y72.02
G1 F900 X130 Y139.4 E78.22243
G0 F2400 X132.5 Y138.685
G1 F900 X132.5 Y73.185 E81.49024
G0 F2400 X135 Y76.402
G1 F900 X135 Y136.413 E84.4842
G0 F2400 X137.5 Y131.509
G1 F900 X137.5 Y108.815 E85.61641
G0 F2400 X137.112 Y106.55
G0 X137.063 Y105.923
G0 X137.08 Y105.569
G0 X137.5 Y102.891
G1 F900 X137.5 Y80.52 E86.7325
G0 F2400 X140 Y84.783
G1 F900 X140 Y89.223 E86.95402
G1 F1500 E83.45402
G0 F2400 X137.095 Y105.296
G0 X137.063 Y105.923
G0 X137.161 Y106.622
G0 X140 Y120.953
G1 F1500 E86.95402
G1 F900 X140 Y126.528 E87.23215
G1 F1500 E83.73215
G0 F2400 X82.5 Y134.063
G1 F1500 E87.23215
G1 F900 X82.5 Y77.75 E90.04162
G0 F2400 X80 Y82.657
G1 F900 X80 Y101.611 E90.98724
G0 F2400 X81.215 Y104.487
G0 X81.527 Y105.691
G0 X81.568 Y106.317
G0 X81.411 Y107.552
G0 X81.302 Y107.889
G0 X80 Y110.689
G1 F900 X80 Y130 E91.95067
G0 F300 X80 Y130 Z0.375
G0 F2400 X85.162 Y138.195
;TIME_ELAPSED:135.657599
;LAYER:-5
M140 S70
;WIPE_SCRIPT_BEGIN
G1 F1800 E87.95067
G1 F300 Z0.575
G0 F2400 X100 Y138.195 Z0.575
G0 X120 Y138.195
G0 X100 Y138.195
G0 X120 Y138.195
G0 X100 Y138.195
G0 X120 Y138.195
G0 X85.162 Y138.195
G1 F300 Z0.375
G1 F1800 E91.95067
;WIPE_SCRIPT_END
;TYPE:SUPPORT
G1 F1500 X85.767 Y138.8 E92.0147
G1 X85.591 Y138.643 E92.03235
G1 X85.464 Y138.52 E92.04558
G1 X85.217 Y138.262 E92.07231
G0 F2400 X85.767 Y138.8
G1 F1500 X85.831 Y138.857 E92.07872
G1 X86.08 Y139.059 E92.10272
G1 X86.195 Y139.146 E92.11351
G1 X86.446 Y139.321 E92.13641
G1 X86.749 Y139.511 E92.16317
G1 X87.153 Y139.729 E92.19752
G1 X87.484 Y139.885 E92.22491
G1 X87.896 Y140.045 E92.25798
G1 X88.232 Y140.155 E92.28444
G1 X88.651 Y140.263 E92.31682
G1 X88.811 Y140.297 E92.32906
G1 X89.048 Y140.339 E92.34708
G1 X89.477 Y140.389 E92.3794
G1 X81.458 Y132.37 E93.22807
G1 X78.867 Y128.16 E93.59802
G1 X78.776 Y127.998 E93.61192
G1 X78.7 Y127.847 E93.62457
G1 X78.548 Y127.465 E93.65534
G1 X78.511 Y127.301 E93.66792
G1 X91.482 Y140.273 E95.04073
G1 X91.641 Y140.24 E95.05289
G1 X92.16 Y140.094 E95.09323
G1 X92.337 Y140.047 E95.10694
G1 X92.973 Y139.925 E95.1554
