;FLAVOR:Marlin
;TIME:8479
;Filament used: 2.5456m
;Layer height: 0.15
;MINX:90.342
;MINY:94.246
;MINZ:0.15
;MAXX:129.526
;MAXY:125.879
;MAXZ:34.85
;Generated with Cura_SteamEngine 4.6.1
M140 S70
M105
M190 S70
M104 S255
M105
M109 S255
M82 ;absolute extrusion mode
M201 X500.00 Y500.00 Z100.00 E5000.00 ;Setup machine max acceleration
M203 X500.00 Y500.00 Z10.00 E50.00 ;Setup machine max feedrate
M204 P500.00 R1000.00 T500.00 ;Setup Print/Retract/Travel acceleration
M205 X8.00 Y8.00 Z0.40 E5.00 ;Setup Jerk
M220 S100 ;Reset Feedrate
M221 S100 ;Reset Flowrate

G28 ;Home

G92 E0 ;Reset Extruder
G1 Z2.0 F3000 ;Move Z Axis up
G1 X10.1 Y20 Z0.28 F5000.0 ;Move to start position
G1 X10.1 Y200.0 Z0.28 F1500.0 E15 ;Draw the first line
G1 X10.4 Y200.0 Z0.28 F5000.0 ;Move to side a little
G1 X10.4 Y20 Z0.28 F1500.0 E30 ;Draw the second line
G92 E0 ;Reset Extruder
G1 Z2.0 F3000 ;Move Z Axis up

G92 E0
G92 E0
G1 F1500 E-3.5
;LAYER_COUNT:226
;LAYER:-6
M107
M204 S500
M205 X8 Y8
G0 F2400 X91.636 Y98.134 Z0.15
;TYPE:SUPPORT-INTERFACE
G1 F1500 E0
G1 F900 X91.681 Y98.098 E0.00288
G1 X91.985 Y97.89 E0.02125
G1 X92.041 Y97.858 E0.02447
G1 X92.409 Y97.691 E0.04463
G1 X92.785 Y97.585 E0.06412
G1 X92.859 Y97.57 E0.06789
G1 X93.205 Y97.53 E0.08527
G1 X93.344 Y97.525 E0.0922
G1 X96.161 Y97.5 E0.23275
G1 X96.361 Y97.507 E0.24273
G1 X97.158 Y97.565 E0.2826
G1 X97.158 Y97.556 E0.28305
G1 X97.722 Y97.537 E0.31121
G1 X98.396 Y97.428 E0.34527
G1 X99.051 Y97.236 E0.37932
G1 X99.677 Y96.961 E0.41343
G1 X100.262 Y96.611 E0.44744
G1 X100.8 Y96.189 E0.48156
G1 X101.276 Y95.705 E0.51542
G1 X101.422 Y95.521 E0.52714
G1 X101.532 Y95.393 E0.53556
G1 X101.847 Y95.088 E0.55744
G1 X102.193 Y94.85 E0.57839
G1 X102.569 Y94.673 E0.59912
G1 X102.936 Y94.565 E0.61821
G1 X103.011 Y94.549 E0.62204
G1 X103.327 Y94.505 E0.63795
G1 X103.528 Y94.496 E0.64799
G1 X106.348 Y94.471 E0.78869
G1 X106.551 Y94.478 E0.79882
G1 X106.689 Y94.488 E0.80572
G1 X107.113 Y94.557 E0.82715
G1 X107.476 Y94.677 E0.84623
G1 X108.063 Y94.926 E0.87804
G1 X108.067 Y94.919 E0.87844
G1 X108.641 Y95.094 E0.90838
G1 X109.314 Y95.208 E0.94244
G1 X109.997 Y95.237 E0.97654
G1 X110.677 Y95.178 E1.01059
G1 X111.348 Y95.035 E1.04482
G1 X112.161 Y94.732 E1.08811
G1 X112.359 Y94.642 E1.09896
G1 X112.719 Y94.54 E1.11763
G1 X112.809 Y94.523 E1.1222
G1 X113.15 Y94.483 E1.13933
G1 X113.294 Y94.477 E1.14652
G1 X116.094 Y94.447 E1.28622
G1 X116.312 Y94.454 E1.2971
G1 X116.455 Y94.464 E1.30425
G1 X116.865 Y94.531 E1.32498
G1 X117.269 Y94.667 E1.34624
G1 X117.641 Y94.864 E1.36724
G1 X117.977 Y95.12 E1.38832
G1 X118.242 Y95.397 E1.40744
G1 X118.703 Y95.897 E1.44137
G1 X119.226 Y96.337 E1.47547
G1 X119.801 Y96.706 E1.50956
G1 X120.416 Y97.001 E1.54359
G1 X121.065 Y97.215 E1.57768
G1 X121.735 Y97.345 E1.61173
G1 X122.417 Y97.391 E1.64583
G1 X123.105 Y97.348 E1.68022
G1 X123.421 Y97.311 E1.6961
G1 X123.521 Y97.308 E1.70109
G1 X126.36 Y97.278 E1.84273
G1 X126.697 Y97.295 E1.85957
G1 X127.058 Y97.351 E1.87779
G1 X127.118 Y97.366 E1.88088
G1 X127.517 Y97.5 E1.90188
G1 X127.882 Y97.695 E1.92252
G1 X128.222 Y97.953 E1.94382
G1 X128.505 Y98.254 E1.96443
G1 X128.747 Y98.611 E1.98595
G1 X128.924 Y99 E2.00727
G1 X129.024 Y99.354 E2.02562
G1 X129.041 Y99.441 E2.03004
G1 X129.083 Y99.786 E2.04738
G1 X129.088 Y99.93 E2.05457
G1 X129.327 Y122.701 E3.19068
G1 X129.322 Y122.867 E3.19897
G1 X129.31 Y123.043 E3.20777
G1 X129.242 Y123.455 E3.2286
G1 X129.106 Y123.856 E3.24973
G1 X128.934 Y124.19 E3.26847
G1 X128.905 Y124.235 E3.27114
G1 X128.66 Y124.559 E3.29141
G1 X128.346 Y124.854 E3.3129
G1 X127.988 Y125.095 E3.33443
G1 X127.615 Y125.266 E3.35491
G1 X127.248 Y125.369 E3.37392
G1 X127.147 Y125.389 E3.37906
G1 X126.821 Y125.428 E3.39544
G1 X126.678 Y125.433 E3.40258
G1 X117.968 Y125.523 E3.83714
G1 X117.793 Y125.517 E3.84588
G1 X117.631 Y125.506 E3.85398
G1 X117.27 Y125.45 E3.87221
G1 X117.21 Y125.435 E3.87529
G1 X116.821 Y125.305 E3.89576
G1 X116.445 Y125.106 E3.91698
G1 X116.105 Y124.847 E3.9383
G1 X115.851 Y124.582 E3.95662
G1 X115.815 Y124.537 E3.95949
G1 X115.653 Y124.3 E3.97381
G1 X115.239 Y123.773 E4.00725
G1 X114.753 Y123.293 E4.04133
G1 X114.21 Y122.879 E4.07539
G1 X113.618 Y122.535 E4.10955
G1 X112.902 Y122.241 E4.14817
G1 X112.492 Y122.107 E4.16969
G1 X111.917 Y121.862 E4.20087
G1 X111.263 Y121.669 E4.23489
G1 X110.589 Y121.56 E4.26895
G1 X109.906 Y121.537 E4.30305
G1 X109.227 Y121.601 E4.33707
G1 X108.558 Y121.75 E4.37127
G1 X107.802 Y122.034 E4.41156
G1 X107.625 Y122.117 E4.42131
G1 X106.939 Y122.37 E4.45779
G1 X106.94 Y122.373 E4.45795
G1 X106.387 Y122.65 E4.4888
G1 X105.821 Y123.031 E4.52284
G1 X105.302 Y123.483 E4.55718
G1 X104.674 Y124.235 E4.60606
G1 X104.379 Y124.655 E4.63166
G1 X104.086 Y124.955 E4.65259
G1 X103.741 Y125.208 E4.67393
G1 X103.356 Y125.402 E4.69544
G1 X103.015 Y125.513 E4.71333
G1 X102.945 Y125.529 E4.71691
G1 X102.606 Y125.583 E4.73404
G1 X102.479 Y125.593 E4.74039
G1 X102.31 Y125.601 E4.74883
G1 X93.634 Y125.679 E5.1817
G1 X93.432 Y125.672 E5.19178
G1 X93.294 Y125.662 E5.19869
G1 X92.87 Y125.593 E5.22012
G1 X92.485 Y125.464 E5.24037
G1 X92.098 Y125.259 E5.26222
G1 X91.766 Y125.006 E5.28305
G1 X91.473 Y124.694 E5.3044
G1 X91.235 Y124.34 E5.32568
G1 X91.081 Y124.011 E5.34381
G1 X91.058 Y123.95 E5.34706
G1 X90.96 Y123.599 E5.36524
G1 X90.942 Y123.506 E5.36997
G1 X90.902 Y123.173 E5.3867
G1 X90.897 Y122.985 E5.39608
G1 X90.732 Y104.692 E6.30876
G1 X90.736 Y104.568 E6.31495
G1 X90.735 Y104.193 E6.33366
G1 X90.729 Y104.016 E6.34249
G1 X90.693 Y100.255 E6.53014
G1 X90.699 Y100.075 E6.53913
G1 X90.71 Y99.917 E6.54703
G1 X90.78 Y99.495 E6.56837
G1 X90.913 Y99.101 E6.58911
G1 X91.12 Y98.716 E6.61092
G1 X91.369 Y98.391 E6.63135
G1 X91.636 Y98.134 E6.64984
G0 F2400 X92.5 Y97.665
G1 F900 X92.5 Y125.469 E8.03699
G0 F2400 X95 Y125.667
G1 F900 X95 Y97.51 E9.44174
G0 F2400 X97.5 Y97.544
G1 F900 X97.5 Y125.645 E10.84371
G0 F2400 X100 Y125.622
G1 F900 X100 Y96.767 E12.28329
G0 F2400 X102.5 Y94.705
G1 F900 X102.5 Y125.592 E13.82425
G0 F2400 X105 Y123.845
G1 F900 X105 Y94.482 E15.28917
G0 F2400 X107.5 Y94.688
G1 F900 X107.5 Y122.164 E16.65996
G0 F2400 X110 Y121.54
G1 F900 X110 Y95.236 E17.97227
G0 F2400 X112.5 Y94.602
G1 F900 X112.5 Y122.109 E19.3446
G0 F2400 X115 Y123.536
G1 F900 X115 Y94.458 E20.79531
G0 F2400 X117.5 Y94.79
G1 F900 X117.5 Y125.485 E22.32669
G0 F2400 X120 Y125.503
G1 F900 X120 Y96.802 E23.75859
G0 F2400 X122.5 Y97.385
G1 F900 X122.5 Y125.477 E25.1601
G0 F2400 X125 Y125.451
G1 F900 X125 Y97.292 E26.56496
G0 F2400 X127.5 Y97.495
G1 F900 X127.5 Y125.299 E27.95211
G0 F300 X127.5 Y125.299 Z0.375
G0 F2400 X128.923 Y98.999
;TIME_ELAPSED:45.980140
;LAYER:-5
M140 S70
;WIPE_SCRIPT_BEGIN
G1 F1800 E23.95211
G1 F300 Z0.575
G0 F2400 X100 Y98.999 Z0.575
G0 X120 Y98.999
G0 X100 Y98.999
G0 X120 Y98.999
G0 X100 Y98.999
G0 X120 Y98.999
G0 X128.923 Y98.999
G1 F300 Z0.375
G1 F1800 E27.95211
;WIPE_SCRIPT_END
;TYPE:SUPPORT
G1 F1500 X128.746 Y98.61 E27.98409
G1 X128.503 Y98.253 E28.01641
G1 X128.221 Y97.952 E28.04727
G1 X127.881 Y97.695 E28.07917
G1 X127.516 Y97.5 E28.11014
G1 X127.117 Y97.366 E28.14164
G1 X127.057 Y97.35 E28.14628
G1 X127.047 Y97.349 E28.14703
G1 X129.011 Y99.313 E28.35489
G1 X129.022 Y99.354 E28.35807
G1 X129.04 Y99.441 E28.36472
G1 X129.082 Y99.785 E28.39065
G1 X129.087 Y99.93 E28.40151
G1 X129.104 Y101.527 E28.52103
G1 X124.87 Y97.293 E28.96912
G1 X123.52 Y97.307 E29.07016
G1 X123.42 Y97.311 E29.07765
G1 X123.103 Y97.348 E29.10153
G1 X122.821 Y97.365 E29.12267
G1 X129.126 Y103.671 E29.79
G1 X129.149 Y105.814 E29.95038
G1 X120.263 Y96.928 E30.89082
G1 X119.8 Y96.706 E30.92924
G1 X119.225 Y96.337 E30.98037
G1 X118.702 Y95.897 E31.03152
G1 X118.24 Y95.397 E31.08247
G1 X117.976 Y95.12 E31.1111
G1 X117.639 Y94.864 E31.14277
G1 X117.268 Y94.666 E31.17424
G1 X116.864 Y94.53 E31.20614
G1 X116.454 Y94.464 E31.23722
G1 X116.311 Y94.454 E31.24795
G1 X116.092 Y94.446 E31.26435
G1 X115.664 Y94.451 E31.29638
G1 X129.172 Y107.958 E32.72592
G1 X129.194 Y110.102 E32.88638
G1 X113.566 Y94.474 E34.54034
G1 X113.293 Y94.477 E34.56077
G1 X113.149 Y94.482 E34.57155
G1 X112.808 Y94.522 E34.59724
G1 X112.718 Y94.54 E34.60411
G1 X112.357 Y94.642 E34.63219
G1 X112.16 Y94.731 E34.64836
G1 X111.826 Y94.856 E34.67505
G1 X129.216 Y112.246 E36.51549
G1 X129.239 Y114.39 E36.67594
G1 X110.079 Y95.23 E38.70371
G1 X109.996 Y95.237 E38.70994
G1 X109.313 Y95.207 E38.7611
G1 X108.64 Y95.093 E38.81218
G1 X108.066 Y94.918 E38.85709
G1 X108.062 Y94.925 E38.85769
G1 X107.475 Y94.676 E38.90541
G1 X107.369 Y94.642 E38.91374
G1 X129.261 Y116.534 E41.23064
G1 X129.284 Y118.677 E41.39102
G1 X105.089 Y94.482 E43.95165
G1 X103.527 Y94.496 E44.06855
G1 X103.326 Y94.504 E44.0836
G1 X103.031 Y94.546 E44.1059
G1 X129.307 Y120.821 E46.88672
G1 X129.326 Y122.7 E47.02734
G1 X129.321 Y122.866 E47.03977
G1 X129.315 Y122.951 E47.04615
G1 X101.646 Y95.282 E49.97445
G1 X101.531 Y95.393 E49.98641
G1 X101.421 Y95.52 E49.99898
G1 X101.275 Y95.704 E50.01656
G1 X100.799 Y96.189 E50.06741
G1 X100.593 Y96.351 E50.08702
G1 X128.721 Y124.478 E53.06385
G1 X128.658 Y124.558 E53.07147
G1 X128.345 Y124.853 E53.10365
G1 X127.987 Y125.094 E53.13595
G1 X127.613 Y125.266 E53.16676
G1 X127.436 Y125.315 E53.1805
G1 X99.263 Y97.142 E56.16214
G1 X99.05 Y97.235 E56.17953
G1 X98.395 Y97.428 E56.23063
G1 X97.72 Y97.536 E56.28179
G1 X97.543 Y97.543 E56.29504
G1 X125.444 Y125.444 E59.24789
G1 X123.345 Y125.466 E59.40498
G1 X95.385 Y97.506 E62.36407
G1 X93.343 Y97.524 E62.51689
G1 X93.284 Y97.526 E62.52131
G1 X121.246 Y125.488 E65.48061
G1 X119.146 Y125.51 E65.63778
G1 X91.712 Y98.076 E68.5412
G1 X91.681 Y98.097 E68.54401
G1 X91.636 Y98.132 E68.54827
G1 X91.368 Y98.39 E68.57611
G1 X91.119 Y98.715 E68.60675
G1 X90.913 Y99.1 E68.63943
G1 X90.837 Y99.323 E68.65706
G1 X116.816 Y125.302 E71.4065
G1 X116.444 Y125.105 E71.438
G1 X116.104 Y124.846 E71.46998
G1 X115.85 Y124.58 E71.49751
G1 X115.814 Y124.536 E71.50176
G1 X115.652 Y124.299 E71.52324
G1 X115.239 Y123.772 E71.57335
G1 X114.752 Y123.291 E71.62457
G1 X114.21 Y122.878 E71.67557
G1 X113.617 Y122.534 E71.72687
G1 X112.902 Y122.24 E71.78473
G1 X112.492 Y122.106 E71.81701
G1 X111.916 Y121.861 E71.86385
G1 X111.262 Y121.668 E71.91488
G1 X111.022 Y121.629 E71.93307
G1 X90.702 Y101.309 E74.0836
G1 X90.723 Y103.451 E74.24391
G1 X108.936 Y121.664 E76.17145
G1 X108.557 Y121.749 E76.20051
G1 X107.801 Y122.033 E76.26095
G1 X107.625 Y122.116 E76.27551
G1 X107.363 Y122.212 E76.29639
G1 X90.739 Y105.588 E78.05576
G1 X90.758 Y107.729 E78.21599
G1 X105.963 Y122.934 E79.82518
G1 X105.82 Y123.03 E79.83807
G1 X105.302 Y123.482 E79.88952
G1 X104.887 Y123.979 E79.93797
G1 X90.778 Y109.87 E81.43117
G1 X90.797 Y112.01 E81.59133
G1 X103.886 Y125.099 E82.97658
G1 X103.741 Y125.207 E82.99011
G1 X103.356 Y125.401 E83.02237
G1 X103.014 Y125.512 E83.04928
G1 X102.944 Y125.528 E83.05465
G1 X102.605 Y125.582 E83.08034
G1 X102.478 Y125.592 E83.08987
G1 X102.309 Y125.6 E83.10253
G1 X102.266 Y125.6 E83.10575
G1 X90.817 Y114.151 E84.31744
G1 X90.836 Y116.292 E84.47766
G1 X100.163 Y125.619 E85.46477
G1 X98.06 Y125.638 E85.62216
G1 X90.855 Y118.432 E86.38474
G1 X90.875 Y120.573 E86.54496
G1 X95.958 Y125.657 E87.08297
G1 X93.856 Y125.676 E87.24028
G1 X90.894 Y122.714 E87.55376
G0 F2400 X90.897 Y122.984
G1 F1500 X90.901 Y123.172 E87.56783
G1 X90.941 Y123.505 E87.59293
G1 X90.96 Y123.598 E87.60003
G1 X91.057 Y123.949 E87.62728
G1 X91.081 Y124.01 E87.63219
G1 X91.235 Y124.339 E87.65937
G1 X91.473 Y124.693 E87.69129
G1 X91.765 Y125.005 E87.72327
G1 X92.097 Y125.258 E87.75451
G1 X92.485 Y125.463 E87.78735
G1 X92.869 Y125.592 E87.81767
G1 X93.294 Y125.661 E87.84989
G1 X93.431 Y125.671 E87.86017
G1 X93.633 Y125.678 E87.87529
G1 X93.856 Y125.676 E87.89198
G0 F300 X93.856 Y125.676 Z0.525
G0 F2400 X92.387 Y125.64
;TIME_ELAPSED:83.911360
;LAYER:-4
;WIPE_SCRIPT_BEGIN
G1 F1800 E83.89198
G1 F300 Z0.725
G0 F2400 X100 Y125.64 Z0.725
G0 X120 Y125.64
G0 X100 Y125.64
G0 X120 Y125.64
G0 X100 Y125.64
G0 X120 Y125.64
G0 X92.387 Y125.64
G1 F300 Z0.525
G1 F1800 E87.89198
;WIPE_SCRIPT_END
;TYPE:SUPPORT-INTERFACE
G1 F1200 X92.442 Y125.664 E87.89348
G1 X92.809 Y125.784 E87.90311
G1 X93.28 Y125.862 E87.91502
G1 X93.424 Y125.872 E87.91862
G1 X93.628 Y125.879 E87.92371
G1 X102.319 Y125.801 E88.14052
G1 X102.49 Y125.793 E88.14479
G1 X102.616 Y125.783 E88.14794
G1 X102.982 Y125.725 E88.15719
G1 X103.074 Y125.704 E88.15954
G1 X103.391 Y125.6 E88.16786
G1 X92.31 Y125.6 E88.44428
G1 X92.028 Y125.453 E88.45221
G1 X91.686 Y125.2 E88.46282
G1 X104.09 Y125.2 E88.77224
G1 X104.202 Y125.117 E88.77572
G1 X104.257 Y125.069 E88.77754
G1 X104.516 Y124.8 E88.78686
G1 X91.306 Y124.8 E89.11638
G1 X91.092 Y124.493 E89.12572
G1 X91.051 Y124.421 E89.12778
G1 X91.041 Y124.4 E89.12836
G1 X104.802 Y124.4 E89.47163
G1 X104.833 Y124.356 E89.47297
G1 X105.13 Y124 E89.48454
G1 X90.863 Y124 E89.84043
G1 X90.761 Y123.63 E89.85001
G1 X90.755 Y123.6 E89.85077
G1 X105.472 Y123.6 E90.21789
G1 X105.93 Y123.2 E90.23305
G1 X90.704 Y123.2 E90.61287
G1 X90.701 Y123.173 E90.61355
G1 X90.696 Y122.986 E90.61821
G1 X90.694 Y122.8 E90.62285
G1 X106.532 Y122.8 E91.01793
G1 X107.075 Y122.528 E91.03308
G1 X107.428 Y122.4 E91.04245
G1 X90.69 Y122.4 E91.45998
G1 X90.687 Y122 E91.46996
G1 X108.459 Y122 E91.91328
G0 F2400 X108.614 Y121.942
G1 F1200 X109.257 Y121.799 E91.92971
G1 X109.911 Y121.738 E91.9461
G1 X110.568 Y121.76 E91.9625
G1 X111.217 Y121.865 E91.9789
G1 X111.674 Y122 E91.99078
G1 X129.519 Y122 E92.43593
G1 X129.515 Y121.6 E92.44591
G1 X90.683 Y121.6 E93.41458
G1 X90.679 Y121.2 E93.42456
G1 X129.511 Y121.2 E94.39322
G1 X129.507 Y120.8 E94.4032
G1 X90.676 Y120.8 E95.37185
G1 X90.672 Y120.4 E95.38182
G1 X129.502 Y120.4 E96.35044
G1 X129.498 Y120 E96.36042
G1 X90.669 Y120 E97.32901
G1 X90.665 Y119.6 E97.33899
G1 X129.494 Y119.6 E98.30759
G1 X129.49 Y119.2 E98.31756
G1 X90.661 Y119.2 E99.28616
G1 X90.659 Y118.8 E99.29614
G1 X129.487 Y118.8 E100.2647
G1 X129.482 Y118.4 E100.27468
G1 X90.655 Y118.4 E101.24323
G1 X90.652 Y118 E101.2532
G1 X129.478 Y118 E102.22172
G1 X129.474 Y117.6 E102.2317
G1 X90.648 Y117.6 E103.20022
G1 X90.644 Y117.2 E103.2102
G1 X129.47 Y117.2 E104.17872
G1 X129.466 Y116.8 E104.1887
G1 X90.641 Y116.8 E105.15719
G1 X90.637 Y116.4 E105.16717
G1 X129.461 Y116.4 E106.13564
G1 X129.457 Y116 E106.14562
G1 X90.634 Y116 E107.11406
G1 X90.63 Y115.6 E107.12404
G1 X129.453 Y115.6 E108.09248
G1 X129.449 Y115.2 E108.10246
G1 X90.626 Y115.2 E109.0709
G1 X90.623 Y114.8 E109.08088
G1 X129.445 Y114.8 E110.0493
G1 X129.44 Y114.4 E110.05928
G1 X90.619 Y114.4 E111.02767
G1 X90.615 Y114 E111.03765
G1 X129.436 Y114 E112.00605
G1 X129.432 Y113.6 E112.01602
G1 X90.612 Y113.6 E112.98439
G1 X90.608 Y113.2 E112.99437
G1 X129.428 Y113.2 E113.96274
G1 X129.424 Y112.8 E113.97272
G1 X90.605 Y112.8 E114.94106
G1 X90.601 Y112.4 E114.95104
G1 X129.419 Y112.4 E115.91936
G1 X129.415 Y112 E115.92934
G1 X90.597 Y112 E116.89766
G1 X90.594 Y111.6 E116.90764
G1 X129.411 Y111.6 E117.87593
G1 X129.407 Y111.2 E117.88591
G1 X90.59 Y111.2 E118.8542
G1 X90.587 Y110.8 E118.86418
G1 X129.403 Y110.8 E119.83245
G1 X129.398 Y110.4 E119.84243
G1 X90.583 Y110.4 E120.81067
G1 X90.579 Y110 E120.82065
G1 X129.394 Y110 E121.78889
G1 X129.39 Y109.6 E121.79887
G1 X90.576 Y109.6 E122.76709
G1 X90.572 Y109.2 E122.77707
G1 X129.386 Y109.2 E123.74529
G1 X129.382 Y108.8 E123.75527
G1 X90.569 Y108.8 E124.72346
G1 X90.565 Y108.4 E124.73344
G1 X129.377 Y108.4 E125.70161
G1 X129.373 Y108 E125.71159
G1 X90.561 Y108 E126.67976
G1 X90.558 Y107.6 E126.68974
G1 X129.369 Y107.6 E127.65788
G1 X129.365 Y107.2 E127.66786
G1 X90.554 Y107.2 E128.636
G1 X90.551 Y106.8 E128.64598
G1 X129.361 Y106.8 E129.6141
G1 X129.357 Y106.4 E129.62408
G1 X90.547 Y106.4 E130.5922
G1 X90.543 Y106 E130.60218
G1 X129.352 Y106 E131.57027
G1 X129.348 Y105.6 E131.58025
G1 X90.54 Y105.6 E132.54832
G1 X90.536 Y105.2 E132.5583
G1 X129.344 Y105.2 E133.52637
G1 X129.34 Y104.8 E133.53635
G1 X90.533 Y104.8 E134.50439
G1 X90.532 Y104.685 E134.50726
G1 X90.536 Y104.565 E134.51026
G1 X90.535 Y104.4 E134.51437
G1 X129.336 Y104.4 E135.48227
G1 X129.331 Y104 E135.49225
G1 X90.528 Y104 E136.46019
