;FLAVOR:Marlin
;TIME:9873
;Filament used: 2.01974m
;Layer height: 0.1
;MINX:83.521
;MINY:83.523
;MINZ:0.15
;MAXX:136.795
;MAXY:135.011
;MAXZ:8.545
;Generated with Cura_SteamEngine 4.6.1
M140 S70
M105
M190 S70
M104 S252
M105
M109 S252
M82 ;absolute extrusion mode
M201 X500.00 Y500.00 Z100.00 E5000.00 ;Setup machine max acceleration
M203 X500.00 Y500.00 Z10.00 E50.00 ;Setup machine max feedrate
M204 P500.00 R1000.00 T500.00 ;Setup Print/Retract/Travel acceleration
M205 X8.00 Y8.00 Z0.40 E5.00 ;Setup Jerk
M220 S100 ;Reset Feedrate
M221 S100 ;Reset Flowrate

G28 ;Home

G92 E0 ;Reset Extruder
G1 Z2.0 F3000 ;Move Z Axis up
G1 X10.1 Y20 Z0.28 F5000.0 ;Move to start position
G1 X10.1 Y200.0 Z0.28 F1500.0 E15 ;Draw the first line
G1 X10.4 Y200.0 Z0.28 F5000.0 ;Move to side a little
G1 X10.4 Y20 Z0.28 F1500.0 E30 ;Draw the second line
G92 E0 ;Reset Extruder
G1 Z2.0 F3000 ;Move Z Axis up

G92 E0
G92 E0
G1 F1500 E-3.5
;LAYER_COUNT:81
;LAYER:-5
M107
M204 S500
M205 X8 Y8
G0 F2400 X90.202 Y85.412 Z0.15
;TYPE:SUPPORT-INTERFACE
G1 F1500 E0
G1 F900 X90.519 Y85.127 E0.02127
G1 X90.866 Y84.903 E0.04187
G1 X91.271 Y84.729 E0.06386
G1 X91.617 Y84.639 E0.0817
G1 X91.721 Y84.621 E0.08697
G1 X92.037 Y84.59 E0.10281
G1 X92.164 Y84.587 E0.10915
G1 X101.605 Y84.587 E0.58016
G1 X101.821 Y84.596 E0.59094
G1 X102.017 Y84.612 E0.60076
G1 X102.371 Y84.669 E0.61864
G1 X102.538 Y84.72 E0.62736
G1 X102.673 Y84.767 E0.63449
G1 X103.064 Y84.947 E0.65596
G1 X103.37 Y85.15 E0.67428
G1 X103.429 Y85.196 E0.67801
G1 X103.675 Y85.42 E0.69461
G1 X103.845 Y85.605 E0.70715
G1 X105.873 Y88.021 E0.86452
G1 X106.335 Y88.505 E0.8979
G1 X106.864 Y88.936 E0.93194
G1 X107.444 Y89.297 E0.96603
G1 X108.065 Y89.581 E1.00009
G1 X108.717 Y89.785 E1.03418
G1 X109.389 Y89.905 E1.06823
G1 X110.071 Y89.94 E1.1023
G1 X110.752 Y89.887 E1.13638
G1 X111.42 Y89.75 E1.1704
G1 X112.066 Y89.528 E1.20448
G1 X112.68 Y89.228 E1.23858
G1 X113.25 Y88.852 E1.27264
G1 X113.769 Y88.408 E1.30672
G1 X114.243 Y87.879 E1.34215
G1 X115.979 Y85.663 E1.4826
G1 X116.09 Y85.533 E1.49112
G1 X116.202 Y85.412 E1.49935
G1 X116.519 Y85.127 E1.52062
G1 X116.866 Y84.903 E1.54122
G1 X117.271 Y84.729 E1.56321
G1 X117.617 Y84.639 E1.58105
G1 X117.721 Y84.621 E1.58632
G1 X118.037 Y84.59 E1.60216
G1 X118.164 Y84.587 E1.6085
G1 X127.605 Y84.587 E2.07951
G1 X127.821 Y84.596 E2.09029
G1 X128.017 Y84.612 E2.10011
G1 X128.371 Y84.669 E2.11799
G1 X128.538 Y84.72 E2.12671
G1 X128.673 Y84.767 E2.13384
G1 X129.064 Y84.947 E2.15531
G1 X129.37 Y85.15 E2.17363
G1 X129.429 Y85.196 E2.17737
G1 X129.675 Y85.42 E2.19396
G1 X129.845 Y85.605 E2.2065
G1 X135.917 Y92.84 E2.67773
G1 X136.036 Y92.994 E2.68744
G1 X136.132 Y93.128 E2.69566
G1 X136.342 Y93.492 E2.71663
G1 X136.496 Y93.899 E2.73834
G1 X136.569 Y94.243 E2.75588
G1 X136.577 Y94.305 E2.759
G1 X136.594 Y94.674 E2.77743
G1 X136.59 Y94.78 E2.78272
G1 X136.559 Y95.078 E2.79767
G1 X136.539 Y95.189 E2.8033
G1 X135.126 Y101.88 E3.14447
G1 X135.069 Y102.104 E3.15601
G1 X135.032 Y102.229 E3.16251
G1 X134.866 Y102.642 E3.18472
G1 X134.644 Y103.014 E3.20633
G1 X134.547 Y103.145 E3.21446
G1 X131.892 Y106.535 E3.42929
G1 X131.513 Y107.088 E3.46273
G1 X131.201 Y107.696 E3.49683
G1 X130.968 Y108.338 E3.5309
G1 X130.818 Y109.004 E3.56496
G1 X130.753 Y109.683 E3.59899
G1 X130.774 Y110.366 E3.63308
G1 X130.882 Y111.04 E3.66714
G1 X131.073 Y111.696 E3.70122
G1 X131.346 Y112.321 E3.73525
G1 X131.694 Y112.905 E3.76917
G1 X132.008 Y113.319 E3.79509
G1 X135.917 Y117.976 E4.09843
G1 X136.036 Y118.13 E4.10814
G1 X136.132 Y118.264 E4.11636
G1 X136.342 Y118.628 E4.13733
G1 X136.496 Y119.035 E4.15904
G1 X136.569 Y119.379 E4.17658
G1 X136.577 Y119.441 E4.1797
G1 X136.594 Y119.81 E4.19813
G1 X136.59 Y119.916 E4.20342
G1 X136.559 Y120.214 E4.21837
G1 X136.539 Y120.325 E4.224
G1 X135.126 Y127.016 E4.56517
G1 X135.069 Y127.24 E4.5767
G1 X135.032 Y127.365 E4.58321
G1 X134.866 Y127.778 E4.60542
G1 X134.688 Y128.084 E4.62308
G1 X134.643 Y128.151 E4.6271
G1 X134.548 Y128.281 E4.63514
G1 X130.339 Y133.653 E4.97561
G1 X130.222 Y133.792 E4.98468
G1 X130.124 Y133.897 E4.99184
G1 X129.8 Y134.19 E5.01364
G1 X129.45 Y134.416 E5.03442
G1 X129.045 Y134.59 E5.05641
G1 X128.699 Y134.68 E5.07425
G1 X128.595 Y134.698 E5.07952
G1 X128.279 Y134.729 E5.09536
G1 X128.152 Y134.732 E5.10169
G1 X118.668 Y134.732 E5.57485
G1 X118.449 Y134.723 E5.58579
G1 X118.305 Y134.711 E5.593
G1 X117.885 Y134.637 E5.61427
G1 X117.539 Y134.521 E5.63248
G1 X117.49 Y134.499 E5.63516
G1 X117.152 Y134.319 E5.65427
G1 X117.072 Y134.269 E5.65897
G1 X116.922 Y134.157 E5.66831
G1 X116.622 Y133.87 E5.68902
G1 X116.394 Y133.619 E5.70594
G1 X114.47 Y131.327 E5.85524
G1 X114.007 Y130.843 E5.88865
G1 X113.478 Y130.412 E5.9227
G1 X112.898 Y130.051 E5.95678
G1 X112.278 Y129.767 E5.9908
G1 X111.625 Y129.563 E6.02493
G1 X110.953 Y129.443 E6.05899
G1 X110.272 Y129.408 E6.09301
G1 X109.59 Y129.461 E6.12714
G1 X108.922 Y129.598 E6.16116
G1 X108.276 Y129.819 E6.19522
G1 X107.662 Y130.12 E6.22934
G1 X107.092 Y130.495 E6.26338
G1 X106.573 Y130.941 E6.29752
G1 X106.072 Y131.504 E6.33512
G1 X104.431 Y133.635 E6.4693
G1 X104.326 Y133.761 E6.47748
G1 X104.209 Y133.89 E6.48617
G1 X103.903 Y134.171 E6.5069
G1 X103.543 Y134.407 E6.52838
G1 X103.212 Y134.557 E6.54651
G1 X103.147 Y134.58 E6.54995
G1 X102.805 Y134.672 E6.56761
G1 X102.704 Y134.691 E6.57274
G1 X102.293 Y134.729 E6.59333
G1 X92.759 Y134.811 E7.06901
G1 X92.56 Y134.804 E7.07894
G1 X92.41 Y134.793 E7.08644
G1 X91.987 Y134.723 E7.10783
G1 X91.595 Y134.59 E7.12849
G1 X91.259 Y134.414 E7.14741
G1 X91.164 Y134.354 E7.15302
G1 X91.024 Y134.253 E7.16163
G1 X90.71 Y133.956 E7.18319
G1 X90.497 Y133.726 E7.19883
G1 X84.42 Y126.613 E7.66558
G1 X84.308 Y126.471 E7.6746
G1 X84.213 Y126.339 E7.68271
G1 X84.026 Y126.029 E7.70077
G1 X83.999 Y125.974 E7.70383
G1 X83.863 Y125.637 E7.72196
G1 X83.845 Y125.578 E7.72504
G1 X83.76 Y125.177 E7.74549
G1 X83.74 Y124.799 E7.76437
G1 X83.743 Y124.703 E7.76917
G1 X83.781 Y124.35 E7.78688
G1 X83.81 Y124.193 E7.79484
G1 X85.154 Y117.541 E8.13342
G1 X85.189 Y117.4 E8.14067
G1 X85.237 Y117.232 E8.14939
G1 X85.401 Y116.816 E8.17169
G1 X85.566 Y116.526 E8.18834
G1 X85.637 Y116.421 E8.19466
G1 X85.746 Y116.271 E8.20391
G1 X88.457 Y112.749 E8.42565
G1 X88.832 Y112.194 E8.45907
G1 X89.139 Y111.583 E8.49319
G1 X89.366 Y110.939 E8.52725
G1 X89.51 Y110.273 E8.56125
G1 X89.57 Y109.592 E8.59535
G1 X89.542 Y108.91 E8.62941
G1 X89.429 Y108.237 E8.66345
G1 X89.232 Y107.582 E8.69758
G1 X88.954 Y106.959 E8.73161
G1 X88.602 Y106.379 E8.76546
G1 X88.311 Y106 E8.7893
G1 X84.399 Y101.342 E9.09277
G1 X84.272 Y101.177 E9.10316
G1 X84.181 Y101.049 E9.111
G1 X83.975 Y100.692 E9.13156
G1 X83.837 Y100.34 E9.15042
G1 X83.821 Y100.284 E9.15333
G1 X83.74 Y99.882 E9.17379
G1 X83.723 Y99.505 E9.19262
G1 X83.727 Y99.406 E9.19756
G1 X83.766 Y99.059 E9.21498
G1 X83.808 Y98.854 E9.22542
G1 X85.19 Y92.302 E9.55949
G1 X85.245 Y92.085 E9.57066
G1 X85.284 Y91.954 E9.57748
G1 X85.448 Y91.541 E9.59965
G1 X85.62 Y91.247 E9.61664
G1 X85.677 Y91.164 E9.62167
G1 X85.789 Y91.012 E9.63109
G1 X89.979 Y85.663 E9.97008
G1 X90.09 Y85.533 E9.9786
G1 X90.202 Y85.412 E9.98683
G0 F2400 X90 Y85.638
G1 F900 X90 Y133.144 E12.35691
G0 F2400 X92.5 Y134.799
G1 F900 X92.5 Y84.587 E14.862
G0 F2400 X95 Y84.587
G1 F900 X95 Y134.792 E17.36674
G0 F2400 X97.5 Y134.771
G1 F900 X97.5 Y84.587 E19.87043
G0 F2400 X100 Y84.587
G1 F900 X100 Y134.749 E22.37302
G0 F2400 X102.5 Y134.71
G1 F900 X102.5 Y84.709 E24.86758
G0 F2400 X105 Y86.981
G1 F900 X105 Y132.897 E27.15834
G0 F2400 X107.5 Y130.227
G1 F900 X107.5 Y89.323 E29.19905
G0 F2400 X110 Y89.937
G1 F900 X110 Y129.43 E31.16936
G0 F2400 X112.5 Y129.868
G1 F900 X112.5 Y89.315 E33.19256
G0 F2400 X115 Y86.912
G1 F900 X115 Y131.958 E35.43991
G0 F2400 X117.5 Y134.503
G1 F900 X117.5 Y84.669 E37.92614
G0 F2400 X120 Y84.587
G1 F900 X120 Y134.732 E40.42789
G0 F2400 X122.5 Y134.732
G1 F900 X122.5 Y84.587 E42.92963
G0 F2400 X125 Y84.587
G1 F900 X125 Y134.732 E45.43137
G0 F2400 X127.5 Y134.732
G1 F900 X127.5 Y84.587 E47.93312
G0 F2400 X130 Y85.79
G1 F900 X130 Y134.01 E50.33882
G0 F2400 X132.5 Y130.895
G1 F900 X132.5 Y113.906 E51.18641
G0 F2400 X135 Y116.884
G1 F900 X135 Y127.445 E51.7133
G0 F2400 X131.234 Y110.32
G0 X131.215 Y109.704
G0 X131.274 Y109.077
G0 X131.556 Y108.111
G0 X132.5 Y105.759
G1 F900 X132.5 Y88.769 E52.56093
G0 F2400 X135 Y91.748
G1 F900 X135 Y102.309 E53.08782
G1 F1500 E49.58782
G0 F2400 X87.5 Y105.034
G1 F1500 E53.08782
G1 F900 X87.5 Y88.827 E53.89639
G0 F2400 X85 Y93.202
G1 F900 X85 Y102.057 E54.33817
G0 F2400 X88.545 Y107.172
G0 X88.797 Y107.738
G0 X88.979 Y108.342
G0 X89.082 Y108.959
G0 X89.108 Y109.578
G0 X89.053 Y110.205
G0 X88.92 Y110.817
G0 X88.647 Y111.461
G0 X87.5 Y113.992
G1 F900 X87.5 Y130.218 E55.14769
G0 F2400 X85 Y127.291
G1 F900 X85 Y118.303 E55.5961
G0 F300 X85 Y118.303 Z0.3
G0 F2400 X88.831 Y112.193
;TIME_ELAPSED:85.969532
;LAYER:-4
M140 S70
;WIPE_SCRIPT_BEGIN
G1 F1800 E51.5961
G1 F300 Z0.5
G0 F2400 X100 Y112.193 Z0.5
G0 X120 Y112.193
G0 X100 Y112.193
G0 X120 Y112.193
G0 X100 Y112.193
G0 X120 Y112.193
G0 X88.831 Y112.193
G1 F300 Z0.3
G1 F1800 E55.5961
;WIPE_SCRIPT_END
;TYPE:SUPPORT
G1 F1500 X88.456 Y112.748 E55.62952
G1 X87.95 Y113.406 E55.67093
G1 X106.061 Y131.517 E56.94876
G1 X105.139 Y132.716 E57.02422
G1 X87.027 Y114.605 E58.30208
G1 X86.105 Y115.803 E58.3775
G1 X104.199 Y133.897 E59.65413
G1 X103.902 Y134.169 E59.67423
G1 X103.543 Y134.406 E59.69569
G1 X103.212 Y134.556 E59.71382
G1 X103.147 Y134.579 E59.71726
G1 X102.841 Y134.661 E59.73306
G1 X85.286 Y117.106 E60.97166
G1 X85.237 Y117.231 E60.97836
G1 X85.189 Y117.399 E60.98708
G1 X85.154 Y117.54 E60.99433
G1 X84.892 Y118.833 E61.06015
G1 X100.799 Y134.74 E62.18247
G1 X98.696 Y134.758 E62.28739
G1 X84.536 Y120.598 E63.28646
G1 X84.178 Y122.362 E63.37626
G1 X96.592 Y134.776 E64.25213
G1 X94.489 Y134.795 E64.35706
G1 X83.822 Y124.127 E65.10971
G1 X83.809 Y124.192 E65.11301
G1 X83.78 Y124.348 E65.12093
G1 X83.742 Y124.702 E65.13869
G1 X83.739 Y124.798 E65.14348
G1 X83.759 Y125.176 E65.16237
G1 X83.845 Y125.577 E65.18283
G1 X83.862 Y125.635 E65.18584
G1 X83.999 Y125.973 E65.20404
G1 X84.026 Y126.028 E65.2071
G1 X84.212 Y126.338 E65.22513
G1 X84.308 Y126.47 E65.23328
G1 X84.42 Y126.611 E65.24226
G1 X85.796 Y128.222 E65.34796
G1 X92.356 Y134.783 E65.81084
G1 X91.987 Y134.722 E65.8295
G1 X91.594 Y134.589 E65.8502
G1 X91.258 Y134.413 E65.86912
G1 X91.164 Y134.353 E65.87468
G1 X91.023 Y134.252 E65.88334
G1 X90.709 Y133.955 E65.9049
G1 X90.496 Y133.725 E65.92054
G0 F2400 X88.831 Y112.193
G1 F1500 X88.84 Y112.174 E65.92159
G1 X107.132 Y130.466 E67.21219
G1 X107.661 Y130.119 E67.24375
G1 X108.275 Y129.818 E67.27787
G1 X108.521 Y129.734 E67.29084
G1 X89.429 Y110.642 E68.63788
G1 X89.509 Y110.271 E68.65681
G1 X89.569 Y109.59 E68.69092
G1 X89.541 Y108.909 E68.72492
G1 X89.485 Y108.577 E68.74172
G1 X110.317 Y129.409 E70.21153
G1 X110.952 Y129.442 E70.24326
G1 X111.624 Y129.562 E70.27731
G1 X112.277 Y129.766 E70.31144
G1 X112.897 Y130.05 E70.34547
G1 X113.38 Y130.35 E70.37383
G1 X84.546 Y101.517 E72.40819
G1 X84.398 Y101.341 E72.41966
G1 X84.272 Y101.176 E72.43002
G1 X84.181 Y101.048 E72.43786
G1 X83.975 Y100.691 E72.45842
G1 X83.836 Y100.339 E72.4773
G1 X83.82 Y100.283 E72.48021
G1 X83.739 Y99.881 E72.50067
G1 X83.722 Y99.504 E72.51949
G1 X83.727 Y99.405 E72.52444
G1 X83.765 Y99.057 E72.5419
G1 X83.807 Y98.853 E72.5523
G1 X83.841 Y98.69 E72.5606
G1 X119.881 Y134.73 E75.10342
G1 X122.002 Y134.73 E75.20924
G1 X84.211 Y96.939 E77.8756
G1 X84.58 Y95.187 E77.96492
G1 X124.124 Y134.73 E80.75493
G1 X126.245 Y134.73 E80.86075
G1 X84.95 Y93.435 E83.77433
G1 X85.19 Y92.3 E83.83221
G1 X85.245 Y92.084 E83.84333
G1 X85.284 Y91.953 E83.85015
G1 X85.37 Y91.734 E83.86189
G1 X128.356 Y134.72 E86.89478
G1 X128.595 Y134.697 E86.90676
G1 X128.699 Y134.679 E86.91202
G1 X129.045 Y134.589 E86.92986
G1 X129.45 Y134.415 E86.95185
G1 X129.8 Y134.189 E86.97264
G1 X129.877 Y134.119 E86.97783
G1 X86.218 Y90.461 E90.05817
G1 X87.15 Y89.272 E90.13354
G1 X130.862 Y132.984 E93.21766
G1 X131.794 Y131.794 E93.29307
G1 X88.082 Y88.082 E96.37719
G1 X89.014 Y86.892 E96.4526
G1 X132.726 Y130.605 E99.53675
G1 X133.658 Y129.416 E99.61212
G1 X89.946 Y85.703 E102.69628
G1 X89.977 Y85.663 E102.6988
G1 X90.089 Y85.533 E102.70736
G1 X90.201 Y85.411 E102.71563
G1 X90.518 Y85.127 E102.73686
G1 X90.865 Y84.903 E102.75747
G1 X91.146 Y84.782 E102.77273
G1 X134.589 Y128.225 E105.83787
G1 X134.642 Y128.151 E105.84241
G1 X134.686 Y128.083 E105.84645
G1 X134.865 Y127.778 E105.86409
G1 X135.031 Y127.364 E105.88635
G1 X135.068 Y127.24 E105.8928
G1 X135.125 Y127.016 E105.90433
G1 X135.191 Y126.705 E105.92019
G1 X93.072 Y84.586 E108.89192
G1 X95.193 Y84.586 E108.99773
G1 X135.56 Y124.954 E111.84588
G1 X135.931 Y123.203 E111.93518
G1 X97.314 Y84.586 E114.65981
G1 X99.436 Y84.586 E114.76568
G1 X136.301 Y121.451 E117.36671
G1 X136.538 Y120.324 E117.42416
G1 X136.557 Y120.213 E117.42978
G1 X136.589 Y119.916 E117.44468
G1 X136.593 Y119.81 E117.44998
G1 X136.584 Y119.614 E117.45976
G1 X101.557 Y84.586 E119.93114
G1 X101.604 Y84.586 E119.93349
G1 X101.819 Y84.596 E119.94423
G1 X102.016 Y84.611 E119.95408
G1 X102.37 Y84.668 E119.97197
G1 X102.537 Y84.719 E119.98068
G1 X102.672 Y84.767 E119.98783
G1 X103.062 Y84.946 E120.00924
G1 X103.369 Y85.149 E120.0276
G1 X103.428 Y85.196 E120.03137
G1 X103.674 Y85.419 E120.04793
G1 X103.844 Y85.605 E120.0605
G1 X105.872 Y88.02 E120.21784
G1 X106.334 Y88.505 E120.25125
G1 X106.863 Y88.935 E120.28526
G1 X107.442 Y89.296 E120.31931
G1 X108.064 Y89.58 E120.35342
G1 X108.716 Y89.785 E120.38752
G1 X108.912 Y89.82 E120.39745
G1 X131.292 Y112.2 E121.97648
G1 X131.072 Y111.696 E122.00392
G1 X130.881 Y111.039 E122.03805
G1 X130.773 Y110.365 E122.07211
G1 X130.751 Y109.682 E122.1062
G1 X130.764 Y109.551 E122.11277
G1 X111.041 Y89.828 E123.50433
G1 X111.419 Y89.749 E123.5236
G1 X112.065 Y89.528 E123.55766
G1 X112.601 Y89.266 E123.58742
G1 X131.155 Y107.821 E124.89654
G1 X131.2 Y107.695 E124.90322
G1 X131.512 Y107.087 E124.93731
G1 X131.891 Y106.534 E124.97076
G1 X131.935 Y106.479 E124.97427
G1 X113.813 Y88.357 E126.25288
G1 X114.242 Y87.878 E126.28496
G1 X114.774 Y87.197 E126.32807
G1 X132.866 Y105.289 E127.60456
G1 X133.798 Y104.1 E127.67993
G1 X115.706 Y86.008 E128.95642
G1 X115.978 Y85.663 E128.97834
G1 X116.089 Y85.532 E128.98691
G1 X116.2 Y85.412 E128.99506
G1 X116.518 Y85.127 E129.01636
G1 X116.779 Y84.959 E129.03185
G1 X134.714 Y102.894 E130.29726
G1 X134.865 Y102.642 E130.31192
G1 X135.031 Y102.228 E130.33417
G1 X135.068 Y102.104 E130.34063
G1 X135.125 Y101.879 E130.35221
G1 X135.246 Y101.305 E130.38147
G1 X118.528 Y84.586 E131.56105
G1 X120.649 Y84.586 E131.66687
G1 X135.616 Y99.554 E132.72291
G1 X135.986 Y97.802 E132.81224
G1 X122.77 Y84.586 E133.7447
G1 X124.892 Y84.586 E133.85057
G1 X136.356 Y96.051 E134.65945
G1 X136.538 Y95.189 E134.70341
G1 X136.558 Y95.078 E134.70903
G1 X136.589 Y94.779 E134.72403
G1 X136.593 Y94.674 E134.72927
G1 X136.576 Y94.305 E134.7477
G1 X136.568 Y94.242 E134.75087
G1 X136.541 Y94.115 E134.75735
G1 X127.013 Y84.586 E135.42964
G1 X127.604 Y84.586 E135.45912
G1 X127.82 Y84.596 E135.46991
G1 X128.016 Y84.612 E135.47972
G1 X128.37 Y84.669 E135.49761
G1 X128.537 Y84.719 E135.50631
G1 X128.672 Y84.766 E135.51344
G1 X129.063 Y84.946 E135.53491
G1 X129.369 Y85.149 E135.55323
G1 X129.428 Y85.195 E135.55697
G1 X129.674 Y85.419 E135.57356
G1 X129.844 Y85.605 E135.58614
G1 X135.916 Y92.839 E136.05733
G1 X136.035 Y92.993 E136.06704
G1 X136.131 Y93.128 E136.0753
G1 X136.341 Y93.492 E136.09627
G1 X136.494 Y93.898 E136.11791
G1 F1500 E132.61791
G0 F2400 X113.477 Y130.411
G1 F1500 E136.11791
G1 X114.007 Y130.842 E136.15199
G1 X114.469 Y131.325 E136.18534
G1 X115.068 Y132.039 E136.23184
G1 X117.555 Y134.526 E136.40731
G1 X117.538 Y134.52 E136.40821
G1 X117.49 Y134.498 E136.41084
G1 X117.152 Y134.317 E136.42997
G1 X117.071 Y134.268 E136.43469
G1 X116.922 Y134.155 E136.44402
G1 X116.621 Y133.869 E136.46474
G1 X116.394 Y133.617 E136.48166
G0 F300 X116.394 Y133.617 Z0.45
G0 F2400 X117.745 Y134.8
;TIME_ELAPSED:159.587331
;LAYER:-3
;WIPE_SCRIPT_BEGIN
